{
 "type": "map",
 "version": "1.10",
 "tiledversion": "1.11.0",
 "orientation": "orthogonal",
 "renderorder": "right-down",
 "infinite": false,
 "width": 96,
 "height": 72,
 "tilewidth": 32,
 "tileheight": 32,
 "nextlayerid": 6,
 "nextobjectid": 50,
 "properties": [
  {
   "name": "id",
   "type": "string",
   "value": "kanto"
  },
  {
   "name": "name",
   "type": "string",
   "value": "Kanto"
  },
  {
   "name": "order",
   "type": "int",
   "value": 1
  },
  {
   "name": "minTrainerLevel",
   "type": "int",
   "value": 1
  }
 ],
 "tilesets": [
  {
   "firstgid": 1,
   "source": "../../../assets/atlas/tiles.tsj"
  }
 ],
 "layers": [
  {
   "id": 1,
   "type": "tilelayer",
   "name": "ground",
   "width": 96,
   "height": 72,
   "x": 0,
   "y": 0,
   "opacity": 1,
   "visible": true,
   "data": [
    247,
    247,
    247,
    248,
    247,
    247,
    247,
    247,
    247,
    247,
    247,
    236,
    248,
    247,
    247,
    248,
    247,
    248,
    236,
    236,
    248,
    248,
    247,
    236,
    248,
    248,
    248,
    247,
    248,
    247,
    248,
    236,
    236,
    247,
    236,
    247,
    247,
    236,
    236,
    248,
    236,
    248,
    236,
    236,
    248,
    248,
    247,
    248,
    347,
    346,
    347,
    346,
    346,
    335,
    347,
    346,
    347,
    335,
    346,
    347,
    335,
    347,
    335,
    346,
    335,
    347,
    346,
    346,
    335,
    346,
    346,
    347,
    256,
    267,
    267,
    267,
    268,
    268,
    268,
    267,
    256,
    268,
    256,
    268,
    256,
    267,
    268,
    268,
    256,
    267,
    267,
    268,
    268,
    268,
    256,
    268,
    236,
    236,
    236,
    248,
    248,
    248,
    236,
    248,
    236,
    236,
    236,
    247,
    236,
    248,
    236,
    247,
    247,
    247,
    236,
    248,
    236,
    247,
    248,
    247,
    236,
    248,
    248,
    247,
    247,
    236,
    247,
    247,
    247,
    248,
    248,
    248,
    248,
    236,
    236,
    248,
    247,
    248,
    247,
    236,
    236,
    236,
    248,
    247,
    335,
    346,
    347,
    335,
    346,
    347,
    346,
    346,
    347,
    347,
    346,
    347,
    346,
    346,
    335,
    346,
    346,
    335,
    346,
    346,
    346,
    346,
    346,
    346,
    267,
    268,
    256,
    267,
    268,
    268,
    267,
    268,
    267,
    267,
    267,
    267,
    267,
    267,
    268,
    267,
    267,
    256,
    268,
    256,
    267,
    268,
    268,
    268,
    248,
    241,
    239,
    239,
    242,
    371,
    372,
    247,
    248,
    247,
    248,
    248,
    248,
    236,
    236,
    248,
    248,
    248,
    248,
    248,
    247,
    236,
    248,
    247,
    247,
    241,
    239,
    239,
    242,
    371,
    372,
    236,
    247,
    236,
    247,
    236,
    248,
    248,
    247,
    236,
    247,
    247,
    247,
    248,
    236,
    248,
    236,
    236,
    335,
    241,
    239,
    239,
    242,
    372,
    335,
    335,
    335,
    347,
    346,
    335,
    346,
    346,
    347,
    347,
    347,
    346,
    346,
    346,
    347,
    346,
    347,
    335,
    267,
    241,
    239,
    239,
    242,
    372,
    267,
    256,
    267,
    256,
    268,
    268,
    256,
    256,
    256,
    267,
    267,
    268,
    256,
    256,
    256,
    268,
    268,
    267,
    248,
    244,
    233,
    234,
    235,
    374,
    378,
    372,
    236,
    248,
    248,
    248,
    247,
    247,
    236,
    248,
    236,
    241,
    239,
    239,
    247,
    247,
    247,
    247,
    247,
    244,
    233,
    234,
    235,
    374,
    378,
    372,
    247,
    248,
    248,
    236,
    247,
    236,
    248,
    248,
    236,
    247,
    236,
    248,
    247,
    236,
    248,
    247,
    347,
    244,
    233,
    234,
    238,
    239,
    239,
    239,
    239,
    239,
    239,
    239,
    239,
    239,
    239,
    239,
    239,
    239,
    239,
    239,
    346,
    347,
    346,
    347,
    267,
    244,
    233,
    234,
    235,
    378,
    372,
    256,
    268,
    267,
    267,
    268,
    267,
    268,
    256,
    267,
    267,
    267,
    256,
    256,
    268,
    268,
    256,
    267,
    236,
    381,
    374,
    237,
    235,
    374,
    374,
    385,
    247,
    236,
    247,
    247,
    248,
    236,
    247,
    247,
    236,
    237,
    232,
    233,
    234,
    235,
    248,
    236,
    236,
    373,
    379,
    237,
    235,
    374,
    374,
    385,
    248,
    247,
    236,
    247,
    248,
    247,
    236,
    247,
    248,
    248,
    236,
    248,
    237,
    235,
    247,
    248,
    346,
    381,
    374,
    237,
    232,
    233,
    233,
    233,
    233,
    233,
    233,
    233,
    233,
    233,
    233,
    233,
    233,
    233,
    233,
    233,
    233,
    245,
    347,
    335,
    267,
    381,
    374,
    237,
    235,
    374,
    378,
    372,
    268,
    268,
    267,
    256,
    268,
    256,
    268,
    256,
    256,
    267,
    268,
    268,
    256,
    268,
    256,
    267,
    236,
    381,
    374,
    237,
    235,
    374,
    376,
    380,
    236,
    236,
    247,
    247,
    248,
    236,
    236,
    236,
    248,
    237,
    235,
    247,
    237,
    235,
    248,
    247,
    247,
    381,
    374,
    237,
    235,
    374,
    374,
    385,
    248,
    247,
    247,
    248,
    248,
    248,
    236,
    236,
    248,
    236,
    236,
    248,
    237,
    235,
    236,
    247,
    347,
    381,
    374,
    237,
    235,
    374,
    385,
    346,
    346,
    347,
    346,
    347,
    347,
    346,
    347,
    347,
    346,
    335,
    346,
    346,
    346,
    347,
    346,
    340,
    268,
    381,
    374,
    237,
    235,
    374,
    374,
    385,
    256,
    267,
    267,
    267,
    267,
    267,
    267,
    268,
    268,
    268,
    267,
    256,
    256,
    267,
    268,
    267,
    247,
    381,
    374,
    237,
    235,
    374,
    385,
    247,
    236,
    236,
    247,
    236,
    248,
    247,
    236,
    247,
    248,
    237,
    235,
    236,
    237,
    235,
    236,
    247,
    247,
    375,
    384,
    237,
    235,
    374,
    374,
    385,
    247,
    247,
    236,
    236,
    236,
    248,
    248,
    236,
    247,
    248,
    247,
    247,
    237,
    235,
    248,
    247,
    346,
    381,
    374,
    237,
    235,
    374,
    385,
    346,
    335,
    347,
    335,
    335,
    347,
    335,
    335,
    335,
    335,
    335,
    346,
    335,
    346,
    335,
    347,
    336,
    267,
    375,
    384,
    237,
    235,
    374,
    374,
    385,
    256,
    268,
    267,
    268,
    267,
    268,
    256,
    256,
    267,
    256,
    256,
    268,
    268,
    256,
    256,
    256,
    236,
    375,
    384,
    237,
    235,
    376,
    380,
    247,
    236,
    236,
    248,
    247,
    236,
    247,
    248,
    248,
    236,
    237,
    235,
    236,
    237,
    235,
    236,
    248,
    248,
    236,
    375,
    237,
    235,
    374,
    376,
    380,
    236,
    236,
    248,
    248,
    247,
    236,
    247,
    236,
    236,
    247,
    236,
    248,
    237,
    235,
    248,
    248,
    346,
    375,
    377,
    237,
    235,
    374,
    385,
    346,
    335,
    335,
    335,
    346,
    347,
    346,
    335,
    335,
    347,
    347,
    346,
    346,
    347,
    335,
    346,
    343,
    256,
    268,
    375,
    237,
    235,
    374,
    376,
    380,
    256,
    267,
    267,
    256,
    267,
    268,
    267,
    267,
    267,
    256,
    256,
    256,
    256,
    268,
    256,
    256,
    247,
    236,
    375,
    237,
    235,
    380,
    248,
    248,
    247,
    236,
    248,
    247,
    247,
    248,
    236,
    236,
    248,
    237,
    235,
    247,
    237,
    235,
    236,
    248,
    247,
    247,
    248,
    237,
    235,
    377,
    380,
    236,
    247,
    248,
    248,
    248,
    236,
    236,
    248,
    247,
    236,
    236,
    247,
    247,
    237,
    235,
    248,
    247,
    347,
    347,
    346,
    237,
    235,
    377,
    380,
    346,
    346,
    335,
    346,
    346,
    335,
    335,
    347,
    346,
    335,
    346,
    346,
    346,
    346,
    335,
    346,
    346,
    267,
    268,
    256,
    237,
    235,
    377,
    380,
    267,
    267,
    267,
    256,
    256,
    268,
    267,
    268,
    268,
    268,
    268,
    267,
    268,
    268,
    256,
    268,
    267,
    248,
    236,
    247,
    237,
    235,
    248,
    248,
    236,
    248,
    247,
    247,
    248,
    247,
    248,
    236,
    248,
    248,
    237,
    235,
    247,
    237,
    235,
    248,
    248,
    248,
    248,
    247,
    237,
    235,
    248,
    248,
    247,
    247,
    236,
    248,
    236,
    247,
    236,
    236,
    247,
    247,
    247,
    236,
    248,
    237,
    235,
    248,
    236,
    346,
    335,
    335,
    237,
    235,
    347,
    335,
    346,
    346,
    335,
    347,
    347,
    347,
    347,
    346,
    347,
    346,
    335,
    335,
    347,
    346,
    347,
    346,
    335,
    268,
    267,
    267,
    237,
    235,
    267,
    256,
    267,
    256,
    267,
    268,
    268,
    256,
    256,
    268,
    256,
    267,
    268,
    268,
    256,
    256,
    267,
    268,
    267,
    236,
    248,
    247,
    237,
    235,
    247,
    236,
    236,
    373,
    371,
    371,
    371,
    372,
    247,
    247,
    248,
    236,
    237,
    235,
    236,
    237,
    235,
    236,
    236,
    236,
    248,
    248,
    237,
    235,
    247,
    247,
    248,
    373,
    371,
    371,
    372,
    236,
    236,
    248,
    247,
    236,
    248,
    247,
    236,
    237,
    235,
    236,
    248,
    346,
    335,
    335,
    237,
    235,
    335,
    347,
    335,
    346,
    347,
    347,
    347,
    347,
    347,
    346,
    335,
    335,
    335,
    346,
    346,
    346,
    347,
    347,
    335,
    268,
    256,
    268,
    237,
    235,
    256,
    256,
    267,
    256,
    256,
    267,
    256,
    268,
    268,
    267,
    268,
    267,
    267,
    268,
    267,
    268,
    267,
    256,
    267,
    247,
    248,
    248,
    237,
    235,
    247,
    247,
    373,
    379,
    374,
    374,
    374,
    378,
    372,
    248,
    248,
    247,
    237,
    235,
    248,
    237,
    235,
    248,
    236,
    236,
    248,
    236,
    237,
    235,
    248,
    247,
    373,
    379,
    374,
    374,
    378,
    372,
    236,
    236,
    247,
    248,
    247,
    247,
    248,
    237,
    235,
    247,
    248,
    335,
    347,
    335,
    237,
    235,
    335,
    347,
    335,
    335,
    346,
    335,
    347,
    346,
    346,
    346,
    347,
    347,
    346,
    335,
    347,
    346,
    347,
    346,
    346,
    267,
    256,
    268,
    237,
    235,
    267,
    268,
    256,
    256,
    268,
    268,
    256,
    256,
    267,
    267,
    268,
    256,
    256,
    256,
    268,
    256,
    267,
    268,
    256,
    248,
    247,
    236,
    237,
    238,
    239,
    239,
    239,
    239,
    239,
    239,
    242,
    374,
    385,
    248,
    247,
    236,
    237,
    235,
    247,
    237,
    235,
    247,
    247,
    247,
    247,
    236,
    237,
    238,
    239,
    239,
    239,
    239,
    239,
    239,
    242,
    378,
    372,
    236,
    248,
    247,
    247,
    248,
    247,
    237,
    235,
    248,
    247,
    340,
    341,
    346,
    237,
    235,
    346,
    347,
    335,
    346,
    347,
    335,
    335,
    346,
    347,
    347,
    335,
    347,
    346,
    346,
    346,
    346,
    335,
    347,
    346,
    267,
    267,
    268,
    237,
    235,
    256,
    268,
    267,
    267,
    256,
    267,
    267,
    256,
    256,
    256,
    268,
    267,
    267,
    268,
    268,
    256,
    267,
    268,
    268,
    236,
    247,
    248,
    244,
    233,
    233,
    233,
    233,
    233,
    233,
    234,
    235,
    374,
    385,
    236,
    248,
    248,
    237,
    235,
    248,
    237,
    238,
    239,
    239,
    239,
    239,
    239,
    240,
    231,
    231,
    231,
    231,
    231,
    231,
    231,
    235,
    374,
    385,
    247,
    247,
    236,
    248,
    248,
    236,
    237,
    235,
    236,
    236,
    339,
    337,
    341,
    237,
    235,
    346,
    335,
    346,
    347,
    373,
    371,
    371,
    371,
    372,
    346,
    347,
    347,
    335,
    347,
    347,
    346,
    347,
    346,
    346,
    267,
    256,
    268,
    237,
    235,
    256,
    268,
    268,
    261,
    262,
    256,
    268,
    256,
    267,
    267,
    373,
    371,
    371,
    371,
    372,
    267,
    256,
    267,
    256,
    247,
    236,
    248,
    247,
    236,
    247,
    236,
    381,
    374,
    374,
    237,
    235,
    374,
    385,
    236,
    236,
    236,
    237,
    235,
    248,
    244,
    233,
    233,
    233,
    233,
    233,
    233,
    233,
    233,
    233,
    233,
    233,
    233,
    233,
    234,
    235,
    374,
    378,
    371,
    372,
    247,
    247,
    248,
    236,
    237,
    235,
    248,
    247,
    348,
    330,
    334,
    237,
    235,
    346,
    335,
    347,
    373,
    379,
    374,
    374,
    374,
    378,
    372,
    346,
    347,
    335,
    346,
    335,
    335,
    335,
    347,
    346,
    267,
    267,
    268,
    261,
    259,
    259,
    259,
    259,
    260,
    258,
    259,
    262,
    256,
    267,
    373,
    379,
    374,
    374,
    374,
    385,
    256,
    267,
    268,
    267,
    247,
    248,
    247,
    247,
    247,
    248,
    236,
    375,
    384,
    374,
    237,
    235,
    374,
    378,
    372,
    247,
    236,
    237,
    235,
    248,
    247,
    248,
    247,
    236,
    248,
    248,
    247,
    236,
    236,
    248,
    375,
    384,
    374,
    374,
    237,
    235,
    374,
    374,
    374,
    385,
    248,
    248,
    236,
    236,
    237,
    235,
    247,
    236,
    349,
    348,
    334,
    237,
    238,
    239,
    239,
    239,
    239,
    239,
    239,
    242,
    374,
    374,
    385,
    335,
    347,
    347,
    346,
    346,
    347,
    335,
    347,
    346,
    268,
    267,
    268,
    257,
    251,
    251,
    251,
    251,
    251,
    251,
    251,
    258,
    259,
    259,
    262,
    239,
    239,
    242,
    374,
    378,
    372,
    268,
    268,
    267,
    236,
    248,
    248,
    236,
    236,
    248,
    247,
    248,
    381,
    374,
    237,
    235,
    374,
    374,
    385,
    247,
    247,
    237,
    235,
    236,
    247,
    248,
    236,
    247,
    247,
    247,
    248,
    236,
    248,
    247,
    236,
    375,
    384,
    374,
    237,
    235,
    374,
    374,
    376,
    380,
    248,
    247,
    248,
    247,
    237,
    235,
    247,
    236,
    330,
    330,
    337,
    341,
    232,
    233,
    233,
    233,
    233,
    233,
    234,
    235,
    374,
    374,
    385,
    335,
    335,
    347,
    335,
    335,
    335,
    347,
    335,
    335,
    268,
    268,
    261,
    260,
    251,
    251,
    251,
    251,
    251,
    251,
    251,
    251,
    251,
    251,
    258,
    259,
    262,
    245,
    374,
    374,
    385,
    268,
    267,
    268,
    248,
    247,
    236,
    236,
    247,
    236,
    248,
    247,
    381,
    374,
    237,
    235,
    374,
    374,
    385,
    247,
    236,
    237,
    235,
    236,
    247,
    247,
    236,
    236,
    248,
    236,
    247,
    247,
    247,
    247,
    236,
    248,
    381,
    374,
    237,
    238,
    239,
    239,
    239,
    239,
    239,
    239,
    239,
    239,
    240,
    238,
    239,
    239,
    330,
    330,
    349,
    337,
    341,
    239,
    239,
    239,
    239,
    239,
    240,
    235,
    374,
    376,
    380,
    335,
    347,
    335,
    347,
    346,
    347,
    347,
    335,
    347,
    268,
    268,
    257,
    251,
    251,
    251,
    251,
    251,
    251,
    251,
    251,
    251,
    251,
    251,
    251,
    251,
    258,
    262,
    374,
    374,
    385,
    267,
    267,
    267,
    247,
    247,
    248,
    248,
    247,
    236,
    247,
    248,
    381,
    374,
    237,
    235,
    374,
    376,
    380,
    247,
    236,
    237,
    235,
    247,
    247,
    247,
    248,
    248,
    248,
    247,
    236,
    236,
    236,
    236,
    247,
    248,
    375,
    384,
    237,
    232,
    233,
    233,
    233,
    233,
    233,
    233,
    233,
    233,
    234,
    232,
    233,
    233,
    348,
    348,
    330,
    349,
    337,
    338,
    341,
    233,
    233,
    233,
    234,
    340,
    338,
    338,
    338,
    338,
    338,
    338,
    338,
    338,
    338,
    338,
    341,
    335,
    268,
    268,
    257,
    251,
    251,
    251,
    251,
    251,
    251,
    251,
    251,
    251,
    251,
    251,
    251,
    251,
    251,
    258,
    262,
    376,
    380,
    256,
    267,
    267,
    247,
    248,
    248,
    247,
    247,
    247,
    248,
    248,
    375,
    377,
    237,
    235,
    377,
    380,
    248,
    248,
    236,
    237,
    235,
    241,
    239,
    239,
    242,
    248,
    247,
    248,
    236,
    248,
    247,
    247,
    247,
    248,
    247,
    375,
    237,
    235,
    236,
    247,
    247,
    236,
    236,
    236,
    247,
    248,
    237,
    235,
    248,
    241,
    330,
    348,
    348,
    348,
    330,
    330,
    337,
    338,
    338,
    338,
    338,
    339,
    349,
    348,
    330,
    349,
    349,
    330,
    348,
    348,
    349,
    348,
    337,
    338,
    267,
    267,
    257,
    251,
    251,
    251,
    251,
    251,
    251,
    251,
    251,
    251,
    251,
    251,
    251,
    251,
    251,
    251,
    258,
    259,
    259,
    262,
    268,
    267,
    248,
    236,
    236,
    236,
    236,
    236,
    241,
    242,
    236,
    236,
    237,
    235,
    247,
    247,
    247,
    248,
    247,
    237,
    235,
    237,
    231,
    249,
    238,
    242,
    248,
    247,
    248,
    236,
    236,
    236,
    248,
    236,
    236,
    236,
    237,
    235,
    248,
    247,
    248,
    236,
    236,
    236,
    236,
    236,
    237,
    235,
    248,
    237,
    330,
    330,
    330,
    349,
    330,
    349,
    349,
    330,
    349,
    348,
    330,
    349,
    348,
    349,
    348,
    330,
    349,
    330,
    330,
    330,
    349,
    330,
    348,
    349,
    256,
    256,
    257,
    251,
    251,
    251,
    251,
    251,
    251,
    251,
    251,
    251,
    251,
    251,
    251,
    251,
    251,
    251,
    251,
    251,
    251,
    255,
    268,
    267,
    247,
    248,
    236,
    247,
    236,
    247,
    244,
    245,
    236,
    248,
    237,
    235,
    236,
    247,
    236,
    247,
    373,
    237,
    235,
    237,
    249,
    249,
    232,
    245,
    247,
    248,
    247,
    248,
    247,
    248,
    247,
    248,
    236,
    247,
    237,
    235,
    247,
    236,
    248,
    236,
    236,
    247,
    248,
    248,
    237,
    235,
    236,
    237,
    349,
    330,
    348,
    349,
    330,
    349,
    349,
    348,
    348,
    349,
    349,
    349,
    330,
    348,
    330,
    349,
    348,
    330,
    330,
    330,
    349,
    349,
    349,
    348,
    268,
    268,
    257,
    251,
    251,
    251,
    251,
    251,
    251,
    251,
    251,
    251,
    251,
    251,
    251,
    251,
    251,
    251,
    251,
    251,
    251,
    255,
    267,
    268,
    248,
    247,
    247,
    236,
    236,
    236,
    247,
    247,
    236,
    248,
    237,
    235,
    248,
    247,
    248,
    373,
    379,
    237,
    235,
    244,
    234,
    250,
    235,
    236,
    248,
    248,
    247,
    248,
    247,
    247,
    247,
    236,
    236,
    248,
    237,
    235,
    247,
    236,
    248,
    236,
    236,
    248,
    236,
    236,
    237,
    235,
    247,
    237,
    330,
    349,
    348,
    349,
    348,
    349,
    331,
    332,
    332,
    333,
    348,
    349,
    349,
    349,
    349,
    348,
    348,
    349,
    349,
    348,
    349,
    330,
    330,
    331,
    268,
    256,
    264,
    254,
    251,
    251,
    251,
    251,
    251,
    251,
    251,
    251,
    251,
    251,
    251,
    251,
    251,
    251,
    251,
    251,
    251,
    255,
    268,
    267,
    248,
    236,
    236,
    248,
    236,
    248,
    247,
    247,
    236,
    248,
    237,
    238,
    239,
    239,
    239,
    239,
    239,
    240,
    235,
    378,
    244,
    233,
    245,
    248,
    247,
    236,
    247,
    236,
    236,
    248,
    236,
    248,
    248,
    248,
    237,
    235,
    236,
    248,
    236,
    236,
    247,
    236,
    248,
    236,
    237,
    235,
    236,
    237,
    348,
    330,
    349,
    330,
    330,
    331,
    344,
    346,
    335,
    343,
    332,
    333,
    349,
    349,
    330,
    330,
    330,
    348,
    349,
    348,
    330,
    349,
    331,
    344,
    268,
    256,
    256,
    257,
    251,
    251,
    251,
    251,
    251,
    251,
    251,
    251,
    251,
    251,
    251,
    251,
    251,
    251,
    251,
    251,
    251,
    255,
    268,
    267,
    236,
    248,
    247,
    247,
    247,
    247,
    236,
    248,
    247,
    247,
    244,
    233,
    233,
    233,
    233,
    233,
    233,
    234,
    235,
    374,
    385,
    236,
    248,
    248,
    247,
    247,
    247,
    248,
    236,
    248,
    236,
    247,
    236,
    248,
    237,
    235,
    247,
    247,
    247,
    248,
    248,
    236,
    247,
    248,
    237,
    235,
    248,
    237,
    348,
    349,
    330,
    349,
    331,
    344,
    335,
    346,
    347,
    346,
    237,
    336,
    349,
    330,
    330,
    348,
    349,
    330,
    348,
    349,
    331,
    332,
    344,
    239,
    239,
    239,
    239,
    257,
    251,
    251,
    251,
    251,
    251,
    251,
    251,
    251,
    251,
    251,
    251,
    251,
    251,
    251,
    251,
    251,
    251,
    255,
    256,
    267,
    247,
    236,
    236,
    236,
    247,
    236,
    248,
    247,
    236,
    248,
    248,
    248,
    247,
    248,
    248,
    381,
    374,
    237,
    235,
    374,
    385,
    236,
    236,
    247,
    248,
    236,
    248,
    248,
    373,
    371,
    372,
    236,
    247,
    248,
    237,
    235,
    236,
    248,
    248,
    247,
    247,
    248,
    236,
    248,
    237,
    235,
    248,
    237,
    348,
    349,
    348,
    349,
    334,
    372,
    335,
    346,
    347,
    346,
    244,
    336,
    330,
    330,
    330,
    349,
    349,
    349,
    348,
    331,
    344,
    233,
    233,
    233,
    233,
    233,
    233,
    264,
    254,
    251,
    251,
    251,
    251,
    251,
    251,
    251,
    251,
    251,
    251,
    251,
    251,
    251,
    251,
    251,
    252,
    265,
    268,
    256,
    247,
    247,
    236,
    248,
    248,
    247,
    248,
    248,
    247,
    247,
    248,
    236,
    247,
    248,
    236,
    381,
    374,
    237,
    235,
    374,
    378,
    372,
    248,
    248,
    236,
    248,
    373,
    371,
    379,
    374,
    385,
    247,
    248,
    236,
    237,
    235,
    247,
    236,
    236,
    248,
    236,
    247,
    248,
    247,
    237,
    235,
    247,
    237,
    349,
    348,
    348,
    331,
    344,
    378,
    372,
    347,
    346,
    335,
    335,
    343,
    333,
    349,
    330,
    349,
    330,
    330,
    330,
    334,
    335,
    347,
    346,
    347,
    267,
    268,
    373,
    237,
    257,
    251,
    251,
    251,
    251,
    251,
    251,
    251,
    251,
    251,
    251,
    251,
    251,
    251,
    251,
    251,
    255,
    267,
    256,
    267,
    248,
    248,
    236,
    281,
    282,
    236,
    236,
    236,
    248,
    247,
    236,
    247,
    247,
    248,
    247,
    381,
    374,
    244,
    245,
    281,
    279,
    282,
    236,
    247,
    236,
    373,
    379,
    241,
    239,
    239,
    239,
    239,
    239,
    239,
    240,
    238,
    239,
    239,
    239,
    239,
    239,
    340,
    338,
    338,
    341,
    235,
    236,
    237,
    349,
    330,
    330,
    334,
    235,
    374,
    378,
    372,
    347,
    347,
    335,
    347,
    336,
    330,
    330,
    349,
    348,
    330,
    330,
    334,
    346,
    346,
    335,
    340,
    267,
    373,
    379,
    237,
    257,
    251,
    251,
    251,
    251,
    251,
    251,
    251,
    251,
    251,
    251,
    251,
    251,
    251,
    251,
    251,
    255,
    268,
    256,
    268,
    247,
    248,
    281,
    280,
    278,
    282,
    247,
    247,
    247,
    247,
    247,
    236,
    247,
    248,
    248,
    375,
    384,
    374,
    281,
    280,
    271,
    275,
    248,
    236,
    247,
    381,
    374,
    244,
    233,
    233,
    233,
    233,
    233,
    233,
    233,
    233,
    233,
    233,
    233,
    340,
    338,
    339,
    330,
    330,
    337,
    341,
    236,
    244,
    330,
    348,
    349,
    334,
    245,
    374,
    374,
    340,
    341,
    346,
    335,
    346,
    336,
    330,
    348,
    348,
    330,
    349,
    331,
    344,
    335,
    335,
    340,
    339,
    256,
    381,
    374,
    237,
    264,
    254,
    251,
    251,
    251,
    251,
    251,
    251,
    251,
    251,
    251,
    251,
    251,
    251,
    251,
    252,
    265,
    256,
    256,
    256,
    248,
    281,
    280,
    271,
    271,
    278,
    282,
    247,
    248,
    248,
    248,
    248,
    248,
    247,
    236,
    247,
    375,
    384,
    284,
    273,
    273,
    283,
    279,
    279,
    338,
    338,
    341,
    374,
    374,
    374,
    374,
    385,
    247,
    247,
    340,
    338,
    338,
    338,
    341,
    343,
    333,
    330,
    330,
    330,
    330,
    334,
    247,
    248,
    348,
    330,
    348,
    334,
    374,
    374,
    374,
    343,
    344,
    347,
    347,
    340,
    339,
    348,
    349,
    348,
    349,
    349,
    334,
    346,
    346,
    340,
    339,
    330,
    268,
    381,
    374,
    237,
    235,
    257,
    251,
    251,
    251,
    251,
    251,
    251,
    251,
    251,
    251,
    251,
    251,
    251,
    252,
    265,
    256,
    267,
    267,
    256,
    248,
    277,
    271,
    271,
    271,
    271,
    275,
    247,
    248,
    248,
    247,
    236,
    281,
    279,
    279,
    279,
    279,
    279,
    282,
    380,
    247,
    277,
    271,
    271,
    330,
    330,
    337,
    338,
    338,
    338,
    338,
    338,
    338,
    338,
    339,
    330,
    330,
    330,
    334,
    248,
    343,
    333,
    330,
    330,
    330,
    337,
    341,
    236,
    332,
    332,
    332,
    344,
    374,
    374,
    376,
    380,
    346,
    346,
    346,
    336,
    348,
    349,
    348,
    348,
    348,
    348,
    334,
    335,
    346,
    336,
    330,
    330,
    267,
    381,
    374,
    237,
    235,
    257,
    251,
    251,
    251,
    251,
    251,
    251,
    251,
    251,
    251,
    251,
    251,
    252,
    265,
    268,
    256,
    267,
    256,
    268,
    279,
    280,
    271,
    271,
    271,
    271,
    275,
    236,
    236,
    281,
    279,
    279,
    280,
    271,
    271,
    271,
    271,
    271,
    278,
    282,
    281,
    280,
    271,
    271,
    330,
    330,
    330,
    330,
    330,
    330,
    330,
    330,
    330,
    330,
    330,
    330,
    330,
    330,
    337,
    338,
    338,
    339,
    330,
    330,
    330,
    330,
    337,
    341,
    335,
    346,
    375,
    384,
    374,
    376,
    380,
    335,
    335,
    346,
    346,
    336,
    330,
    330,
    330,
    330,
    330,
    349,
    334,
    338,
    338,
    339,
    330,
    330,
    256,
    375,
    384,
    237,
    235,
    264,
    254,
    251,
    251,
    251,
    251,
    251,
    251,
    251,
    251,
    252,
    253,
    265,
    256,
    267,
    267,
    256,
    268,
    256,
    271,
    271,
    271,
    271,
    271,
    271,
    278,
    279,
    279,
    280,
    271,
    271,
    271,
    271,
    271,
    271,
    271,
    271,
    271,
    278,
    280,
    271,
    271,
    271,
    330,
    330,
    330,
    330,
    330,
    330,
    330,
    330,
    330,
    330,
    330,
    330,
    330,
    330,
    330,
    330,
    330,
    330,
    330,
    330,
    330,
    330,
    330,
    337,
    338,
    338,
    338,
    338,
    338,
    338,
    338,
    338,
    338,
    338,
    340,
    339,
    348,
    348,
    348,
    349,
    349,
    331,
    344,
    330,
    330,
    330,
    330,
    330,
    268,
    267,
    375,
    237,
    238,
    239,
    264,
    254,
    251,
    251,
    252,
    253,
    253,
    253,
    253,
    265,
    239,
    239,
    239,
    239,
    256,
    268,
    267,
    256,
    271,
    271,
    271,
    271,
    271,
    271,
    271,
    271,
    271,
    271,
    271,
    271,
    271,
    271,
    271,
    271,
    271,
    271,
    271,
    271,
    271,
    271,
    271,
    271,
    330,
    330,
    330,
    330,
    330,
    330,
    330,
    330,
    330,
    330,
    330,
    330,
    330,
    330,
    330,
    330,
    330,
    330,
    330,
    330,
    330,
    330,
    330,
    330,
    330,
    330,
    330,
    330,
    330,
    330,
    330,
    330,
    330,
    340,
    339,
    349,
    330,
    330,
    348,
    330,
    330,
    334,
    330,
    330,
    330,
    330,
    330,
    330,
    267,
    268,
    268,
    244,
    233,
    233,
    233,
    264,
    253,
    253,
    265,
    233,
    233,
    233,
    233,
    233,
    233,
    233,
    233,
    233,
    233,
    245,
    267,
    268,
    271,
    271,
    271,
    271,
    271,
    271,
    271,
    271,
    271,
    271,
    271,
    271,
    271,
    271,
    271,
    271,
    271,
    271,
    271,
    271,
    271,
    271,
    271,
    271,
    330,
    330,
    330,
    330,
    330,
    330,
    330,
    330,
    330,
    330,
    330,
    330,
    330,
    330,
    330,
    330,
    330,
    330,
    330,
    330,
    330,
    330,
    330,
    330,
    330,
    330,
    330,
    330,
    330,
    330,
    330,
    340,
    338,
    339,
    349,
    348,
    348,
    348,
    330,
    348,
    348,
    334,
    330,
    330,
    330,
    330,
    330,
    330,
    267,
    268,
    267,
    268,
    267,
    256,
    256,
    256,
    267,
    256,
    256,
    268,
    267,
    256,
    267,
    268,
    256,
    268,
    268,
    256,
    267,
    268,
    256,
    268,
    271,
    271,
    271,
    271,
    271,
    271,
    271,
    271,
    271,
    271,
    271,
    271,
    271,
    271,
    271,
    271,
    271,
    271,
    271,
    271,
    271,
    271,
    271,
    271,
    330,
    330,
    330,
    330,
    330,
    330,
    330,
    330,
    330,
    330,
    330,
    330,
    330,
    330,
    330,
    330,
    330,
    330,
    330,
    330,
    330,
    330,
    330,
    330,
    330,
    330,
    330,
    330,
    330,
    330,
    330,
    343,
    332,
    333,
    348,
    349,
    330,
    349,
    330,
    348,
    330,
    334,
    330,
    330,
    330,
    330,
    330,
    330,
    268,
    268,
    256,
    267,
    267,
    256,
    267,
    267,
    256,
    267,
    267,
    268,
    268,
    256,
    268,
    256,
    267,
    268,
    268,
    256,
    256,
    267,
    256,
    256,
    308,
    307,
    308,
    307,
    296,
    308,
    307,
    296,
    307,
    307,
    307,
    296,
    296,
    307,
    296,
    308,
    307,
    296,
    308,
    307,
    356,
    350,
    350,
    350,
    327,
    317,
    311,
    311,
    311,
    311,
    315,
    328,
    327,
    327,
    327,
    328,
    316,
    316,
    328,
    328,
    327,
    316,
    327,
    316,
    316,
    316,
    327,
    328,
    328,
    328,
    327,
    327,
    328,
    327,
    317,
    329,
    329,
    311,
    329,
    329,
    329,
    311,
    329,
    311,
    329,
    311,
    315,
    316,
    327,
    327,
    328,
    328,
    330,
    330,
    330,
    337,
    341,
    336,
    330,
    330,
    334,
    347,
    346,
    347,
    346,
    347,
    335,
    335,
    347,
    335,
    346,
    335,
    347,
    347,
    346,
    347,
    307,
    307,
    307,
    296,
    308,
    308,
    307,
    307,
    296,
    308,
    307,
    307,
    296,
    296,
    296,
    308,
    307,
    307,
    296,
    360,
    359,
    350,
    350,
    350,
    328,
    324,
    314,
    311,
    311,
    312,
    325,
    327,
    328,
    328,
    316,
    327,
    327,
    316,
    328,
    328,
    328,
    327,
    327,
    327,
    328,
    327,
    327,
    327,
    316,
    327,
    316,
    327,
    328,
    316,
    324,
    313,
    313,
    314,
    329,
    329,
    329,
    311,
    311,
    329,
    329,
    312,
    325,
    328,
    316,
    316,
    327,
    327,
    330,
    330,
    330,
    330,
    337,
    339,
    331,
    332,
    344,
    335,
    346,
    335,
    335,
    347,
    335,
    346,
    346,
    335,
    335,
    346,
    347,
    335,
    346,
    346,
    296,
    308,
    307,
    307,
    308,
    296,
    308,
    307,
    296,
    308,
    308,
    307,
    307,
    296,
    308,
    296,
    308,
    307,
    307,
    356,
    350,
    350,
    350,
    350,
    328,
    328,
    317,
    329,
    311,
    315,
    316,
    316,
    327,
    328,
    328,
    327,
    316,
    316,
    316,
    316,
    327,
    327,
    328,
    316,
    328,
    316,
    328,
    327,
    327,
    328,
    316,
    328,
    327,
    328,
    327,
    316,
    316,
    324,
    313,
    313,
    313,
    313,
    313,
    313,
    313,
    325,
    316,
    328,
    328,
    327,
    316,
    328,
    330,
    330,
    330,
    330,
    330,
    330,
    334,
    346,
    347,
    347,
    335,
    346,
    346,
    347,
    335,
    347,
    335,
    373,
    371,
    372,
    347,
    347,
    346,
    347,
    308,
    308,
    307,
    308,
    296,
    308,
    307,
    308,
    308,
    308,
    296,
    307,
    308,
    296,
    307,
    308,
    308,
    296,
    307,
    356,
    350,
    350,
    350,
    350,
    328,
    327,
    317,
    311,
    311,
    315,
    328,
    327,
    328,
    316,
    328,
    316,
    327,
    327,
    327,
    327,
    328,
    316,
    316,
    328,
    316,
    316,
    327,
    328,
    316,
    327,
    316,
    316,
    316,
    316,
    316,
    328,
    316,
    316,
    327,
    328,
    328,
    327,
    327,
    327,
    328,
    327,
    327,
    328,
    316,
    316,
    327,
    327,
    330,
    330,
    330,
    330,
    330,
    330,
    340,
    338,
    338,
    338,
    341,
    346,
    346,
    335,
    335,
    347,
    373,
    379,
    374,
    378,
    371,
    372,
    347,
    346,
    296,
    308,
    307,
    307,
    308,
    307,
    296,
    307,
    296,
    308,
    307,
    308,
    296,
    308,
    307,
    307,
    307,
    307,
    360,
    359,
    350,
    350,
    350,
    350,
    316,
    327,
    324,
    314,
    312,
    325,
    328,
    328,
    316,
    327,
    316,
    316,
    327,
    316,
    328,
    327,
    328,
    327,
    316,
    316,
    327,
    328,
    316,
    327,
    327,
    327,
    328,
    316,
    327,
    316,
    328,
    316,
    327,
    316,
    316,
    327,
    316,
    328,
    327,
    316,
    327,
    328,
    316,
    316,
    327,
    327,
    328,
    327,
    330,
    330,
    330,
    330,
    330,
    340,
    339,
    349,
    348,
    348,
    337,
    341,
    347,
    335,
    346,
    373,
    379,
    374,
    374,
    374,
    374,
    385,
    335,
    347,
    307,
    296,
    307,
    296,
    296,
    296,
    307,
    296,
    296,
    308,
    296,
    308,
    307,
    308,
    307,
    296,
    296,
    296,
    356,
    350,
    350,
    350,
    350,
    350,
    327,
    328,
    328,
    317,
    315,
    328,
    316,
    328,
    316,
    328,
    327,
    316,
    316,
    328,
    327,
    327,
    328,
    328,
    316,
    316,
    327,
    316,
    328,
    328,
    328,
    327,
    316,
    328,
    316,
    327,
    328,
    328,
    328,
    327,
    316,
    328,
    328,
    328,
    316,
    328,
    316,
    328,
    316,
    328,
    316,
    328,
    316,
    328,
    330,
    330,
    330,
    340,
    338,
    339,
    330,
    348,
    349,
    348,
    330,
    337,
    338,
    338,
    338,
    338,
    338,
    341,
    374,
    374,
    374,
    378,
    372,
    335,
    308,
    308,
    308,
    308,
    308,
    307,
    308,
    308,
    308,
    307,
    296,
    296,
    296,
    307,
    308,
    308,
    308,
    360,
    359,
    350,
    350,
    350,
    350,
    350,
    328,
    316,
    316,
    324,
    325,
    316,
    327,
    328,
    328,
    327,
    327,
    316,
    316,
    316,
    316,
    316,
    316,
    327,
    316,
    328,
    328,
    328,
    328,
    328,
    316,
    316,
    328,
    327,
    327,
    316,
    316,
    327,
    327,
    327,
    327,
    316,
    328,
    327,
    328,
    328,
    328,
    328,
    316,
    316,
    328,
    327,
    328,
    316,
    330,
    330,
    330,
    336,
    349,
    348,
    349,
    348,
    349,
    348,
    349,
    330,
    330,
    348,
    349,
    349,
    330,
    337,
    338,
    338,
    341,
    376,
    380,
    346,
    296,
    296,
    307,
    296,
    307,
    308,
    308,
    307,
    308,
    296,
    296,
    296,
    308,
    307,
    296,
    308,
    296,
    356,
    350,
    350,
    350,
    350,
    350,
    350,
    328,
    327,
    316,
    327,
    327,
    316,
    327,
    316,
    316,
    328,
    328,
    327,
    316,
    328,
    327,
    328,
    327,
    328,
    316,
    327,
    327,
    328,
    327,
    327,
    316,
    316,
    328,
    327,
    328,
    327,
    327,
    328,
    328,
    328,
    316,
    328,
    316,
    327,
    327,
    316,
    327,
    327,
    327,
    328,
    316,
    328,
    327,
    316,
    330,
    330,
    340,
    339,
    348,
    348,
    330,
    349,
    349,
    348,
    330,
    348,
    348,
    348,
    330,
    330,
    349,
    348,
    330,
    330,
    337,
    341,
    346,
    346,
    307,
    307,
    308,
    308,
    296,
    307,
    308,
    296,
    307,
    308,
    296,
    296,
    308,
    307,
    296,
    307,
    307,
    356,
    350,
    350,
    350,
    350,
    350,
    350,
    316,
    328,
    328,
    328,
    328,
    327,
    316,
    327,
    327,
    316,
    316,
    327,
    316,
    327,
    328,
    328,
    316,
    327,
    316,
    316,
    316,
    327,
    316,
    327,
    319,
    319,
    319,
    319,
    319,
    319,
    319,
    319,
    319,
    322,
    316,
    328,
    328,
    316,
    327,
    328,
    328,
    328,
    327,
    316,
    327,
    316,
    316,
    327,
    330,
    330,
    336,
    349,
    330,
    349,
    330,
    330,
    330,
    348,
    349,
    330,
    348,
    348,
    349,
    349,
    349,
    348,
    330,
    348,
    330,
    334,
    346,
    346,
    296,
    307,
    308,
    308,
    308,
    308,
    296,
    296,
    307,
    307,
    296,
    307,
    307,
    307,
    307,
    296,
    308,
    363,
    353,
    350,
    350,
    350,
    350,
    350,
    316,
    316,
    316,
    328,
    316,
    327,
    328,
    328,
    327,
    328,
    316,
    328,
    327,
    327,
    327,
    327,
    328,
    328,
    327,
    328,
    316,
    316,
    327,
    321,
    329,
    311,
    311,
    329,
    311,
    329,
    329,
    311,
    329,
    318,
    322,
    328,
    327,
    316,
    316,
    327,
    316,
    316,
    316,
    328,
    327,
    328,
    327,
    328,
    330,
    340,
    339,
    349,
    349,
    330,
    348,
    348,
    348,
    348,
    348,
    349,
    330,
    349,
    348,
    348,
    330,
    349,
    330,
    348,
    349,
    334,
    347,
    347,
    296,
    307,
    296,
    307,
    307,
    296,
    296,
    307,
    307,
    307,
    307,
    296,
    308,
    308,
    296,
    307,
    296,
    307,
    363,
    353,
    350,
    350,
    350,
    350,
    327,
    316,
    328,
    328,
    328,
    316,
    316,
    328,
    316,
    328,
    316,
    328,
    327,
    316,
    328,
    327,
    316,
    316,
    328,
    327,
    328,
    321,
    319,
    320,
    311,
    329,
    311,
    311,
    311,
    329,
    329,
    329,
    311,
    311,
    318,
    322,
    327,
    316,
    328,
    328,
    328,
    316,
    316,
    316,
    328,
    328,
    328,
    327,
    330,
    343,
    333,
    348,
    330,
    349,
    330,
    330,
    348,
    330,
    330,
    349,
    349,
    349,
    349,
    349,
    348,
    349,
    348,
    349,
    349,
    334,
    335,
    347,
    307,
    296,
    296,
    296,
    307,
    307,
    307,
    308,
    308,
    307,
    296,
    296,
    307,
    308,
    307,
    296,
    307,
    296,
    296,
    356,
    350,
    350,
    350,
    350,
    316,
    316,
    327,
    316,
    328,
    328,
    328,
    327,
    328,
    316,
    327,
    328,
    327,
    328,
    328,
    328,
    316,
    328,
    328,
    327,
    321,
    320,
    329,
    329,
    311,
    329,
    311,
    329,
    311,
    311,
    311,
    311,
    329,
    329,
    311,
    315,
    328,
    327,
    328,
    327,
    327,
    327,
    316,
    327,
    327,
    327,
    328,
    327,
    330,
    330,
    336,
    330,
    348,
    330,
    330,
    348,
    348,
    330,
    349,
    330,
    349,
    348,
    349,
    348,
    349,
    330,
    348,
    348,
    330,
    334,
    346,
    347,
    307,
    296,
    307,
    308,
    296,
    296,
    307,
    307,
    308,
    308,
    296,
    307,
    307,
    307,
    308,
    296,
    307,
    308,
    296,
    356,
    350,
    350,
    350,
    350,
    327,
    316,
    316,
    328,
    328,
    316,
    327,
    327,
    328,
    316,
    327,
    328,
    327,
    327,
    328,
    316,
    328,
    316,
    316,
    321,
    320,
    311,
    329,
    329,
    329,
    329,
    311,
    311,
    311,
    329,
    329,
    311,
    329,
    311,
    311,
    315,
    327,
    327,
    328,
    316,
    316,
    316,
    327,
    327,
    316,
    327,
    328,
    327,
    330,
    330,
    343,
    333,
    330,
    330,
    330,
    330,
    330,
    349,
    349,
    349,
    349,
    349,
    330,
    330,
    349,
    348,
    348,
    348,
    348,
    334,
    335,
    347,
    308,
    296,
    296,
    308,
    296,
    307,
    307,
    308,
    307,
    307,
    307,
    307,
    307,
    307,
    308,
    296,
    308,
    307,
    360,
    359,
    350,
    350,
    350,
    350,
    328,
    328,
    327,
    328,
    328,
    328,
    327,
    328,
    327,
    316,
    316,
    328,
    316,
    316,
    316,
    327,
    327,
    316,
    327,
    317,
    311,
    329,
    329,
    329,
    311,
    329,
    311,
    329,
    311,
    329,
    329,
    311,
    311,
    311,
    329,
    315,
    316,
    328,
    316,
    316,
    328,
    327,
    328,
    328,
    316,
    316,
    327,
    328,
    330,
    330,
    330,
    336,
    330,
    348,
    349,
    330,
    349,
    349,
    330,
    349,
    348,
    330,
    349,
    330,
    348,
    349,
    349,
    330,
    330,
    334,
    346,
    335,
    296,
    308,
    308,
    308,
    308,
    296,
    296,
    308,
    307,
    296,
    296,
    308,
    308,
    307,
    308,
    307,
    307,
    307,
    356,
    350,
    350,
    350,
    350,
    350,
    327,
    316,
    316,
    316,
    316,
    316,
    327,
    316,
    316,
    316,
    316,
    316,
    327,
    316,
    328,
    327,
    316,
    321,
    319,
    320,
    311,
    311,
    329,
    311,
    329,
    329,
    329,
    329,
    311,
    311,
    329,
    311,
    311,
    329,
    311,
    315,
    316,
    316,
    328,
    316,
    316,
    316,
    328,
    316,
    327,
    328,
    327,
    328,
    330,
    330,
    330,
    336,
    349,
    349,
    349,
    330,
    348,
    330,
    330,
    349,
    330,
    330,
    330,
    349,
    330,
    348,
    349,
    349,
    349,
    334,
    347,
    346,
    308,
    308,
    296,
    296,
    308,
    308,
    307,
    296,
    307,
    308,
    307,
    308,
    308,
    296,
    296,
    308,
    308,
    307,
    356,
    350,
    350,
    350,
    350,
    350,
    327,
    316,
    316,
    328,
    328,
    328,
    328,
    316,
    328,
    316,
    316,
    327,
    328,
    327,
    316,
    328,
    321,
    320,
    311,
    311,
    329,
    329,
    329,
    311,
    329,
    311,
    311,
    329,
    311,
    311,
    311,
    311,
    329,
    329,
    329,
    315,
    328,
    316,
    316,
    327,
    316,
    316,
    328,
    316,
    316,
    327,
    316,
    327,
    330,
    330,
    330,
    336,
    348,
    348,
    349,
    348,
    330,
    349,
    330,
    330,
    330,
    330,
    330,
    348,
    349,
    330,
    349,
    349,
    330,
    334,
    346,
    347,
    307,
    296,
    308,
    307,
    307,
    308,
    296,
    308,
    296,
    307,
    296,
    308,
    308,
    296,
    307,
    296,
    308,
    296,
    356,
    350,
    350,
    350,
    350,
    350,
    327,
    316,
    327,
    327,
    316,
    316,
    327,
    327,
    316,
    328,
    328,
    316,
    327,
    328,
    327,
    321,
    320,
    329,
    311,
    311,
    329,
    311,
    329,
    311,
    329,
    329,
    311,
    329,
    311,
    329,
    311,
    311,
    329,
    329,
    329,
    315,
    316,
    327,
    328,
    316,
    316,
    316,
    316,
    328,
    327,
    327,
    328,
    328,
    330,
    330,
    340,
    339,
    349,
    330,
    330,
    349,
    348,
    330,
    330,
    348,
    330,
    330,
    348,
    330,
    330,
    349,
    349,
    348,
    349,
    334,
    335,
    347,
    307,
    307,
    308,
    296,
    307,
    307,
    307,
    296,
    296,
    308,
    308,
    296,
    307,
    296,
    296,
    308,
    296,
    307,
    356,
    350,
    350,
    350,
    350,
    350,
    316,
    327,
    327,
    328,
    328,
    328,
    316,
    328,
    327,
    328,
    327,
    316,
    328,
    316,
    328,
    317,
    329,
    311,
    311,
    311,
    329,
    311,
    311,
    311,
    329,
    329,
    311,
    329,
    311,
    329,
    329,
    329,
    311,
    329,
    312,
    325,
    328,
    316,
    328,
    327,
    316,
    327,
    327,
    328,
    316,
    328,
    316,
    328,
    330,
    330,
    336,
    348,
    349,
    348,
    348,
    330,
    349,
    348,
    348,
    330,
    349,
    330,
    349,
    330,
    330,
    348,
    330,
    348,
    348,
    334,
    346,
    347,
    308,
    308,
    308,
    296,
    308,
    296,
    308,
    296,
    307,
    307,
    296,
    308,
    296,
    296,
    296,
    296,
    296,
    307,
    363,
    353,
    350,
    350,
    350,
    350,
    328,
    328,
    316,
    327,
    327,
    328,
    316,
    328,
    316,
    328,
    316,
    327,
    316,
    327,
    327,
    317,
    329,
    329,
    329,
    329,
    311,
    329,
    311,
    312,
    311,
    311,
    329,
    329,
    329,
    329,
    329,
    311,
    311,
    311,
    315,
    328,
    327,
    327,
    327,
    328,
    327,
    316,
    327,
    328,
    327,
    316,
    328,
    327,
    330,
    330,
    336,
    330,
    330,
    349,
    348,
    330,
    348,
    330,
    348,
    330,
    349,
    348,
    349,
    348,
    348,
    348,
    348,
    330,
    330,
    334,
    335,
    335,
    307,
    307,
    296,
    308,
    296,
    307,
    308,
    308,
    296,
    296,
    308,
    308,
    307,
    296,
    296,
    296,
    296,
    296,
    307,
    356,
    350,
    350,
    350,
    350,
    327,
    316,
    327,
    327,
    316,
    316,
    316,
    327,
    316,
    327,
    316,
    328,
    327,
    327,
    321,
    320,
    329,
    329,
    311,
    311,
    329,
    329,
    329,
    315,
    329,
    329,
    329,
    311,
    311,
    311,
    311,
    329,
    311,
    329,
    315,
    328,
    328,
    316,
    316,
    328,
    316,
    328,
    327,
    328,
    316,
    316,
    328,
    327,
    330,
    330,
    343,
    333,
    330,
    348,
    330,
    348,
    330,
    330,
    348,
    330,
    349,
    349,
    348,
    349,
    348,
    348,
    348,
    348,
    348,
    334,
    335,
    347,
    296,
    308,
    296,
    308,
    308,
    307,
    308,
    308,
    308,
    296,
    307,
    296,
    296,
    296,
    296,
    296,
    307,
    296,
    360,
    359,
    350,
    350,
    350,
    350,
    327,
    328,
    327,
    316,
    328,
    327,
    328,
    327,
    328,
    327,
    328,
    316,
    328,
    328,
    324,
    314,
    329,
    329,
    329,
    311,
    311,
    311,
    312,
    325,
    329,
    311,
    311,
    311,
    329,
    329,
    329,
    329,
    329,
    311,
    315,
    327,
    328,
    316,
    328,
    327,
    328,
    316,
    327,
    328,
    316,
    327,
    327,
    316,
    330,
    330,
    330,
    336,
    348,
    331,
    332,
    333,
    330,
    348,
    330,
    349,
    348,
    330,
    349,
    330,
    348,
    349,
    330,
    330,
    348,
    334,
    335,
    347,
    296,
    296,
    307,
    296,
    308,
    296,
    296,
    308,
    296,
    307,
    296,
    307,
    308,
    307,
    308,
    307,
    308,
    360,
    359,
    301,
    299,
    299,
    299,
    299,
    327,
    316,
    328,
    327,
    327,
    316,
    328,
    328,
    328,
    316,
    316,
    328,
    328,
    328,
    327,
    317,
    311,
    329,
    329,
    329,
    312,
    313,
    325,
    328,
    313,
    313,
    314,
    329,
    311,
    311,
    311,
    311,
    329,
    311,
    315,
    316,
    328,
    316,
    328,
    328,
    328,
    316,
    328,
    316,
    316,
    316,
    327,
    316,
    330,
    330,
    330,
    343,
    332,
    344,
    374,
    343,
    333,
    348,
    349,
    348,
    348,
    330,
    330,
    348,
    349,
    349,
    348,
    348,
    330,
    334,
    335,
    346,
    307,
    307,
    296,
    308,
    307,
    307,
    296,
    307,
    296,
    296,
    296,
    308,
    307,
    308,
    308,
    296,
    307,
    301,
    299,
    300,
    291,
    291,
    291,
    291,
    327,
    316,
    316,
    328,
    328,
    328,
    327,
    327,
    327,
    327,
    316,
    316,
    327,
    328,
    328,
    324,
    313,
    313,
    313,
    313,
    325,
    316,
    327,
    328,
    327,
    316,
    324,
    313,
    314,
    311,
    311,
    311,
    311,
    311,
    318,
    322,
    316,
    328,
    316,
    328,
    328,
    316,
    328,
    327,
    327,
    328,
    327,
    327,
    330,
    330,
    330,
    330,
    330,
    334,
    374,
    374,
    343,
    333,
    348,
    348,
    330,
    330,
    330,
    330,
    330,
    331,
    332,
    333,
    348,
    334,
    347,
    335,
    296,
    308,
    308,
    307,
    307,
    307,
    296,
    307,
    307,
    307,
    296,
    308,
    308,
    308,
    296,
    301,
    299,
    300,
    291,
    291,
    291,
    291,
    291,
    291,
    327,
    328,
    328,
    328,
    327,
    316,
    327,
    327,
    316,
    316,
    316,
    327,
    327,
    328,
    316,
    316,
    328,
    327,
    328,
    327,
    316,
    316,
    316,
    316,
    316,
    316,
    316,
    327,
    317,
    329,
    311,
    311,
    329,
    311,
    311,
    315,
    327,
    328,
    327,
    328,
    328,
    327,
    316,
    328,
    328,
    328,
    328,
    328,
    330,
    330,
    330,
    330,
    330,
    334,
    374,
    374,
    376,
    343,
    333,
    348,
    349,
    330,
    348,
    331,
    332,
    344,
    335,
    343,
    333,
    334,
    347,
    346,
    308,
    307,
    301,
    299,
    299,
    299,
    299,
    299,
    299,
    299,
    299,
    299,
    299,
    299,
    299,
    300,
    291,
    291,
    291,
    291,
    291,
    291,
    291,
    291,
    328,
    316,
    321,
    319,
    319,
    319,
    319,
    322,
    328,
    316,
    316,
    327,
    328,
    327,
    316,
    328,
    316,
    316,
    328,
    328,
    316,
    327,
    328,
    316,
    328,
    327,
    316,
    327,
    324,
    314,
    311,
    311,
    311,
    329,
    311,
    318,
    322,
    327,
    316,
    327,
    327,
    328,
    327,
    328,
    327,
    327,
    327,
    328,
    330,
    330,
    330,
    330,
    330,
    334,
    377,
    377,
    380,
    346,
    343,
    333,
    349,
    330,
    330,
    334,
    346,
    335,
    335,
    347,
    343,
    344,
    346,
    335,
    299,
    299,
    300,
    291,
    291,
    291,
    291,
    291,
    291,
    291,
    291,
    291,
    291,
    291,
    291,
    291,
    291,
    291,
    291,
    291,
    291,
    291,
    291,
    291,
    328,
    321,
    320,
    311,
    329,
    311,
    311,
    318,
    322,
    328,
    327,
    327,
    316,
    328,
    328,
    327,
    328,
    316,
    327,
    327,
    316,
    327,
    327,
    328,
    328,
    327,
    327,
    327,
    328,
    317,
    329,
    329,
    311,
    329,
    329,
    311,
    318,
    319,
    322,
    316,
    328,
    327,
    327,
    316,
    316,
    316,
    327,
    316,
    330,
    330,
    330,
    330,
    330,
    334,
    346,
    347,
    335,
    335,
    347,
    336,
    349,
    349,
    331,
    344,
    335,
    346,
    346,
    335,
    346,
    335,
    346,
    335,
    291,
    291,
    291,
    291,
    291,
    291,
    291,
    291,
    291,
    291,
    291,
    291,
    291,
    291,
    291,
    291,
    291,
    291,
    291,
    291,
    291,
    291,
    291,
    291,
    328,
    317,
    311,
    329,
    329,
    311,
    329,
    329,
    318,
    322,
    328,
    327,
    327,
    328,
    316,
    328,
    316,
    316,
    327,
    327,
    328,
    328,
    316,
    316,
    316,
    316,
    316,
    316,
    327,
    317,
    329,
    311,
    329,
    311,
    329,
    329,
    311,
    311,
    318,
    319,
    319,
    319,
    319,
    322,
    328,
    327,
    327,
    316,
    330,
    330,
    330,
    330,
    331,
    344,
    347,
    346,
    335,
    335,
    335,
    343,
    332,
    332,
    344,
    347,
    346,
    346,
    335,
    347,
    335,
    346,
    335,
    335,
    291,
    291,
    291,
    291,
    291,
    291,
    291,
    291,
    291,
    291,
    291,
    291,
    291,
    291,
    291,
    291,
    291,
    291,
    291,
    291,
    291,
    291,
    291,
    291,
    328,
    317,
    329,
    329,
    311,
    329,
    329,
    311,
    312,
    325,
    316,
    316,
    328,
    327,
    327,
    328,
    327,
    316,
    327,
    316,
    327,
    328,
    316,
    327,
    327,
    327,
    316,
    328,
    328,
    317,
    311,
    311,
    311,
    329,
    329,
    311,
    311,
    329,
    311,
    329,
    311,
    329,
    329,
    318,
    319,
    319,
    322,
    316,
    330,
    330,
    330,
    330,
    334,
    335,
    346,
    346,
    335,
    346,
    346,
    335,
    347,
    335,
    346,
    346,
    347,
    346,
    347,
    346,
    335,
    347,
    346,
    347,
    291,
    291,
    291,
    291,
    291,
    291,
    291,
    291,
    291,
    291,
    291,
    291,
    291,
    291,
    291,
    291,
    291,
    291,
    291,
    291,
    291,
    291,
    291,
    291,
    328,
    317,
    311,
    311,
    311,
    311,
    329,
    329,
    315,
    316,
    316,
    316,
    316,
    327,
    316,
    316,
    316,
    316,
    327,
    327,
    328,
    328,
    328,
    327,
    316,
    327,
    328,
    316,
    327,
    317,
    329,
    329,
    311,
    311,
    311,
    329,
    329,
    311,
    311,
    311,
    311,
    311,
    311,
    311,
    329,
    329,
    318,
    322,
    330,
    330,
    330,
    330,
    337,
    341,
    335,
    346,
    346,
    335,
    347,
    335,
    346,
    347,
    347,
    346,
    335,
    335,
    347,
    335,
    335,
    335,
    347,
    347,
    291,
    291,
    291,
    291,
    291,
    291,
    291,
    291,
    291,
    291,
    291,
    291,
    291,
    291,
    291,
    291,
    291,
    291,
    291,
    291,
    291,
    291,
    291,
    291,
    327,
    317,
    329,
    329,
    311,
    311,
    311,
    311,
    315,
    327,
    327,
    328,
    327,
    316,
    328,
    328,
    327,
    328,
    327,
    327,
    316,
    328,
    316,
    316,
    327,
    316,
    328,
    328,
    327,
    324,
    314,
    311,
    329,
    311,
    329,
    329,
    311,
    311,
    329,
    329,
    311,
    329,
    329,
    311,
    311,
    329,
    311,
    318,
    330,
    330,
    330,
    330,
    330,
    334,
    347,
    346,
    335,
    347,
    347,
    335,
    346,
    335,
    335,
    346,
    335,
    335,
    346,
    335,
    347,
    346,
    346,
    335,
    291,
    291,
    291,
    291,
    291,
    291,
    291,
    291,
    291,
    291,
    291,
    291,
    291,
    291,
    291,
    291,
    291,
    291,
    291,
    291,
    291,
    291,
    291,
    291,
    327,
    317,
    329,
    311,
    311,
    311,
    311,
    312,
    325,
    328,
    327,
    328,
    316,
    327,
    328,
    328,
    328,
    316,
    328,
    316,
    328,
    327,
    328,
    328,
    327,
    328,
    327,
    327,
    328,
    327,
    324,
    313,
    313,
    313,
    313,
    313,
    314,
    329,
    311,
    311,
    329,
    311,
    329,
    311,
    329,
    311,
    311,
    311,
    330,
    330,
    330,
    330,
    330,
    337,
    341,
    346,
    335,
    347,
    346,
    335,
    335,
    347,
    335,
    346,
    335,
    346,
    346,
    335,
    347,
    346,
    335,
    335,
    291,
    291,
    291,
    291,
    291,
    291,
    291,
    291,
    291,
    291,
    291,
    291,
    291,
    291,
    291,
    291,
    291,
    291,
    291,
    291,
    291,
    291,
    291,
    291,
    327,
    317,
    311,
    329,
    311,
    329,
    329,
    315,
    327,
    316,
    316,
    328,
    328,
    316,
    328,
    328,
    316,
    328,
    328,
    327,
    327,
    327,
    327,
    327,
    328,
    328,
    327,
    328,
    316,
    328,
    328,
    328,
    328,
    316,
    316,
    327,
    324,
    314,
    311,
    329,
    329,
    329,
    311,
    329,
    329,
    311,
    311,
    329,
    330,
    330,
    330,
    330,
    330,
    330,
    334,
    335,
    346,
    347,
    346,
    346,
    347,
    335,
    347,
    346,
    335,
    335,
    347,
    347,
    346,
    346,
    346,
    347,
    291,
    291,
    291,
    291,
    291,
    291,
    291,
    291,
    291,
    291,
    291,
    291,
    291,
    291,
    291,
    291,
    291,
    291,
    291,
    291,
    291,
    291,
    291,
    291,
    316,
    317,
    311,
    329,
    329,
    329,
    311,
    315,
    327,
    328,
    328,
    316,
    328,
    316,
    327,
    316,
    328,
    327,
    328,
    327,
    327,
    316,
    316,
    327,
    316,
    328,
    316,
    316,
    328,
    316,
    327,
    316,
    328,
    316,
    328,
    316,
    327,
    324,
    314,
    329,
    311,
    311,
    329,
    329,
    329,
    311,
    311,
    311,
    330,
    330,
    330,
    330,
    330,
    330,
    334,
    335,
    346,
    335,
    347,
    347,
    335,
    346,
    346,
    346,
    346,
    335,
    347,
    347,
    335,
    347,
    347,
    347,
    291,
    291,
    291,
    291,
    291,
    291,
    291,
    291,
    291,
    291,
    291,
    291,
    291,
    291,
    291,
    291,
    291,
    291,
    291,
    291,
    291,
    291,
    291,
    291,
    327,
    324,
    313,
    313,
    313,
    313,
    313,
    325,
    328,
    328,
    328,
    328,
    328,
    328,
    327,
    327,
    328,
    327,
    316,
    328,
    316,
    327,
    316,
    327,
    328,
    328,
    328,
    328,
    327,
    328,
    328,
    328,
    316,
    327,
    328,
    316,
    327,
    316,
    324,
    313,
    313,
    313,
    313,
    313,
    313,
    313,
    313,
    313,
    330,
    330,
    330,
    330,
    330,
    331,
    344,
    346,
    335,
    346,
    335,
    335,
    346,
    347,
    346,
    335,
    346,
    347,
    347,
    335,
    346,
    346,
    346,
    347,
    291,
    291,
    291,
    291,
    291,
    291,
    291,
    291,
    291,
    291,
    291,
    291,
    291,
    291,
    291,
    291,
    291,
    291,
    291,
    291,
    291,
    291,
    291,
    291,
    328,
    327,
    328,
    327,
    316,
    316,
    328,
    327,
    327,
    327,
    327,
    316,
    328,
    328,
    328,
    316,
    327,
    316,
    327,
    327,
    327,
    328,
    316,
    327,
    328,
    327,
    327,
    327,
    327,
    328,
    328,
    327,
    316,
    328,
    316,
    327,
    328,
    327,
    328,
    328,
    328,
    327,
    328,
    316,
    328,
    328,
    327,
    316,
    330,
    330,
    330,
    331,
    332,
    344,
    346,
    347,
    335,
    346,
    347,
    347,
    347,
    347,
    335,
    347,
    335,
    347,
    346,
    335,
    335,
    346,
    346,
    335,
    291,
    291,
    291,
    291,
    291,
    291,
    291,
    291,
    291,
    291,
    291,
    291,
    291,
    291,
    291,
    291,
    291,
    291,
    291,
    291,
    291,
    291,
    291,
    291,
    328,
    316,
    327,
    328,
    328,
    328,
    328,
    327,
    327,
    316,
    316,
    328,
    316,
    328,
    327,
    316,
    328,
    316,
    316,
    327,
    316,
    316,
    328,
    327,
    327,
    316,
    328,
    327,
    327,
    327,
    316,
    327,
    316,
    327,
    316,
    327,
    328,
    328,
    328,
    328,
    328,
    327,
    327,
    328,
    328,
    316,
    328,
    328,
    330,
    330,
    330,
    334,
    346,
    335,
    346,
    335,
    335,
    346,
    347,
    347,
    335,
    347,
    346,
    335,
    335,
    347,
    335,
    346,
    335,
    346,
    347,
    347
   ]
  },
  {
   "id": 2,
   "type": "tilelayer",
   "name": "detail",
   "width": 96,
   "height": 72,
   "x": 0,
   "y": 0,
   "opacity": 1,
   "visible": true,
   "data": [
    0,
    0,
    0,
    0,
    0,
    0,
    0,
    0,
    0,
    0,
    0,
    0,
    0,
    0,
    0,
    0,
    0,
    0,
    0,
    0,
    0,
    0,
    0,
    0,
    0,
    0,
    0,
    0,
    0,
    0,
    0,
    0,
    0,
    0,
    0,
    0,
    0,
    0,
    0,
    0,
    0,
    0,
    0,
    0,
    0,
    0,
    0,
    0,
    0,
    0,
    0,
    0,
    0,
    0,
    0,
    0,
    0,
    0,
    0,
    0,
    0,
    0,
    0,
    0,
    0,
    0,
    0,
    0,
    0,
    0,
    0,
    0,
    0,
    0,
    0,
    0,
    0,
    0,
    0,
    0,
    0,
    0,
    0,
    0,
    0,
    0,
    0,
    0,
    0,
    0,
    0,
    0,
    0,
    0,
    0,
    0,
    0,
    0,
    0,
    0,
    0,
    0,
    0,
    0,
    0,
    0,
    0,
    0,
    0,
    0,
    0,
    0,
    0,
    0,
    0,
    0,
    0,
    0,
    0,
    0,
    0,
    0,
    0,
    0,
    0,
    0,
    0,
    0,
    0,
    0,
    0,
    0,
    0,
    0,
    0,
    0,
    0,
    0,
    0,
    0,
    0,
    0,
    0,
    0,
    0,
    0,
    0,
    0,
    0,
    0,
    0,
    0,
    0,
    0,
    0,
    0,
    0,
    0,
    0,
    0,
    0,
    0,
    0,
    0,
    0,
    0,
    0,
    0,
    0,
    0,
    0,
    0,
    0,
    0,
    0,
    0,
    0,
    0,
    0,
    0,
    431,
    0,
    0,
    0,
    0,
    0,
    0,
    0,
    0,
    0,
    0,
    0,
    0,
    0,
    0,
    0,
    0,
    0,
    0,
    0,
    0,
    0,
    0,
    0,
    0,
    0,
    0,
    0,
    0,
    0,
    0,
    0,
    0,
    0,
    0,
    0,
    0,
    0,
    0,
    0,
    0,
    0,
    0,
    397,
    398,
    0,
    0,
    0,
    413,
    414,
    0,
    0,
    0,
    0,
    0,
    0,
    0,
    0,
    0,
    0,
    0,
    0,
    0,
    0,
    0,
    0,
    0,
    0,
    0,
    0,
    0,
    0,
    0,
    0,
    0,
    0,
    0,
    0,
    0,
    0,
    0,
    0,
    0,
    0,
    0,
    0,
    0,
    0,
    0,
    0,
    0,
    0,
    0,
    0,
    0,
    0,
    0,
    0,
    0,
    0,
    0,
    0,
    0,
    0,
    0,
    0,
    0,
    0,
    0,
    0,
    0,
    0,
    0,
    0,
    0,
    0,
    0,
    0,
    0,
    0,
    0,
    0,
    0,
    0,
    431,
    0,
    0,
    0,
    441,
    442,
    443,
    0,
    0,
    0,
    0,
    0,
    0,
    0,
    0,
    0,
    0,
    0,
    0,
    0,
    0,
    0,
    0,
    0,
    0,
    0,
    0,
    0,
    441,
    442,
    443,
    0,
    0,
    0,
    0,
    0,
    0,
    0,
    0,
    0,
    0,
    0,
    0,
    0,
    0,
    0,
    0,
    0,
    0,
    0,
    0,
    0,
    441,
    442,
    443,
    0,
    0,
    0,
    0,
    0,
    0,
    0,
    0,
    428,
    0,
    0,
    0,
    0,
    0,
    0,
    0,
    0,
    0,
    0,
    0,
    0,
    0,
    0,
    425,
    0,
    0,
    0,
    0,
    0,
    0,
    0,
    0,
    0,
    0,
    0,
    0,
    0,
    393,
    394,
    0,
    0,
    0,
    0,
    0,
    0,
    0,
    0,
    0,
    0,
    0,
    0,
    0,
    0,
    0,
    0,
    0,
    0,
    0,
    0,
    0,
    0,
    0,
    0,
    0,
    0,
    0,
    0,
    0,
    0,
    0,
    0,
    0,
    0,
    0,
    0,
    0,
    0,
    0,
    0,
    0,
    0,
    0,
    0,
    0,
    0,
    0,
    0,
    0,
    0,
    0,
    0,
    0,
    0,
    0,
    0,
    0,
    0,
    0,
    0,
    0,
    0,
    0,
    0,
    0,
    0,
    0,
    431,
    0,
    0,
    0,
    0,
    0,
    0,
    0,
    0,
    0,
    0,
    0,
    0,
    0,
    0,
    0,
    0,
    0,
    0,
    0,
    0,
    0,
    0,
    0,
    0,
    0,
    0,
    0,
    0,
    0,
    0,
    0,
    0,
    0,
    0,
    0,
    0,
    0,
    0,
    0,
    0,
    0,
    0,
    0,
    0,
    0,
    0,
    0,
    0,
    0,
    0,
    0,
    0,
    0,
    0,
    397,
    398,
    0,
    0,
    0,
    0,
    0,
    0,
    0,
    0,
    0,
    0,
    0,
    0,
    0,
    0,
    0,
    0,
    0,
    0,
    0,
    0,
    0,
    0,
    0,
    0,
    0,
    0,
    0,
    0,
    0,
    0,
    0,
    0,
    0,
    0,
    0,
    0,
    0,
    0,
    0,
    0,
    0,
    0,
    0,
    0,
    0,
    0,
    0,
    0,
    0,
    0,
    0,
    0,
    0,
    0,
    0,
    0,
    0,
    0,
    0,
    0,
    0,
    426,
    401,
    402,
    0,
    0,
    401,
    402,
    0,
    0,
    0,
    0,
    0,
    0,
    0,
    0,
    0,
    0,
    0,
    0,
    0,
    0,
    0,
    0,
    0,
    0,
    0,
    0,
    0,
    0,
    0,
    0,
    0,
    0,
    0,
    0,
    0,
    0,
    0,
    0,
    0,
    0,
    0,
    0,
    0,
    0,
    0,
    0,
    0,
    0,
    0,
    0,
    0,
    0,
    0,
    0,
    0,
    0,
    0,
    0,
    0,
    0,
    0,
    0,
    0,
    0,
    0,
    0,
    0,
    0,
    0,
    0,
    0,
    0,
    0,
    0,
    0,
    0,
    0,
    0,
    0,
    0,
    0,
    0,
    0,
    0,
    0,
    0,
    0,
    0,
    0,
    0,
    0,
    0,
    0,
    0,
    0,
    0,
    0,
    432,
    0,
    0,
    0,
    0,
    0,
    0,
    0,
    0,
    0,
    0,
    0,
    0,
    0,
    0,
    0,
    0,
    0,
    0,
    0,
    0,
    0,
    0,
    0,
    0,
    0,
    0,
    0,
    0,
    0,
    0,
    0,
    0,
    0,
    0,
    0,
    0,
    0,
    0,
    0,
    0,
    0,
    0,
    0,
    0,
    0,
    0,
    0,
    0,
    0,
    0,
    0,
    0,
    0,
    0,
    0,
    0,
    0,
    0,
    0,
    0,
    0,
    0,
    0,
    0,
    0,
    0,
    0,
    0,
    0,
    0,
    0,
    0,
    0,
    0,
    0,
    0,
    431,
    0,
    0,
    0,
    0,
    0,
    0,
    0,
    0,
    0,
    0,
    0,
    0,
    0,
    0,
    0,
    0,
    423,
    0,
    0,
    0,
    0,
    0,
    0,
    0,
    0,
    0,
    0,
    0,
    0,
    0,
    0,
    434,
    0,
    0,
    0,
    0,
    0,
    0,
    0,
    0,
    0,
    0,
    0,
    0,
    0,
    0,
    0,
    0,
    0,
    0,
    0,
    0,
    0,
    0,
    0,
    0,
    0,
    0,
    433,
    0,
    0,
    0,
    0,
    0,
    0,
    0,
    0,
    0,
    0,
    0,
    0,
    0,
    0,
    0,
    0,
    0,
    0,
    0,
    0,
    0,
    0,
    0,
    0,
    0,
    0,
    0,
    0,
    0,
    0,
    0,
    0,
    0,
    0,
    0,
    0,
    0,
    0,
    0,
    0,
    0,
    0,
    0,
    0,
    0,
    0,
    0,
    0,
    0,
    0,
    0,
    0,
    0,
    0,
    426,
    0,
    0,
    432,
    0,
    0,
    0,
    0,
    0,
    0,
    0,
    0,
    0,
    0,
    0,
    0,
    0,
    0,
    0,
    0,
    0,
    0,
    0,
    0,
    0,
    0,
    0,
    0,
    0,
    0,
    0,
    0,
    0,
    0,
    0,
    0,
    0,
    0,
    0,
    0,
    0,
    0,
    0,
    0,
    0,
    0,
    0,
    0,
    0,
    0,
    0,
    0,
    0,
    0,
    0,
    0,
    0,
    0,
    0,
    0,
    0,
    0,
    0,
    0,
    0,
    0,
    0,
    0,
    0,
    0,
    0,
    431,
    0,
    0,
    0,
    0,
    0,
    0,
    0,
    0,
    0,
    0,
    0,
    0,
    0,
    0,
    0,
    0,
    0,
    0,
    0,
    0,
    0,
    429,
    0,
    429,
    0,
    0,
    0,
    0,
    0,
    0,
    0,
    393,
    394,
    0,
    0,
    0,
    0,
    0,
    0,
    0,
    0,
    0,
    0,
    0,
    0,
    0,
    0,
    0,
    0,
    0,
    0,
    0,
    417,
    418,
    0,
    0,
    0,
    0,
    0,
    0,
    0,
    0,
    0,
    0,
    0,
    0,
    0,
    0,
    0,
    0,
    430,
    0,
    0,
    0,
    0,
    0,
    0,
    0,
    0,
    0,
    0,
    0,
    0,
    0,
    0,
    0,
    0,
    0,
    0,
    0,
    428,
    0,
    0,
    0,
    0,
    434,
    0,
    434,
    0,
    428,
    0,
    0,
    0,
    0,
    0,
    0,
    428,
    0,
    0,
    0,
    0,
    0,
    0,
    0,
    0,
    0,
    0,
    0,
    0,
    0,
    0,
    0,
    0,
    0,
    0,
    0,
    0,
    0,
    0,
    0,
    0,
    0,
    0,
    0,
    0,
    0,
    0,
    0,
    0,
    0,
    0,
    0,
    0,
    0,
    0,
    0,
    0,
    0,
    0,
    0,
    0,
    0,
    0,
    0,
    0,
    0,
    0,
    0,
    0,
    0,
    0,
    0,
    433,
    0,
    0,
    0,
    0,
    0,
    0,
    0,
    0,
    0,
    0,
    0,
    0,
    0,
    0,
    0,
    0,
    0,
    0,
    0,
    0,
    0,
    0,
    0,
    0,
    0,
    0,
    0,
    0,
    431,
    0,
    0,
    431,
    0,
    0,
    0,
    0,
    0,
    0,
    0,
    0,
    0,
    0,
    0,
    0,
    0,
    0,
    0,
    0,
    0,
    0,
    0,
    0,
    0,
    0,
    0,
    0,
    0,
    0,
    0,
    0,
    0,
    431,
    0,
    0,
    0,
    0,
    0,
    0,
    0,
    0,
    0,
    0,
    0,
    0,
    0,
    0,
    0,
    0,
    0,
    0,
    0,
    0,
    0,
    0,
    0,
    0,
    0,
    0,
    0,
    0,
    0,
    0,
    0,
    0,
    0,
    427,
    0,
    0,
    0,
    0,
    0,
    0,
    0,
    430,
    0,
    0,
    0,
    0,
    0,
    0,
    0,
    0,
    0,
    0,
    0,
    0,
    0,
    0,
    0,
    0,
    0,
    0,
    0,
    0,
    0,
    0,
    0,
    0,
    0,
    0,
    0,
    0,
    0,
    0,
    0,
    0,
    0,
    0,
    0,
    0,
    0,
    0,
    0,
    0,
    0,
    0,
    0,
    0,
    0,
    0,
    0,
    0,
    0,
    0,
    0,
    0,
    0,
    0,
    0,
    0,
    0,
    0,
    0,
    0,
    0,
    0,
    0,
    0,
    0,
    0,
    0,
    0,
    0,
    0,
    0,
    0,
    0,
    0,
    0,
    0,
    0,
    0,
    0,
    0,
    0,
    0,
    0,
    0,
    0,
    0,
    0,
    0,
    0,
    0,
    0,
    0,
    424,
    0,
    0,
    0,
    0,
    0,
    0,
    0,
    0,
    0,
    0,
    0,
    0,
    0,
    0,
    0,
    0,
    0,
    0,
    0,
    0,
    0,
    0,
    0,
    0,
    0,
    0,
    0,
    0,
    0,
    0,
    0,
    0,
    0,
    0,
    0,
    0,
    0,
    0,
    0,
    0,
    0,
    0,
    0,
    0,
    0,
    0,
    0,
    0,
    0,
    0,
    0,
    0,
    0,
    0,
    0,
    0,
    0,
    0,
    0,
    0,
    0,
    0,
    0,
    0,
    0,
    0,
    0,
    0,
    0,
    0,
    0,
    0,
    0,
    0,
    0,
    0,
    0,
    0,
    0,
    0,
    0,
    0,
    0,
    0,
    0,
    0,
    0,
    0,
    0,
    0,
    0,
    0,
    0,
    0,
    0,
    0,
    0,
    0,
    0,
    0,
    0,
    0,
    0,
    0,
    0,
    0,
    0,
    0,
    0,
    0,
    0,
    0,
    0,
    0,
    0,
    0,
    0,
    0,
    0,
    0,
    0,
    0,
    0,
    0,
    0,
    0,
    0,
    0,
    0,
    0,
    0,
    0,
    0,
    0,
    0,
    0,
    0,
    0,
    0,
    0,
    0,
    0,
    0,
    0,
    0,
    0,
    0,
    0,
    0,
    0,
    0,
    0,
    0,
    0,
    0,
    0,
    428,
    0,
    0,
    0,
    0,
    423,
    0,
    0,
    0,
    0,
    0,
    0,
    0,
    0,
    0,
    0,
    0,
    0,
    0,
    0,
    429,
    0,
    0,
    0,
    0,
    0,
    0,
    0,
    0,
    0,
    0,
    0,
    0,
    0,
    0,
    0,
    0,
    0,
    0,
    0,
    0,
    0,
    0,
    0,
    0,
    0,
    0,
    0,
    0,
    0,
    0,
    0,
    0,
    0,
    0,
    0,
    0,
    0,
    0,
    0,
    0,
    0,
    0,
    0,
    0,
    0,
    0,
    0,
    0,
    0,
    0,
    0,
    0,
    0,
    0,
    0,
    0,
    0,
    0,
    0,
    0,
    0,
    0,
    0,
    0,
    0,
    0,
    0,
    0,
    0,
    0,
    0,
    0,
    0,
    0,
    0,
    0,
    0,
    0,
    0,
    0,
    0,
    0,
    0,
    0,
    0,
    0,
    0,
    0,
    0,
    0,
    0,
    0,
    0,
    0,
    0,
    0,
    0,
    0,
    0,
    0,
    0,
    0,
    0,
    0,
    0,
    0,
    0,
    0,
    0,
    0,
    0,
    0,
    0,
    0,
    0,
    0,
    0,
    0,
    0,
    0,
    0,
    0,
    0,
    0,
    0,
    0,
    0,
    0,
    0,
    0,
    0,
    0,
    0,
    0,
    0,
    0,
    0,
    0,
    0,
    0,
    0,
    0,
    0,
    0,
    0,
    0,
    0,
    0,
    0,
    0,
    0,
    0,
    0,
    0,
    0,
    0,
    0,
    0,
    0,
    0,
    0,
    0,
    0,
    0,
    0,
    0,
    0,
    0,
    0,
    0,
    0,
    0,
    0,
    0,
    0,
    0,
    0,
    0,
    0,
    0,
    0,
    0,
    0,
    0,
    0,
    0,
    0,
    0,
    0,
    0,
    0,
    0,
    0,
    0,
    0,
    0,
    0,
    0,
    0,
    0,
    0,
    0,
    0,
    0,
    0,
    0,
    0,
    0,
    0,
    0,
    0,
    0,
    0,
    0,
    0,
    427,
    0,
    0,
    0,
    0,
    0,
    0,
    0,
    0,
    0,
    0,
    0,
    0,
    0,
    0,
    0,
    0,
    0,
    0,
    0,
    0,
    0,
    0,
    0,
    0,
    0,
    0,
    0,
    0,
    0,
    0,
    0,
    0,
    0,
    0,
    0,
    0,
    0,
    0,
    0,
    0,
    0,
    0,
    0,
    0,
    0,
    0,
    401,
    402,
    0,
    0,
    0,
    0,
    0,
    0,
    0,
    0,
    0,
    417,
    418,
    0,
    0,
    0,
    0,
    0,
    0,
    0,
    0,
    0,
    0,
    0,
    0,
    0,
    0,
    0,
    0,
    0,
    0,
    0,
    0,
    0,
    0,
    0,
    0,
    0,
    0,
    0,
    0,
    0,
    0,
    0,
    0,
    0,
    0,
    0,
    0,
    0,
    0,
    0,
    0,
    0,
    0,
    0,
    0,
    0,
    0,
    0,
    0,
    0,
    0,
    0,
    0,
    0,
    0,
    0,
    0,
    0,
    0,
    0,
    0,
    0,
    0,
    0,
    0,
    0,
    0,
    0,
    0,
    0,
    0,
    0,
    0,
    0,
    0,
    0,
    0,
    0,
    0,
    0,
    0,
    0,
    0,
    0,
    0,
    0,
    0,
    0,
    0,
    0,
    0,
    0,
    0,
    0,
    0,
    0,
    0,
    0,
    0,
    0,
    0,
    0,
    0,
    0,
    0,
    0,
    0,
    0,
    0,
    0,
    0,
    0,
    0,
    0,
    0,
    0,
    0,
    0,
    0,
    0,
    0,
    0,
    0,
    0,
    0,
    0,
    0,
    0,
    0,
    0,
    0,
    0,
    0,
    0,
    0,
    0,
    0,
    0,
    0,
    0,
    0,
    0,
    0,
    0,
    0,
    0,
    0,
    0,
    0,
    0,
    0,
    0,
    0,
    0,
    0,
    0,
    0,
    0,
    0,
    0,
    0,
    0,
    0,
    0,
    0,
    0,
    0,
    0,
    0,
    0,
    0,
    0,
    0,
    0,
    0,
    0,
    0,
    0,
    0,
    0,
    0,
    0,
    0,
    0,
    0,
    0,
    0,
    0,
    0,
    0,
    409,
    410,
    0,
    0,
    0,
    0,
    426,
    0,
    0,
    0,
    0,
    0,
    0,
    421,
    422,
    0,
    0,
    0,
    0,
    0,
    0,
    0,
    0,
    0,
    0,
    0,
    0,
    0,
    0,
    0,
    0,
    0,
    0,
    0,
    0,
    0,
    0,
    0,
    0,
    0,
    0,
    0,
    0,
    0,
    0,
    0,
    0,
    0,
    0,
    0,
    0,
    0,
    0,
    0,
    0,
    0,
    0,
    0,
    0,
    0,
    0,
    0,
    0,
    0,
    0,
    0,
    0,
    0,
    0,
    0,
    0,
    0,
    0,
    0,
    0,
    0,
    0,
    0,
    0,
    0,
    0,
    0,
    0,
    0,
    0,
    0,
    0,
    0,
    0,
    0,
    0,
    0,
    0,
    0,
    0,
    0,
    0,
    0,
    0,
    0,
    0,
    426,
    426,
    0,
    0,
    0,
    0,
    0,
    0,
    0,
    0,
    0,
    0,
    0,
    0,
    0,
    0,
    0,
    0,
    0,
    0,
    0,
    0,
    0,
    0,
    0,
    0,
    0,
    0,
    0,
    0,
    0,
    0,
    0,
    0,
    0,
    0,
    0,
    0,
    0,
    0,
    0,
    0,
    0,
    0,
    0,
    0,
    0,
    0,
    0,
    0,
    0,
    0,
    0,
    0,
    0,
    0,
    0,
    0,
    0,
    0,
    0,
    0,
    0,
    0,
    0,
    0,
    0,
    0,
    0,
    0,
    0,
    0,
    0,
    0,
    0,
    0,
    0,
    0,
    0,
    0,
    0,
    0,
    0,
    0,
    0,
    0,
    0,
    0,
    0,
    0,
    0,
    0,
    409,
    410,
    0,
    0,
    0,
    0,
    0,
    0,
    0,
    0,
    0,
    0,
    0,
    0,
    0,
    413,
    414,
    0,
    0,
    0,
    0,
    0,
    0,
    0,
    0,
    0,
    0,
    0,
    0,
    0,
    0,
    0,
    0,
    0,
    0,
    0,
    0,
    0,
    0,
    0,
    0,
    0,
    0,
    0,
    0,
    0,
    0,
    0,
    0,
    0,
    0,
    0,
    0,
    0,
    0,
    0,
    0,
    0,
    0,
    0,
    0,
    0,
    0,
    0,
    0,
    0,
    0,
    0,
    0,
    0,
    0,
    0,
    0,
    0,
    0,
    0,
    0,
    0,
    0,
    0,
    0,
    0,
    0,
    0,
    0,
    0,
    0,
    0,
    0,
    0,
    0,
    0,
    0,
    0,
    0,
    0,
    0,
    0,
    0,
    0,
    0,
    393,
    394,
    0,
    0,
    0,
    0,
    0,
    0,
    0,
    0,
    0,
    0,
    0,
    0,
    0,
    0,
    0,
    0,
    0,
    0,
    0,
    0,
    0,
    0,
    0,
    0,
    0,
    0,
    0,
    0,
    0,
    0,
    0,
    0,
    0,
    0,
    0,
    0,
    0,
    0,
    0,
    0,
    0,
    0,
    0,
    0,
    0,
    0,
    0,
    0,
    0,
    0,
    0,
    0,
    0,
    0,
    0,
    0,
    0,
    0,
    0,
    0,
    0,
    0,
    0,
    0,
    0,
    0,
    0,
    0,
    0,
    0,
    0,
    0,
    0,
    0,
    0,
    0,
    0,
    0,
    0,
    0,
    0,
    0,
    0,
    0,
    0,
    0,
    0,
    0,
    0,
    0,
    0,
    0,
    0,
    0,
    0,
    0,
    0,
    0,
    0,
    0,
    0,
    0,
    0,
    0,
    421,
    422,
    0,
    0,
    0,
    0,
    0,
    0,
    0,
    0,
    0,
    0,
    0,
    0,
    0,
    0,
    426,
    0,
    0,
    0,
    0,
    0,
    0,
    0,
    0,
    0,
    0,
    0,
    0,
    0,
    0,
    0,
    0,
    0,
    0,
    0,
    0,
    0,
    0,
    0,
    0,
    0,
    0,
    0,
    0,
    0,
    0,
    0,
    0,
    0,
    0,
    0,
    0,
    0,
    0,
    0,
    0,
    0,
    0,
    0,
    0,
    0,
    0,
    0,
    0,
    434,
    0,
    0,
    0,
    0,
    0,
    0,
    0,
    0,
    0,
    0,
    0,
    0,
    0,
    0,
    0,
    0,
    0,
    0,
    0,
    0,
    0,
    0,
    0,
    0,
    0,
    0,
    0,
    0,
    0,
    0,
    0,
    0,
    0,
    0,
    0,
    0,
    0,
    0,
    0,
    0,
    0,
    0,
    0,
    0,
    0,
    0,
    0,
    0,
    0,
    0,
    0,
    0,
    0,
    0,
    0,
    0,
    0,
    0,
    0,
    0,
    0,
    0,
    0,
    0,
    0,
    0,
    0,
    0,
    0,
    0,
    0,
    0,
    0,
    0,
    0,
    0,
    0,
    0,
    0,
    0,
    0,
    0,
    0,
    0,
    0,
    0,
    401,
    402,
    0,
    0,
    0,
    0,
    0,
    0,
    0,
    0,
    0,
    0,
    0,
    0,
    0,
    0,
    0,
    0,
    0,
    0,
    0,
    0,
    0,
    0,
    0,
    0,
    0,
    0,
    0,
    0,
    0,
    0,
    0,
    0,
    0,
    0,
    0,
    0,
    0,
    0,
    0,
    0,
    429,
    0,
    0,
    0,
    0,
    0,
    0,
    0,
    0,
    0,
    0,
    0,
    0,
    0,
    0,
    0,
    0,
    0,
    0,
    0,
    0,
    0,
    0,
    0,
    0,
    0,
    0,
    0,
    0,
    0,
    0,
    0,
    0,
    0,
    0,
    0,
    0,
    0,
    0,
    0,
    0,
    0,
    0,
    0,
    0,
    0,
    0,
    0,
    0,
    0,
    0,
    0,
    0,
    0,
    0,
    0,
    0,
    0,
    0,
    0,
    0,
    0,
    0,
    0,
    0,
    0,
    0,
    0,
    0,
    0,
    0,
    0,
    0,
    0,
    0,
    0,
    0,
    0,
    0,
    0,
    0,
    0,
    0,
    0,
    0,
    0,
    0,
    0,
    0,
    0,
    0,
    0,
    0,
    0,
    0,
    0,
    0,
    0,
    0,
    0,
    0,
    0,
    0,
    0,
    0,
    0,
    0,
    0,
    0,
    0,
    0,
    0,
    0,
    0,
    0,
    0,
    0,
    0,
    0,
    0,
    0,
    0,
    0,
    0,
    0,
    0,
    0,
    0,
    0,
    0,
    0,
    0,
    0,
    0,
    0,
    0,
    0,
    0,
    0,
    0,
    0,
    0,
    0,
    0,
    0,
    0,
    0,
    0,
    0,
    0,
    0,
    0,
    0,
    0,
    0,
    0,
    0,
    0,
    0,
    0,
    0,
    0,
    0,
    0,
    0,
    0,
    0,
    0,
    0,
    0,
    0,
    0,
    0,
    0,
    0,
    0,
    0,
    0,
    0,
    0,
    0,
    0,
    0,
    0,
    0,
    0,
    0,
    0,
    0,
    0,
    0,
    0,
    0,
    0,
    0,
    0,
    0,
    0,
    0,
    0,
    0,
    0,
    0,
    0,
    0,
    0,
    0,
    0,
    0,
    0,
    0,
    0,
    0,
    0,
    0,
    0,
    0,
    0,
    0,
    0,
    0,
    0,
    0,
    0,
    0,
    0,
    0,
    0,
    0,
    0,
    0,
    0,
    0,
    0,
    0,
    0,
    0,
    0,
    0,
    0,
    0,
    0,
    0,
    0,
    0,
    0,
    0,
    0,
    0,
    0,
    0,
    0,
    0,
    0,
    0,
    0,
    0,
    0,
    0,
    0,
    0,
    0,
    0,
    0,
    0,
    0,
    0,
    0,
    0,
    0,
    0,
    0,
    0,
    0,
    0,
    0,
    0,
    0,
    0,
    0,
    0,
    0,
    0,
    0,
    0,
    0,
    0,
    0,
    0,
    0,
    0,
    0,
    0,
    0,
    0,
    0,
    0,
    0,
    0,
    0,
    0,
    0,
    0,
    0,
    0,
    0,
    0,
    0,
    0,
    0,
    0,
    0,
    0,
    0,
    0,
    0,
    0,
    0,
    0,
    0,
    0,
    0,
    0,
    0,
    0,
    0,
    0,
    0,
    0,
    0,
    0,
    0,
    0,
    0,
    0,
    0,
    0,
    0,
    0,
    0,
    0,
    0,
    0,
    0,
    0,
    0,
    0,
    0,
    0,
    0,
    0,
    0,
    0,
    0,
    0,
    0,
    0,
    0,
    0,
    0,
    0,
    0,
    0,
    0,
    0,
    0,
    0,
    0,
    0,
    0,
    0,
    0,
    0,
    0,
    0,
    0,
    0,
    0,
    0,
    0,
    0,
    0,
    0,
    0,
    0,
    0,
    0,
    0,
    0,
    0,
    0,
    0,
    0,
    0,
    0,
    0,
    0,
    0,
    0,
    0,
    0,
    0,
    0,
    0,
    0,
    0,
    0,
    0,
    0,
    0,
    0,
    0,
    0,
    0,
    0,
    0,
    0,
    0,
    0,
    0,
    0,
    0,
    0,
    0,
    0,
    0,
    0,
    0,
    0,
    0,
    0,
    0,
    0,
    0,
    0,
    0,
    0,
    0,
    0,
    0,
    0,
    0,
    0,
    0,
    0,
    0,
    0,
    0,
    0,
    0,
    0,
    0,
    0,
    0,
    0,
    0,
    0,
    0,
    0,
    0,
    0,
    0,
    0,
    0,
    0,
    0,
    0,
    0,
    0,
    0,
    0,
    0,
    0,
    0,
    0,
    0,
    0,
    0,
    0,
    0,
    0,
    0,
    0,
    0,
    0,
    0,
    0,
    0,
    0,
    0,
    0,
    0,
    432,
    0,
    0,
    0,
    0,
    0,
    0,
    0,
    0,
    0,
    0,
    0,
    0,
    0,
    0,
    0,
    0,
    0,
    0,
    0,
    0,
    0,
    0,
    0,
    0,
    0,
    0,
    0,
    0,
    0,
    0,
    0,
    0,
    0,
    0,
    0,
    0,
    0,
    0,
    0,
    0,
    0,
    0,
    0,
    0,
    0,
    0,
    0,
    0,
    0,
    0,
    0,
    0,
    0,
    0,
    0,
    0,
    0,
    0,
    0,
    0,
    0,
    0,
    0,
    0,
    0,
    0,
    0,
    0,
    0,
    0,
    0,
    0,
    0,
    0,
    0,
    0,
    0,
    0,
    0,
    0,
    0,
    0,
    0,
    0,
    0,
    0,
    0,
    0,
    0,
    0,
    0,
    0,
    0,
    0,
    0,
    0,
    0,
    0,
    0,
    0,
    0,
    0,
    0,
    0,
    0,
    0,
    0,
    0,
    0,
    0,
    0,
    0,
    0,
    425,
    0,
    0,
    0,
    0,
    0,
    0,
    0,
    0,
    0,
    0,
    0,
    0,
    0,
    0,
    0,
    0,
    0,
    0,
    441,
    442,
    443,
    0,
    0,
    0,
    0,
    0,
    0,
    0,
    0,
    0,
    0,
    0,
    0,
    0,
    0,
    0,
    0,
    0,
    0,
    0,
    0,
    0,
    0,
    0,
    0,
    0,
    0,
    0,
    0,
    0,
    0,
    0,
    0,
    0,
    0,
    0,
    0,
    0,
    0,
    0,
    0,
    0,
    0,
    0,
    0,
    0,
    0,
    0,
    0,
    0,
    0,
    0,
    0,
    0,
    0,
    0,
    0,
    0,
    0,
    0,
    0,
    0,
    0,
    0,
    0,
    0,
    0,
    0,
    0,
    0,
    0,
    0,
    0,
    0,
    0,
    0,
    0,
    0,
    0,
    0,
    0,
    0,
    0,
    0,
    0,
    0,
    0,
    0,
    0,
    0,
    0,
    0,
    0,
    0,
    0,
    0,
    0,
    0,
    0,
    0,
    0,
    0,
    0,
    0,
    0,
    0,
    0,
    0,
    0,
    0,
    0,
    0,
    0,
    0,
    0,
    0,
    0,
    0,
    0,
    0,
    0,
    0,
    0,
    0,
    0,
    0,
    0,
    0,
    0,
    0,
    0,
    0,
    0,
    0,
    0,
    0,
    0,
    0,
    0,
    0,
    0,
    0,
    0,
    0,
    0,
    0,
    0,
    0,
    0,
    0,
    0,
    0,
    0,
    0,
    0,
    0,
    0,
    0,
    0,
    0,
    0,
    0,
    0,
    0,
    0,
    0,
    0,
    0,
    0,
    0,
    0,
    0,
    0,
    0,
    0,
    0,
    0,
    0,
    0,
    0,
    0,
    0,
    0,
    0,
    0,
    0,
    0,
    0,
    0,
    0,
    0,
    0,
    0,
    0,
    0,
    0,
    0,
    0,
    0,
    0,
    0,
    0,
    0,
    0,
    0,
    0,
    0,
    0,
    0,
    0,
    0,
    0,
    0,
    0,
    0,
    0,
    0,
    0,
    0,
    0,
    0,
    0,
    0,
    0,
    0,
    0,
    0,
    0,
    0,
    0,
    0,
    0,
    0,
    0,
    0,
    0,
    0,
    0,
    0,
    0,
    0,
    0,
    0,
    0,
    0,
    0,
    0,
    0,
    0,
    0,
    0,
    0,
    0,
    0,
    0,
    0,
    0,
    0,
    0,
    0,
    0,
    0,
    0,
    0,
    0,
    0,
    0,
    0,
    0,
    0,
    0,
    0,
    0,
    0,
    0,
    0,
    0,
    0,
    0,
    0,
    0,
    0,
    0,
    0,
    0,
    0,
    0,
    0,
    0,
    0,
    0,
    0,
    0,
    0,
    0,
    0,
    0,
    0,
    0,
    0,
    0,
    0,
    0,
    0,
    0,
    0,
    0,
    0,
    0,
    0,
    0,
    0,
    0,
    0,
    0,
    0,
    0,
    0,
    0,
    0,
    0,
    0,
    0,
    0,
    0,
    0,
    0,
    0,
    0,
    0,
    0,
    0,
    0,
    0,
    0,
    0,
    0,
    0,
    0,
    0,
    0,
    0,
    0,
    0,
    0,
    0,
    0,
    0,
    0,
    0,
    0,
    0,
    0,
    0,
    0,
    0,
    0,
    0,
    0,
    0,
    0,
    0,
    0,
    0,
    0,
    0,
    0,
    0,
    0,
    0,
    0,
    0,
    0,
    0,
    0,
    0,
    0,
    0,
    0,
    0,
    0,
    0,
    0,
    0,
    0,
    0,
    0,
    0,
    0,
    0,
    0,
    0,
    0,
    0,
    0,
    0,
    0,
    0,
    424,
    0,
    0,
    0,
    0,
    0,
    0,
    0,
    0,
    0,
    0,
    0,
    0,
    0,
    0,
    0,
    0,
    0,
    0,
    427,
    0,
    0,
    0,
    0,
    0,
    0,
    0,
    0,
    0,
    0,
    0,
    0,
    0,
    0,
    0,
    0,
    0,
    0,
    0,
    0,
    0,
    0,
    0,
    0,
    0,
    0,
    0,
    0,
    0,
    0,
    0,
    0,
    0,
    0,
    0,
    0,
    0,
    0,
    0,
    0,
    0,
    0,
    0,
    0,
    0,
    0,
    0,
    0,
    0,
    0,
    0,
    0,
    0,
    0,
    0,
    0,
    0,
    0,
    0,
    0,
    0,
    0,
    0,
    0,
    0,
    0,
    0,
    0,
    0,
    0,
    0,
    0,
    0,
    0,
    0,
    0,
    0,
    0,
    0,
    0,
    0,
    0,
    0,
    0,
    0,
    0,
    0,
    0,
    0,
    0,
    0,
    0,
    0,
    0,
    0,
    0,
    0,
    0,
    0,
    0,
    0,
    0,
    0,
    0,
    0,
    0,
    0,
    0,
    0,
    0,
    0,
    0,
    0,
    0,
    0,
    0,
    0,
    0,
    0,
    0,
    0,
    0,
    0,
    0,
    0,
    0,
    0,
    0,
    0,
    0,
    0,
    0,
    0,
    0,
    0,
    0,
    0,
    0,
    0,
    0,
    0,
    0,
    0,
    0,
    0,
    0,
    0,
    0,
    0,
    0,
    0,
    0,
    0,
    0,
    0,
    0,
    0,
    0,
    0,
    0,
    0,
    0,
    0,
    427,
    0,
    0,
    0,
    0,
    427,
    0,
    0,
    0,
    0,
    0,
    0,
    0,
    441,
    442,
    443,
    0,
    0,
    0,
    0,
    0,
    0,
    0,
    0,
    0,
    0,
    0,
    0,
    0,
    0,
    0,
    0,
    0,
    0,
    0,
    0,
    0,
    0,
    427,
    0,
    0,
    0,
    0,
    0,
    0,
    0,
    0,
    0,
    0,
    0,
    0,
    0,
    0,
    0,
    0,
    0,
    424,
    0,
    0,
    0,
    0,
    0,
    0,
    0,
    0,
    441,
    442,
    443,
    0,
    0,
    0,
    0,
    0,
    0,
    0,
    0,
    0,
    0,
    0,
    0,
    0,
    0,
    0,
    0,
    0,
    0,
    0,
    0,
    0,
    0,
    0,
    0,
    0,
    0,
    0,
    0,
    0,
    0,
    459,
    460,
    461,
    0,
    0,
    0,
    0,
    0,
    0,
    0,
    0,
    0,
    0,
    0,
    0,
    0,
    0,
    0,
    0,
    0,
    0,
    0,
    0,
    0,
    0,
    0,
    450,
    451,
    452,
    0,
    0,
    0,
    0,
    0,
    433,
    0,
    0,
    0,
    0,
    0,
    0,
    0,
    0,
    0,
    0,
    0,
    450,
    451,
    452,
    0,
    0,
    0,
    0,
    0,
    0,
    0,
    0,
    0,
    0,
    0,
    0,
    0,
    0,
    0,
    0,
    0,
    0,
    0,
    0,
    0,
    0,
    0,
    0,
    0,
    0,
    0,
    0,
    0,
    0,
    468,
    469,
    470,
    0,
    0,
    0,
    0,
    0,
    0,
    0,
    0,
    0,
    0,
    0,
    0,
    0,
    0,
    0,
    0,
    0,
    0,
    0,
    0,
    0,
    0,
    0,
    424,
    0,
    0,
    0,
    0,
    0,
    0,
    0,
    0,
    0,
    0,
    0,
    0,
    0,
    0,
    0,
    0,
    0,
    0,
    0,
    0,
    0,
    0,
    0,
    0,
    0,
    0,
    0,
    0,
    0,
    0,
    0,
    0,
    0,
    0,
    0,
    0,
    0,
    0,
    0,
    0,
    430,
    0,
    0,
    0,
    0,
    0,
    0,
    0,
    0,
    0,
    0,
    0,
    0,
    427,
    0,
    0,
    0,
    0,
    0,
    0,
    0,
    0,
    0,
    0,
    0,
    0,
    0,
    0,
    0,
    0,
    0,
    0,
    0,
    0,
    0,
    0,
    0,
    0,
    0,
    0,
    0,
    0,
    433,
    0,
    0,
    0,
    0,
    0,
    0,
    0,
    424,
    0,
    0,
    0,
    0,
    0,
    0,
    0,
    0,
    0,
    0,
    0,
    0,
    0,
    0,
    0,
    0,
    0,
    0,
    0,
    0,
    0,
    0,
    0,
    0,
    0,
    424,
    0,
    0,
    430,
    0,
    424,
    0,
    0,
    0,
    0,
    0,
    0,
    0,
    0,
    0,
    0,
    0,
    0,
    0,
    0,
    0,
    0,
    0,
    0,
    0,
    0,
    0,
    0,
    0,
    0,
    0,
    0,
    0,
    0,
    0,
    0,
    0,
    0,
    0,
    0,
    0,
    0,
    0,
    0,
    0,
    0,
    0,
    0,
    0,
    0,
    0,
    0,
    0,
    0,
    0,
    0,
    0,
    0,
    0,
    0,
    0,
    0,
    0,
    0,
    0,
    0,
    0,
    0,
    0,
    0,
    0,
    0,
    0,
    0,
    0,
    0,
    0,
    0,
    0,
    0,
    0,
    0,
    0,
    0,
    0,
    0,
    0,
    0,
    427,
    0,
    0,
    0,
    0,
    0,
    0,
    0,
    0,
    0,
    0,
    0,
    0,
    0,
    0,
    0,
    0,
    0,
    0,
    0,
    0,
    0,
    0,
    0,
    0,
    0,
    0,
    0,
    0,
    0,
    0,
    0,
    0,
    0,
    0,
    0,
    0,
    0,
    427,
    0,
    0,
    0,
    0,
    0,
    0,
    0,
    0,
    0,
    0,
    0,
    0,
    0,
    0,
    0,
    0,
    0,
    0,
    0,
    0,
    0,
    0,
    0,
    0,
    0,
    0,
    0,
    0,
    0,
    0,
    0,
    0,
    0,
    0,
    0,
    0,
    0,
    0,
    0,
    0,
    0,
    0,
    0,
    0,
    0,
    0,
    0,
    0,
    0,
    0,
    0,
    0,
    0,
    0,
    0,
    433,
    424,
    0,
    0,
    0,
    0,
    0,
    0,
    0,
    0,
    0,
    0,
    0,
    0,
    0,
    0,
    0,
    0,
    0,
    0,
    0,
    0,
    0,
    0,
    0,
    0,
    0,
    0,
    0,
    0,
    0,
    0,
    0,
    0,
    0,
    0,
    430,
    0,
    0,
    0,
    0,
    0,
    424,
    0,
    0,
    0,
    0,
    0,
    0,
    0,
    0,
    0,
    0,
    0,
    0,
    0,
    0,
    0,
    0,
    0,
    0,
    0,
    0,
    0,
    0,
    0,
    0,
    0,
    0,
    0,
    0,
    0,
    0,
    0,
    0,
    0,
    430,
    0,
    0,
    0,
    0,
    0,
    0,
    0,
    427,
    0,
    0,
    0,
    0,
    0,
    0,
    0,
    0,
    0,
    0,
    0,
    0,
    0,
    0,
    0,
    0,
    0,
    0,
    0,
    0,
    0,
    0,
    0,
    0,
    0,
    424,
    0,
    0,
    0,
    0,
    433,
    0,
    0,
    0,
    0,
    0,
    0,
    0,
    0,
    0,
    0,
    0,
    0,
    0,
    0,
    427,
    0,
    0,
    0,
    427,
    0,
    0,
    0,
    0,
    0,
    0,
    0,
    0,
    0,
    0,
    0,
    0,
    0,
    0,
    0,
    0,
    0,
    0,
    0,
    0,
    0,
    0,
    0,
    0,
    0,
    0,
    0,
    0,
    0,
    0,
    0,
    0,
    0,
    0,
    0,
    424,
    0,
    0,
    0,
    0,
    0,
    0,
    0,
    0,
    0,
    0,
    0,
    0,
    0,
    0,
    0,
    0,
    0,
    0,
    0,
    0,
    0,
    0,
    0,
    0,
    0,
    0,
    0,
    0,
    0,
    0,
    0,
    0,
    0,
    0,
    0,
    0,
    424,
    0,
    0,
    0,
    0,
    0,
    0,
    0,
    0,
    0,
    0,
    0,
    0,
    0,
    0,
    0,
    0,
    0,
    0,
    0,
    0,
    424,
    0,
    0,
    0,
    433,
    0,
    0,
    0,
    0,
    0,
    0,
    0,
    0,
    0,
    0,
    0,
    0,
    0,
    0,
    0,
    0,
    0,
    0,
    0,
    0,
    0,
    0,
    0,
    0,
    0,
    0,
    0,
    0,
    0,
    0,
    0,
    0,
    0,
    0,
    0,
    430,
    0,
    0,
    0,
    0,
    0,
    0,
    0,
    0,
    0,
    0,
    0,
    0,
    0,
    0,
    0,
    0,
    0,
    0,
    0,
    0,
    0,
    0,
    0,
    0,
    0,
    0,
    424,
    0,
    0,
    0,
    0,
    0,
    0,
    0,
    0,
    0,
    0,
    0,
    0,
    0,
    0,
    0,
    0,
    0,
    0,
    0,
    0,
    0,
    0,
    0,
    0,
    0,
    0,
    0,
    0,
    0,
    0,
    0,
    0,
    0,
    0,
    0,
    0,
    0,
    0,
    0,
    0,
    0,
    0,
    0,
    0,
    0,
    0,
    0,
    0,
    0,
    0,
    0,
    0,
    0,
    0,
    0,
    0,
    0,
    0,
    0,
    0,
    0,
    0,
    0,
    0,
    0,
    0,
    0,
    0,
    0,
    0,
    0,
    0,
    0,
    0,
    0,
    0,
    0,
    0,
    0,
    0,
    0,
    0,
    0,
    0,
    0,
    0,
    0,
    0,
    0,
    433,
    0,
    0,
    0,
    0,
    0,
    0,
    0,
    0,
    0,
    0,
    0,
    0,
    0,
    0,
    0,
    0,
    0,
    0,
    0,
    0,
    0,
    0,
    0,
    0,
    0,
    0,
    0,
    0,
    0,
    0,
    0,
    0,
    0,
    0,
    0,
    0,
    0,
    0,
    0,
    0,
    0,
    427,
    0,
    0,
    0,
    0,
    0,
    0,
    0,
    0,
    0,
    0,
    0,
    0,
    0,
    0,
    0,
    0,
    0,
    0,
    0,
    0,
    0,
    0,
    0,
    0,
    0,
    0,
    0,
    0,
    0,
    0,
    0,
    0,
    0,
    0,
    0,
    0,
    0,
    0,
    0,
    0,
    0,
    0,
    0,
    0,
    0,
    0,
    0,
    0,
    0,
    0,
    0,
    0,
    0,
    0,
    0,
    0,
    0,
    0,
    0,
    0,
    0,
    0,
    0,
    0,
    0,
    0,
    0,
    0,
    0,
    0,
    0,
    0,
    0,
    0,
    0,
    0,
    0,
    0,
    0,
    0,
    0,
    0,
    0,
    0,
    0,
    0,
    0,
    0,
    0,
    0,
    0,
    0,
    0,
    0,
    0,
    0,
    0,
    0,
    0,
    0,
    0,
    0,
    0,
    0,
    0,
    0,
    0,
    0,
    0,
    0,
    0,
    0,
    0,
    0,
    0,
    0,
    0,
    0,
    0,
    0,
    0,
    0,
    0,
    0,
    0,
    0,
    0,
    0,
    0,
    0,
    0,
    0,
    0,
    0,
    0,
    433,
    0,
    0,
    0,
    0,
    0,
    0,
    0,
    0,
    0,
    0,
    0,
    0,
    0,
    0,
    0,
    0,
    0,
    0,
    0,
    0,
    0,
    0,
    0,
    0,
    0,
    0,
    0,
    0,
    0,
    0,
    0,
    0,
    0,
    0,
    0,
    0,
    0,
    0,
    0,
    0,
    0,
    0,
    0,
    0,
    0,
    0,
    0,
    0,
    0,
    0,
    0,
    0,
    0,
    0,
    0,
    0,
    0,
    0,
    0,
    0,
    0,
    0,
    0,
    0,
    0,
    0,
    0,
    0,
    0,
    0,
    0,
    0,
    0,
    0,
    0,
    0,
    0,
    0,
    0,
    0,
    0,
    0,
    0,
    0,
    0,
    0,
    0,
    0,
    0,
    0,
    0,
    0,
    0,
    0,
    0,
    0,
    0,
    0,
    0,
    0,
    0,
    0,
    0,
    0,
    0,
    0,
    0,
    0,
    0,
    0,
    424,
    0,
    0,
    0,
    0,
    0,
    0,
    0,
    0,
    0,
    0,
    0,
    0,
    0,
    0,
    0,
    0,
    0,
    0,
    0,
    0,
    0,
    0,
    0,
    0,
    0,
    0,
    0,
    0,
    0,
    0,
    0,
    0,
    0,
    0,
    0,
    0,
    0,
    0,
    0,
    0,
    0,
    0,
    0,
    0,
    0,
    0,
    0,
    0,
    0,
    0,
    0,
    0,
    0,
    0,
    0,
    0,
    0,
    0,
    0,
    0,
    0,
    0,
    0,
    0,
    0,
    0,
    0,
    0,
    0,
    0,
    0,
    0,
    0,
    0,
    0,
    0,
    0,
    0,
    0,
    0,
    0,
    0,
    0,
    0,
    0,
    0,
    0,
    0,
    0,
    0,
    0,
    0,
    0,
    0,
    0,
    0,
    0,
    0,
    0,
    0,
    0,
    0,
    0,
    0,
    0,
    0,
    0,
    0,
    0,
    0,
    0,
    0,
    0,
    0,
    0,
    0,
    0,
    0,
    0,
    0,
    0,
    0,
    0,
    0,
    0,
    0,
    0,
    0,
    0,
    0,
    0,
    0,
    0,
    0,
    0,
    0,
    0,
    0,
    0,
    0,
    0,
    0,
    0,
    0,
    0,
    0,
    0,
    0,
    0,
    0,
    0,
    0,
    0,
    0,
    0,
    0,
    0,
    0,
    0,
    0,
    0,
    0,
    0,
    0,
    0,
    0,
    0,
    0,
    0,
    0,
    0,
    0,
    0,
    0,
    0,
    0,
    0,
    0,
    0,
    0,
    0,
    0,
    0,
    0,
    0,
    0,
    0,
    0,
    0,
    433,
    0,
    0,
    0,
    0,
    0,
    0,
    0,
    0,
    0,
    0,
    0,
    0,
    0,
    0,
    0,
    0,
    0,
    0,
    0,
    0,
    0,
    0,
    0,
    0,
    0,
    0,
    0,
    0,
    0,
    0,
    0,
    0,
    0,
    0,
    0,
    0,
    0,
    0,
    0,
    0,
    0,
    0,
    0,
    0,
    0,
    0,
    0,
    0,
    0,
    0,
    0,
    0,
    0,
    0,
    0,
    0,
    0,
    0,
    0,
    0,
    0,
    0,
    0,
    0,
    0,
    0,
    0,
    0,
    0,
    0,
    0,
    0,
    0,
    0,
    0,
    0,
    0,
    0,
    0,
    0,
    0,
    0,
    0,
    0,
    0,
    0,
    0,
    0,
    0,
    0,
    0,
    0,
    0,
    0,
    0,
    0,
    0,
    0,
    0,
    0,
    0,
    0,
    0,
    0,
    0,
    0,
    0,
    0,
    0,
    0,
    0,
    0,
    0,
    0,
    0,
    0,
    0,
    0,
    0,
    0,
    0,
    0,
    0,
    0,
    0,
    0,
    0,
    0,
    0,
    0,
    0,
    0,
    0,
    0,
    0,
    0,
    0,
    0,
    0,
    0,
    0,
    0,
    0,
    0,
    0,
    0,
    0,
    0,
    0,
    0,
    0,
    0,
    0,
    0,
    0,
    0,
    0,
    0,
    0,
    0,
    0,
    0,
    0,
    0,
    0,
    0,
    0,
    0,
    0,
    0,
    0,
    0,
    0,
    0,
    0,
    0,
    0,
    0,
    0,
    0,
    0,
    0,
    0,
    0,
    0,
    0,
    0,
    0,
    0,
    0,
    0,
    0,
    0,
    0,
    0,
    0,
    0,
    0,
    0,
    0,
    0,
    0,
    0,
    0,
    0,
    0,
    0,
    0,
    0,
    0,
    0,
    0,
    0,
    0,
    0,
    0,
    0,
    0,
    0,
    0,
    0,
    0,
    0,
    0,
    0,
    0,
    0,
    0,
    0,
    0,
    0,
    0,
    0,
    0,
    0,
    0,
    0,
    0,
    0,
    0,
    0,
    0,
    0,
    0,
    0,
    0,
    0,
    0,
    0,
    0,
    0,
    0,
    0,
    0,
    0,
    0,
    0,
    0,
    0,
    0,
    0,
    0,
    0,
    0,
    0,
    0,
    0,
    0,
    0,
    0,
    0,
    0,
    0,
    0,
    0,
    0,
    0,
    0,
    0,
    0,
    0,
    0,
    0,
    0,
    0,
    0,
    0,
    0,
    0,
    0,
    0,
    0,
    0,
    0,
    0,
    0,
    0,
    0,
    0,
    0,
    0,
    0,
    0,
    0,
    0,
    0,
    0,
    0,
    0,
    0,
    0,
    0,
    0,
    0,
    0,
    0,
    0,
    0,
    0,
    0,
    0,
    0,
    0,
    0,
    0,
    0,
    0,
    0,
    0,
    0,
    0,
    0,
    0,
    0,
    0,
    0,
    0,
    0,
    0,
    0,
    0,
    0,
    0,
    0,
    0,
    0,
    0,
    0,
    0,
    0,
    0,
    0,
    0,
    0,
    0,
    0,
    0,
    0,
    0,
    0,
    0,
    0,
    0,
    0,
    0,
    0,
    0,
    0,
    0,
    0,
    0,
    0,
    0,
    0,
    0,
    0,
    0,
    0,
    0,
    0,
    0,
    0,
    0,
    0,
    0,
    0,
    0,
    0,
    0,
    0,
    0,
    0,
    0,
    0,
    0,
    0,
    0,
    0,
    0,
    0,
    0,
    0,
    0,
    0,
    0,
    0,
    0,
    0,
    0,
    0,
    0,
    0,
    0,
    0,
    0,
    0,
    0,
    0,
    0,
    0,
    0,
    0,
    0,
    0,
    0,
    0,
    0,
    0,
    0,
    0,
    0,
    0,
    0,
    0,
    0,
    0,
    0,
    0,
    0,
    0,
    0,
    0,
    0,
    0,
    0,
    0,
    0,
    0,
    0,
    0,
    0,
    0,
    0,
    0,
    0,
    0,
    0,
    0,
    0,
    0,
    0,
    0,
    0,
    0,
    0,
    0,
    0,
    0,
    0,
    0,
    0,
    0,
    0,
    0,
    0,
    0,
    0,
    0,
    0,
    0,
    0,
    0,
    424,
    0,
    0,
    0,
    0,
    0,
    0,
    0,
    0,
    0,
    0,
    0,
    0,
    0,
    0,
    0,
    0,
    0,
    0,
    0,
    0,
    0,
    0,
    0,
    0,
    0,
    0,
    0,
    0,
    0,
    0,
    0,
    427,
    0,
    0,
    0,
    0,
    0,
    0,
    0,
    433,
    0,
    0,
    0,
    0,
    0,
    0,
    0,
    0,
    0,
    0,
    0,
    0,
    0,
    0,
    0,
    0,
    0,
    0,
    0,
    0,
    0,
    0,
    0,
    0,
    0,
    0,
    0,
    0,
    0,
    0,
    0,
    0,
    0,
    0,
    0,
    0,
    0,
    0,
    0,
    0,
    0,
    0,
    0,
    0,
    0,
    0,
    0,
    0,
    0,
    0,
    0,
    0,
    0,
    0,
    0,
    0,
    0,
    0,
    0,
    0,
    0,
    0,
    0,
    0,
    0,
    0,
    0,
    0,
    0,
    0,
    0,
    0,
    0,
    0,
    0,
    0,
    0,
    0,
    427,
    0,
    0,
    0,
    0,
    0,
    0,
    0,
    0,
    0,
    0,
    0,
    0,
    0,
    0,
    0,
    0,
    0,
    0,
    0,
    0,
    0,
    0,
    0,
    0,
    0,
    0,
    0,
    0,
    0,
    0,
    0,
    0,
    0,
    0,
    0,
    0,
    0,
    0,
    0,
    0,
    0,
    0,
    0,
    0,
    0,
    0,
    0,
    0,
    0,
    0,
    0,
    0,
    0,
    0,
    0,
    0,
    0,
    0,
    0,
    0,
    0,
    0,
    0,
    0,
    0,
    0,
    0,
    0,
    0,
    0,
    0,
    0,
    0,
    0,
    0,
    0,
    0,
    0,
    0,
    0,
    0,
    0,
    0,
    0,
    0,
    0,
    0,
    0,
    0,
    0,
    0,
    0,
    0,
    0,
    0,
    0,
    0,
    0,
    0,
    0,
    0,
    0,
    0,
    0,
    0,
    0,
    424,
    0,
    430,
    0,
    0,
    0,
    0,
    0,
    0,
    0,
    0,
    0,
    0,
    0,
    0,
    0,
    0,
    0,
    0,
    0,
    0,
    0,
    0,
    0,
    0,
    0,
    0,
    0,
    0,
    433,
    0,
    0,
    0,
    0,
    0,
    0,
    0,
    0,
    0,
    0,
    0,
    0,
    0,
    0,
    0,
    0,
    0,
    0,
    0,
    0,
    0,
    0,
    0,
    0,
    0,
    0,
    0,
    0,
    0,
    0,
    0,
    0,
    0,
    0,
    0,
    0,
    0,
    0,
    0,
    0,
    0,
    0,
    0,
    0,
    0,
    424,
    0,
    0,
    0,
    0,
    0,
    0,
    0,
    0,
    0,
    0,
    0,
    0,
    0,
    0,
    0,
    0,
    0,
    0,
    0,
    0,
    0,
    0,
    0,
    0,
    427,
    0,
    0,
    0,
    0,
    0,
    0,
    0,
    0,
    0,
    0,
    0,
    0,
    0,
    0,
    0,
    0,
    0,
    0,
    0,
    0,
    0,
    0,
    0,
    0,
    0,
    0,
    0,
    0,
    0,
    0,
    0,
    0,
    0,
    0,
    0,
    0,
    0,
    0,
    0,
    0,
    0,
    0,
    0,
    0,
    0,
    0,
    0,
    0,
    0,
    0,
    0,
    0,
    0,
    0,
    0,
    0,
    0,
    0,
    0,
    0,
    0,
    0,
    0,
    0,
    0,
    0,
    0,
    0,
    0,
    0,
    0,
    0,
    0,
    0,
    0,
    0,
    0,
    0,
    0,
    0,
    0,
    0,
    0,
    0,
    0,
    0,
    0,
    0,
    0,
    0,
    0,
    0,
    0,
    0,
    0,
    0,
    0,
    0,
    0,
    0,
    0,
    0,
    0,
    0,
    0,
    0,
    0,
    427,
    0,
    433,
    0,
    0,
    0,
    0,
    0,
    0,
    0,
    0,
    0,
    0,
    0,
    424,
    0,
    0,
    0,
    0,
    0,
    0,
    0,
    0,
    0,
    0,
    0,
    0,
    0,
    0,
    0,
    0,
    0,
    0,
    0,
    0,
    0,
    0,
    0,
    0,
    0,
    0,
    0,
    0,
    0,
    0,
    0,
    0,
    0,
    0,
    0,
    0,
    0,
    0,
    0,
    0,
    0,
    0,
    0,
    0,
    0,
    0,
    0,
    0,
    0,
    0,
    0,
    0,
    0,
    0,
    0,
    0,
    0,
    0,
    0,
    0,
    0,
    0,
    0,
    0,
    0,
    0,
    0,
    0,
    0,
    0,
    0,
    0,
    0,
    0,
    0,
    0,
    0,
    0,
    0,
    0,
    0,
    0,
    0,
    0,
    0,
    433,
    0,
    0,
    0,
    0,
    0,
    433,
    0,
    430,
    0,
    0,
    0,
    0,
    0,
    0,
    0,
    0,
    0,
    0,
    0,
    0,
    0,
    0,
    0,
    0,
    0,
    0,
    0,
    0,
    0,
    0,
    0,
    0,
    0,
    0,
    0,
    0,
    0,
    0,
    0,
    0,
    0,
    0,
    0,
    0,
    0,
    0,
    0,
    0,
    0,
    0,
    0,
    0,
    0,
    0,
    0,
    0,
    0,
    0,
    0,
    0,
    0,
    0,
    0,
    0,
    0,
    0,
    0,
    0,
    0,
    0,
    0,
    0,
    0,
    0,
    0,
    0,
    0,
    0,
    0,
    0,
    0,
    0,
    0,
    0,
    0,
    0,
    0,
    0,
    0,
    0,
    0,
    0,
    0,
    0,
    0,
    0,
    0,
    0,
    0,
    0,
    0,
    0,
    427,
    0,
    427,
    0,
    0,
    0,
    0,
    0,
    0,
    0,
    0,
    0,
    0,
    0,
    0,
    0,
    0,
    0,
    0,
    0,
    0,
    0,
    0,
    0,
    0,
    0,
    0,
    0,
    0,
    0,
    0,
    0,
    0,
    0,
    0,
    0,
    0,
    0,
    0,
    0,
    0,
    0,
    0,
    0,
    0,
    0,
    0,
    0,
    0,
    0,
    0,
    0,
    0,
    0,
    0,
    0,
    0,
    0,
    0,
    0,
    0,
    0,
    0,
    0,
    0,
    0,
    0,
    0,
    0,
    0,
    0,
    0,
    0,
    0,
    0,
    0,
    0,
    0,
    0,
    0,
    0,
    0,
    0,
    0,
    0,
    0,
    0,
    0,
    0,
    0,
    0,
    0,
    0,
    0,
    0,
    0,
    0,
    0,
    0,
    0,
    0,
    0,
    0,
    0,
    0,
    0,
    0,
    0,
    0,
    0,
    0,
    0,
    0,
    0,
    0,
    0,
    0,
    0,
    0,
    0,
    0,
    0,
    0,
    0,
    0,
    0,
    0,
    0,
    0,
    0,
    0,
    0,
    0,
    0,
    0,
    0,
    0,
    0,
    0,
    0,
    0,
    0,
    0,
    0,
    0,
    0,
    0,
    0,
    0,
    0,
    0,
    0,
    0,
    0,
    0,
    0,
    0,
    0,
    0,
    0,
    0,
    0,
    0,
    0,
    0,
    0,
    0,
    0,
    0,
    0,
    0,
    0,
    0,
    0,
    0,
    0,
    0,
    0,
    0,
    0,
    0,
    0,
    0,
    0,
    424,
    0,
    0,
    0,
    0,
    0,
    0,
    427,
    0,
    0,
    0,
    0,
    0,
    0,
    0,
    0,
    0,
    0,
    0,
    0,
    0,
    0,
    0,
    0,
    0,
    0,
    0,
    0,
    0,
    0,
    0,
    0,
    0,
    0,
    0,
    0,
    0,
    0,
    0,
    0,
    0,
    0,
    0,
    0,
    0,
    0,
    0,
    0,
    0,
    0,
    0,
    0,
    0,
    0,
    0,
    0,
    0,
    0,
    0,
    0,
    0,
    0,
    0,
    0,
    0,
    0,
    0,
    0,
    0,
    430,
    0,
    0,
    0,
    0,
    0,
    0,
    0,
    0,
    0,
    0,
    0,
    0,
    0,
    0,
    0,
    0,
    0,
    0,
    0,
    0,
    0,
    0,
    0,
    0,
    0,
    0,
    0,
    0,
    0,
    0,
    0,
    0,
    0,
    0,
    0,
    0,
    0,
    0,
    0,
    0,
    0,
    0,
    0,
    0,
    0,
    0,
    0,
    0,
    0,
    0,
    0,
    0,
    0,
    0,
    0,
    0,
    0,
    0,
    0,
    0,
    0,
    0,
    0,
    0,
    0,
    0,
    0,
    0,
    0,
    0,
    0,
    0,
    0,
    0,
    0,
    0,
    0,
    0,
    0,
    0,
    0,
    0,
    0,
    0,
    0,
    441,
    442,
    443,
    0,
    0,
    0,
    0,
    0,
    427,
    0,
    0,
    0,
    0,
    0,
    0,
    0,
    0,
    0,
    0,
    0,
    0,
    0,
    0,
    0,
    0,
    0,
    0,
    0,
    0,
    0,
    0,
    0,
    0,
    0,
    0,
    0,
    0,
    0,
    0,
    0,
    0,
    0,
    430,
    0,
    0,
    0,
    0,
    0,
    441,
    442,
    443,
    0,
    0,
    0,
    0,
    0,
    0,
    0,
    0,
    0,
    0,
    0,
    0,
    0,
    0,
    0,
    0,
    0,
    0,
    0,
    0,
    0,
    0,
    0,
    0,
    0,
    0,
    0,
    0,
    0,
    0,
    0,
    0,
    0,
    0,
    0,
    0,
    0,
    0,
    0,
    0,
    0,
    0,
    0,
    0,
    0,
    0,
    0,
    0,
    0,
    0,
    0,
    0,
    0,
    0,
    0,
    0,
    0,
    0,
    0,
    0,
    0,
    0,
    0,
    0,
    0,
    0,
    0,
    0,
    0,
    0,
    0,
    0,
    0,
    0,
    0,
    0,
    0,
    0,
    0,
    0,
    0,
    0,
    0,
    0,
    0,
    0,
    0,
    0,
    0,
    0,
    0,
    0,
    0,
    0,
    0,
    0,
    0,
    0,
    0,
    0,
    0,
    0,
    0,
    0,
    0,
    0,
    0,
    0,
    0,
    0,
    0,
    0,
    0,
    0,
    0,
    0,
    0,
    0,
    0,
    0,
    0,
    0,
    0,
    0,
    0,
    0,
    0,
    0,
    0,
    0,
    0,
    0,
    0,
    0,
    0,
    0,
    0,
    0,
    0,
    0,
    0,
    0,
    0,
    0,
    0,
    0,
    424,
    0,
    0,
    0,
    0,
    0,
    0,
    0,
    0,
    0,
    0,
    0,
    0,
    0,
    0,
    0,
    0,
    0,
    0,
    0,
    0,
    0,
    0,
    0,
    0,
    0,
    0,
    0,
    0,
    0,
    0,
    0,
    0,
    0,
    0,
    0,
    0,
    0,
    0,
    0,
    0,
    0,
    0,
    0,
    0,
    0,
    0,
    0,
    0,
    0,
    0,
    0,
    0,
    0,
    0,
    0,
    0,
    0,
    0,
    0,
    0,
    0,
    0,
    0,
    0,
    0,
    0,
    0,
    0,
    0,
    0,
    0,
    0,
    0,
    0,
    0,
    0,
    0,
    0,
    0,
    0,
    0,
    0,
    0,
    0,
    0,
    0,
    0,
    0,
    0,
    0,
    0,
    0,
    0,
    0,
    0,
    0,
    0,
    0,
    0,
    0,
    0,
    0,
    0,
    0,
    0,
    0,
    0,
    0,
    0,
    0,
    0,
    0,
    0,
    0,
    0,
    0,
    0,
    0,
    0,
    0,
    0,
    0,
    0,
    0,
    0,
    0,
    0,
    0,
    0,
    0,
    0,
    0,
    0,
    0,
    0,
    0,
    0,
    0,
    0,
    0,
    0,
    0
   ]
  },
  {
   "id": 3,
   "type": "tilelayer",
   "name": "blocking",
   "width": 96,
   "height": 72,
   "x": 0,
   "y": 0,
   "opacity": 1,
   "visible": true,
   "data": [
    0,
    0,
    0,
    0,
    0,
    0,
    0,
    0,
    0,
    0,
    0,
    0,
    0,
    0,
    0,
    0,
    0,
    0,
    0,
    0,
    0,
    0,
    0,
    0,
    0,
    0,
    0,
    0,
    0,
    0,
    0,
    0,
    0,
    0,
    0,
    0,
    0,
    0,
    0,
    0,
    0,
    0,
    0,
    0,
    0,
    0,
    0,
    0,
    0,
    0,
    0,
    0,
    0,
    0,
    0,
    0,
    0,
    0,
    0,
    0,
    0,
    0,
    0,
    0,
    0,
    0,
    0,
    0,
    0,
    0,
    0,
    0,
    0,
    0,
    0,
    0,
    0,
    0,
    0,
    0,
    0,
    0,
    0,
    0,
    0,
    0,
    0,
    0,
    0,
    0,
    0,
    0,
    0,
    0,
    0,
    0,
    0,
    0,
    0,
    0,
    0,
    0,
    0,
    0,
    0,
    0,
    0,
    0,
    0,
    0,
    0,
    0,
    0,
    0,
    0,
    0,
    330,
    330,
    330,
    0,
    0,
    0,
    0,
    0,
    0,
    0,
    0,
    0,
    0,
    0,
    0,
    0,
    0,
    0,
    0,
    0,
    0,
    0,
    0,
    0,
    330,
    330,
    330,
    0,
    0,
    0,
    0,
    0,
    0,
    0,
    0,
    0,
    0,
    0,
    0,
    0,
    0,
    0,
    0,
    0,
    0,
    0,
    0,
    0,
    330,
    330,
    330,
    0,
    0,
    0,
    0,
    0,
    0,
    0,
    0,
    0,
    0,
    0,
    0,
    0,
    0,
    0,
    0,
    0,
    0,
    0,
    0,
    0,
    0,
    0,
    0,
    0,
    0,
    0,
    0,
    0,
    0,
    0,
    0,
    0,
    0,
    0,
    0,
    0,
    0,
    0,
    0,
    0,
    0,
    0,
    0,
    0,
    330,
    330,
    330,
    0,
    0,
    0,
    0,
    0,
    0,
    0,
    0,
    330,
    330,
    0,
    0,
    0,
    330,
    330,
    0,
    0,
    0,
    0,
    0,
    0,
    330,
    330,
    330,
    0,
    0,
    0,
    0,
    0,
    0,
    0,
    0,
    0,
    0,
    0,
    0,
    0,
    0,
    0,
    0,
    0,
    0,
    0,
    0,
    0,
    330,
    330,
    330,
    0,
    0,
    0,
    0,
    0,
    0,
    0,
    0,
    0,
    0,
    0,
    0,
    0,
    0,
    0,
    0,
    0,
    0,
    0,
    0,
    0,
    0,
    0,
    0,
    0,
    0,
    0,
    0,
    0,
    0,
    0,
    0,
    0,
    0,
    0,
    0,
    0,
    0,
    0,
    0,
    0,
    0,
    0,
    0,
    0,
    330,
    330,
    330,
    0,
    0,
    0,
    0,
    0,
    0,
    0,
    0,
    0,
    0,
    0,
    0,
    0,
    0,
    0,
    0,
    0,
    0,
    0,
    0,
    0,
    330,
    330,
    330,
    0,
    0,
    0,
    0,
    0,
    0,
    0,
    0,
    0,
    0,
    0,
    0,
    0,
    0,
    0,
    0,
    0,
    0,
    0,
    0,
    0,
    330,
    330,
    330,
    0,
    0,
    0,
    0,
    0,
    0,
    0,
    0,
    0,
    0,
    0,
    0,
    0,
    0,
    0,
    0,
    0,
    0,
    0,
    0,
    0,
    0,
    0,
    0,
    0,
    0,
    0,
    0,
    0,
    0,
    0,
    0,
    0,
    0,
    0,
    0,
    0,
    330,
    330,
    0,
    0,
    0,
    0,
    0,
    0,
    0,
    0,
    0,
    0,
    0,
    0,
    0,
    0,
    0,
    0,
    0,
    0,
    0,
    0,
    0,
    0,
    0,
    0,
    0,
    0,
    0,
    0,
    0,
    0,
    0,
    0,
    0,
    0,
    0,
    0,
    0,
    0,
    0,
    0,
    0,
    0,
    0,
    0,
    0,
    0,
    0,
    0,
    0,
    0,
    0,
    0,
    0,
    0,
    0,
    0,
    0,
    0,
    0,
    0,
    0,
    0,
    0,
    0,
    0,
    0,
    0,
    0,
    0,
    0,
    0,
    0,
    0,
    0,
    0,
    0,
    0,
    0,
    0,
    0,
    0,
    0,
    0,
    0,
    0,
    0,
    0,
    0,
    0,
    0,
    0,
    0,
    0,
    0,
    0,
    0,
    0,
    0,
    0,
    0,
    0,
    0,
    0,
    0,
    0,
    0,
    0,
    0,
    0,
    0,
    0,
    0,
    0,
    0,
    0,
    0,
    0,
    0,
    0,
    0,
    0,
    0,
    330,
    330,
    0,
    0,
    0,
    0,
    0,
    0,
    0,
    0,
    0,
    0,
    0,
    0,
    0,
    0,
    0,
    0,
    0,
    0,
    0,
    0,
    0,
    0,
    0,
    0,
    0,
    0,
    0,
    0,
    0,
    0,
    0,
    0,
    0,
    0,
    0,
    0,
    0,
    0,
    0,
    0,
    0,
    0,
    0,
    0,
    0,
    0,
    0,
    0,
    0,
    0,
    0,
    0,
    0,
    0,
    0,
    0,
    0,
    0,
    0,
    0,
    0,
    0,
    330,
    330,
    0,
    0,
    330,
    330,
    0,
    0,
    0,
    0,
    0,
    0,
    0,
    0,
    0,
    0,
    0,
    0,
    0,
    0,
    0,
    0,
    0,
    0,
    0,
    0,
    0,
    0,
    0,
    0,
    0,
    0,
    0,
    0,
    0,
    0,
    0,
    0,
    0,
    0,
    0,
    0,
    0,
    0,
    0,
    0,
    0,
    0,
    0,
    0,
    0,
    0,
    0,
    0,
    0,
    0,
    0,
    0,
    0,
    0,
    0,
    0,
    0,
    0,
    0,
    0,
    0,
    0,
    0,
    0,
    0,
    0,
    0,
    0,
    0,
    0,
    0,
    0,
    0,
    0,
    0,
    0,
    0,
    0,
    0,
    0,
    0,
    0,
    0,
    0,
    0,
    0,
    0,
    0,
    0,
    0,
    0,
    0,
    0,
    0,
    0,
    0,
    0,
    0,
    0,
    0,
    0,
    0,
    0,
    0,
    0,
    0,
    0,
    0,
    0,
    0,
    0,
    0,
    0,
    0,
    0,
    0,
    0,
    0,
    0,
    0,
    0,
    0,
    0,
    0,
    0,
    0,
    0,
    0,
    0,
    0,
    0,
    0,
    0,
    0,
    0,
    0,
    0,
    0,
    0,
    0,
    0,
    0,
    0,
    0,
    0,
    0,
    0,
    0,
    0,
    0,
    0,
    0,
    0,
    0,
    0,
    0,
    0,
    0,
    0,
    0,
    0,
    0,
    0,
    0,
    0,
    0,
    0,
    0,
    0,
    0,
    0,
    0,
    0,
    0,
    0,
    0,
    0,
    0,
    0,
    0,
    0,
    0,
    0,
    0,
    0,
    0,
    0,
    0,
    0,
    0,
    0,
    0,
    0,
    0,
    0,
    0,
    0,
    0,
    0,
    0,
    0,
    0,
    0,
    0,
    0,
    0,
    0,
    0,
    0,
    0,
    0,
    0,
    0,
    0,
    0,
    0,
    0,
    0,
    0,
    0,
    0,
    0,
    0,
    0,
    0,
    0,
    0,
    330,
    0,
    0,
    0,
    0,
    0,
    0,
    0,
    0,
    0,
    0,
    0,
    0,
    0,
    0,
    0,
    0,
    0,
    0,
    0,
    0,
    0,
    0,
    0,
    0,
    0,
    0,
    0,
    0,
    0,
    0,
    0,
    0,
    0,
    0,
    0,
    0,
    0,
    0,
    0,
    0,
    0,
    0,
    0,
    0,
    0,
    0,
    0,
    0,
    0,
    0,
    0,
    0,
    0,
    0,
    0,
    0,
    0,
    0,
    0,
    0,
    0,
    0,
    0,
    0,
    0,
    0,
    0,
    0,
    0,
    0,
    0,
    0,
    0,
    0,
    0,
    0,
    0,
    0,
    0,
    0,
    0,
    0,
    0,
    0,
    0,
    0,
    0,
    0,
    0,
    0,
    0,
    0,
    0,
    0,
    0,
    0,
    0,
    0,
    0,
    0,
    0,
    0,
    0,
    0,
    0,
    0,
    0,
    0,
    0,
    0,
    0,
    0,
    0,
    0,
    0,
    0,
    0,
    0,
    0,
    0,
    0,
    0,
    0,
    0,
    0,
    0,
    0,
    0,
    0,
    0,
    0,
    0,
    0,
    0,
    0,
    0,
    0,
    0,
    0,
    0,
    0,
    0,
    0,
    0,
    0,
    0,
    0,
    0,
    0,
    0,
    0,
    0,
    0,
    0,
    0,
    0,
    0,
    330,
    330,
    0,
    0,
    0,
    0,
    0,
    0,
    0,
    0,
    0,
    0,
    0,
    0,
    0,
    0,
    0,
    0,
    0,
    0,
    0,
    330,
    330,
    0,
    0,
    0,
    0,
    0,
    0,
    0,
    0,
    0,
    0,
    0,
    0,
    0,
    0,
    0,
    0,
    330,
    0,
    0,
    0,
    0,
    0,
    0,
    0,
    0,
    0,
    0,
    0,
    0,
    0,
    0,
    0,
    0,
    0,
    0,
    0,
    0,
    0,
    0,
    0,
    0,
    0,
    0,
    0,
    0,
    0,
    0,
    0,
    0,
    0,
    0,
    0,
    0,
    0,
    0,
    0,
    0,
    0,
    0,
    0,
    0,
    0,
    0,
    0,
    0,
    0,
    0,
    0,
    0,
    0,
    0,
    0,
    0,
    0,
    0,
    0,
    0,
    0,
    0,
    0,
    0,
    0,
    0,
    0,
    0,
    0,
    0,
    0,
    0,
    0,
    0,
    0,
    0,
    0,
    0,
    0,
    0,
    0,
    0,
    0,
    0,
    0,
    0,
    0,
    0,
    0,
    0,
    0,
    330,
    0,
    0,
    0,
    0,
    0,
    0,
    0,
    0,
    0,
    0,
    0,
    0,
    0,
    0,
    0,
    0,
    0,
    0,
    0,
    0,
    0,
    0,
    0,
    0,
    0,
    0,
    0,
    0,
    0,
    0,
    0,
    0,
    0,
    0,
    0,
    0,
    0,
    0,
    0,
    0,
    0,
    0,
    0,
    0,
    0,
    0,
    0,
    0,
    0,
    0,
    0,
    0,
    0,
    0,
    0,
    0,
    0,
    0,
    0,
    0,
    0,
    0,
    0,
    0,
    0,
    0,
    0,
    0,
    0,
    0,
    0,
    0,
    0,
    0,
    0,
    0,
    0,
    0,
    0,
    0,
    0,
    0,
    0,
    0,
    0,
    0,
    0,
    0,
    0,
    0,
    0,
    0,
    0,
    0,
    0,
    330,
    0,
    0,
    0,
    0,
    0,
    0,
    0,
    330,
    0,
    0,
    0,
    0,
    0,
    0,
    0,
    0,
    0,
    0,
    0,
    0,
    0,
    0,
    0,
    0,
    0,
    0,
    0,
    0,
    0,
    0,
    0,
    0,
    0,
    0,
    0,
    0,
    0,
    0,
    0,
    0,
    0,
    0,
    0,
    0,
    0,
    0,
    0,
    0,
    0,
    0,
    0,
    0,
    0,
    0,
    0,
    0,
    0,
    0,
    0,
    0,
    0,
    0,
    0,
    0,
    0,
    0,
    0,
    0,
    0,
    0,
    0,
    0,
    0,
    0,
    0,
    0,
    0,
    0,
    0,
    0,
    0,
    0,
    0,
    0,
    0,
    0,
    0,
    0,
    0,
    0,
    0,
    0,
    0,
    0,
    0,
    0,
    0,
    0,
    0,
    0,
    330,
    0,
    0,
    0,
    0,
    0,
    0,
    0,
    0,
    0,
    0,
    0,
    0,
    0,
    0,
    0,
    0,
    0,
    0,
    0,
    0,
    0,
    0,
    0,
    0,
    0,
    0,
    0,
    0,
    0,
    0,
    0,
    0,
    0,
    0,
    0,
    0,
    0,
    0,
    0,
    0,
    0,
    0,
    0,
    0,
    0,
    0,
    0,
    0,
    0,
    0,
    0,
    0,
    0,
    0,
    0,
    0,
    0,
    0,
    0,
    0,
    0,
    0,
    0,
    0,
    0,
    0,
    0,
    0,
    0,
    0,
    0,
    0,
    0,
    0,
    0,
    0,
    0,
    0,
    0,
    0,
    0,
    0,
    0,
    0,
    0,
    0,
    0,
    0,
    0,
    0,
    0,
    0,
    0,
    0,
    0,
    0,
    0,
    0,
    0,
    0,
    0,
    0,
    0,
    0,
    0,
    0,
    0,
    0,
    0,
    0,
    0,
    0,
    0,
    0,
    0,
    0,
    0,
    0,
    0,
    0,
    0,
    0,
    0,
    0,
    0,
    0,
    0,
    0,
    0,
    0,
    0,
    0,
    0,
    0,
    0,
    0,
    0,
    0,
    0,
    0,
    0,
    0,
    0,
    0,
    0,
    0,
    0,
    0,
    0,
    0,
    0,
    0,
    0,
    0,
    0,
    0,
    0,
    0,
    0,
    0,
    0,
    0,
    0,
    0,
    0,
    0,
    0,
    0,
    0,
    0,
    0,
    0,
    0,
    0,
    0,
    0,
    0,
    0,
    0,
    0,
    0,
    0,
    0,
    0,
    0,
    0,
    0,
    0,
    0,
    0,
    0,
    0,
    0,
    0,
    0,
    0,
    0,
    0,
    0,
    0,
    0,
    0,
    0,
    0,
    0,
    0,
    0,
    0,
    0,
    0,
    0,
    0,
    330,
    330,
    330,
    330,
    330,
    330,
    330,
    0,
    0,
    0,
    0,
    0,
    0,
    0,
    0,
    0,
    0,
    0,
    0,
    0,
    0,
    0,
    0,
    0,
    0,
    0,
    0,
    0,
    0,
    0,
    0,
    0,
    0,
    0,
    0,
    0,
    0,
    0,
    0,
    0,
    0,
    0,
    0,
    0,
    0,
    0,
    0,
    0,
    0,
    0,
    0,
    0,
    0,
    0,
    0,
    0,
    0,
    0,
    0,
    0,
    0,
    0,
    0,
    0,
    0,
    0,
    0,
    0,
    0,
    0,
    0,
    0,
    0,
    0,
    0,
    0,
    0,
    0,
    0,
    0,
    0,
    0,
    0,
    0,
    0,
    0,
    0,
    0,
    0,
    0,
    0,
    0,
    0,
    0,
    0,
    0,
    330,
    330,
    330,
    330,
    330,
    330,
    330,
    330,
    330,
    330,
    0,
    0,
    0,
    0,
    0,
    0,
    0,
    0,
    0,
    0,
    0,
    0,
    0,
    0,
    0,
    0,
    0,
    0,
    0,
    0,
    0,
    0,
    0,
    0,
    0,
    0,
    0,
    0,
    0,
    0,
    0,
    0,
    0,
    0,
    0,
    0,
    0,
    0,
    0,
    0,
    0,
    0,
    0,
    0,
    0,
    0,
    0,
    0,
    0,
    0,
    0,
    0,
    0,
    0,
    0,
    0,
    0,
    0,
    0,
    0,
    0,
    0,
    0,
    0,
    0,
    0,
    0,
    0,
    0,
    0,
    0,
    0,
    0,
    0,
    330,
    0,
    0,
    0,
    0,
    0,
    0,
    0,
    0,
    0,
    0,
    330,
    330,
    330,
    330,
    330,
    330,
    330,
    330,
    330,
    330,
    330,
    330,
    330,
    0,
    0,
    0,
    0,
    0,
    0,
    0,
    0,
    0,
    0,
    0,
    0,
    0,
    0,
    0,
    0,
    0,
    0,
    0,
    0,
    0,
    0,
    0,
    330,
    330,
    0,
    0,
    0,
    0,
    0,
    0,
    0,
    0,
    0,
    330,
    330,
    0,
    0,
    0,
    0,
    0,
    0,
    0,
    0,
    0,
    0,
    0,
    0,
    0,
    0,
    0,
    0,
    0,
    0,
    0,
    0,
    0,
    0,
    0,
    0,
    0,
    0,
    0,
    0,
    0,
    0,
    0,
    0,
    0,
    0,
    0,
    0,
    0,
    0,
    0,
    0,
    0,
    0,
    0,
    0,
    0,
    0,
    0,
    330,
    330,
    330,
    330,
    330,
    330,
    330,
    330,
    330,
    330,
    330,
    330,
    330,
    330,
    0,
    0,
    0,
    0,
    0,
    0,
    0,
    0,
    0,
    0,
    0,
    0,
    0,
    0,
    0,
    0,
    0,
    0,
    0,
    0,
    0,
    0,
    0,
    0,
    0,
    0,
    0,
    0,
    0,
    0,
    0,
    0,
    0,
    0,
    0,
    0,
    0,
    0,
    0,
    0,
    0,
    0,
    0,
    0,
    0,
    0,
    0,
    0,
    0,
    0,
    0,
    0,
    0,
    0,
    0,
    0,
    0,
    0,
    0,
    0,
    0,
    0,
    0,
    0,
    0,
    0,
    0,
    0,
    0,
    0,
    0,
    0,
    0,
    0,
    0,
    0,
    0,
    0,
    0,
    0,
    0,
    0,
    330,
    330,
    330,
    330,
    330,
    330,
    330,
    330,
    330,
    330,
    330,
    330,
    330,
    330,
    330,
    0,
    0,
    0,
    0,
    0,
    0,
    0,
    0,
    0,
    0,
    0,
    0,
    0,
    0,
    0,
    0,
    0,
    0,
    0,
    0,
    0,
    0,
    0,
    0,
    0,
    0,
    0,
    0,
    0,
    0,
    0,
    330,
    330,
    0,
    0,
    0,
    0,
    0,
    0,
    0,
    0,
    0,
    0,
    0,
    330,
    330,
    0,
    0,
    0,
    0,
    0,
    0,
    0,
    0,
    0,
    0,
    0,
    0,
    0,
    0,
    0,
    0,
    0,
    0,
    0,
    0,
    0,
    0,
    0,
    0,
    0,
    0,
    0,
    0,
    0,
    0,
    0,
    0,
    0,
    0,
    0,
    330,
    330,
    330,
    330,
    330,
    330,
    330,
    330,
    330,
    330,
    330,
    330,
    330,
    330,
    330,
    330,
    330,
    330,
    0,
    0,
    0,
    0,
    0,
    0,
    0,
    0,
    0,
    0,
    0,
    0,
    0,
    0,
    0,
    0,
    0,
    0,
    0,
    0,
    0,
    0,
    0,
    0,
    0,
    0,
    0,
    0,
    0,
    0,
    0,
    0,
    0,
    0,
    0,
    0,
    0,
    0,
    0,
    0,
    0,
    0,
    0,
    0,
    0,
    0,
    0,
    0,
    0,
    0,
    0,
    0,
    0,
    0,
    0,
    0,
    0,
    0,
    0,
    0,
    0,
    0,
    0,
    0,
    0,
    0,
    0,
    0,
    0,
    0,
    0,
    0,
    0,
    0,
    0,
    0,
    0,
    0,
    330,
    330,
    330,
    330,
    330,
    330,
    330,
    330,
    330,
    330,
    330,
    330,
    330,
    330,
    330,
    330,
    330,
    330,
    0,
    0,
    0,
    0,
    0,
    0,
    0,
    0,
    0,
    0,
    0,
    0,
    0,
    0,
    0,
    0,
    0,
    0,
    0,
    0,
    0,
    0,
    0,
    0,
    0,
    0,
    0,
    0,
    0,
    330,
    330,
    0,
    0,
    0,
    0,
    0,
    0,
    0,
    0,
    0,
    0,
    0,
    0,
    0,
    330,
    330,
    0,
    0,
    0,
    0,
    0,
    0,
    0,
    0,
    0,
    0,
    0,
    0,
    0,
    0,
    0,
    0,
    0,
    0,
    0,
    0,
    0,
    0,
    0,
    0,
    0,
    0,
    0,
    0,
    0,
    0,
    0,
    0,
    0,
    330,
    330,
    330,
    330,
    330,
    330,
    330,
    330,
    330,
    330,
    330,
    330,
    330,
    330,
    330,
    330,
    330,
    0,
    0,
    0,
    0,
    0,
    0,
    0,
    0,
    0,
    0,
    0,
    0,
    0,
    0,
    0,
    0,
    0,
    0,
    0,
    0,
    0,
    0,
    0,
    0,
    0,
    0,
    0,
    0,
    0,
    0,
    0,
    0,
    0,
    0,
    330,
    330,
    0,
    0,
    0,
    0,
    0,
    0,
    0,
    0,
    0,
    0,
    0,
    0,
    0,
    0,
    0,
    0,
    0,
    0,
    0,
    0,
    0,
    0,
    0,
    0,
    0,
    0,
    0,
    0,
    0,
    0,
    0,
    0,
    0,
    0,
    0,
    0,
    0,
    0,
    0,
    0,
    0,
    0,
    0,
    330,
    330,
    330,
    330,
    330,
    330,
    330,
    330,
    330,
    330,
    330,
    330,
    330,
    330,
    330,
    330,
    330,
    0,
    0,
    0,
    0,
    0,
    0,
    0,
    0,
    0,
    0,
    0,
    0,
    0,
    0,
    0,
    0,
    0,
    0,
    0,
    0,
    0,
    0,
    0,
    0,
    0,
    0,
    0,
    0,
    0,
    0,
    0,
    0,
    0,
    0,
    0,
    0,
    0,
    0,
    0,
    0,
    0,
    0,
    0,
    0,
    330,
    330,
    0,
    0,
    0,
    0,
    0,
    0,
    0,
    0,
    0,
    0,
    0,
    0,
    0,
    0,
    0,
    0,
    0,
    0,
    0,
    0,
    0,
    0,
    0,
    0,
    0,
    0,
    0,
    0,
    0,
    0,
    0,
    0,
    0,
    330,
    330,
    330,
    330,
    330,
    330,
    330,
    330,
    330,
    330,
    330,
    330,
    330,
    330,
    330,
    330,
    330,
    0,
    0,
    0,
    0,
    0,
    0,
    0,
    0,
    0,
    0,
    0,
    0,
    0,
    0,
    0,
    0,
    0,
    0,
    0,
    0,
    0,
    0,
    0,
    0,
    0,
    0,
    0,
    0,
    0,
    0,
    0,
    0,
    0,
    0,
    0,
    0,
    0,
    0,
    0,
    0,
    0,
    0,
    0,
    0,
    0,
    0,
    0,
    0,
    0,
    0,
    0,
    0,
    0,
    0,
    0,
    0,
    0,
    0,
    0,
    0,
    0,
    0,
    0,
    0,
    0,
    0,
    0,
    0,
    0,
    0,
    0,
    0,
    0,
    0,
    0,
    0,
    0,
    0,
    0,
    0,
    330,
    330,
    330,
    330,
    330,
    330,
    330,
    330,
    330,
    330,
    330,
    330,
    330,
    330,
    330,
    0,
    0,
    0,
    0,
    0,
    330,
    330,
    0,
    0,
    0,
    0,
    0,
    0,
    0,
    0,
    0,
    0,
    0,
    0,
    0,
    0,
    0,
    0,
    0,
    0,
    0,
    0,
    0,
    0,
    0,
    0,
    0,
    0,
    0,
    0,
    0,
    0,
    0,
    0,
    0,
    0,
    0,
    0,
    0,
    0,
    0,
    0,
    0,
    0,
    0,
    0,
    0,
    0,
    0,
    0,
    0,
    0,
    0,
    0,
    0,
    0,
    0,
    0,
    0,
    0,
    0,
    0,
    0,
    0,
    0,
    0,
    0,
    0,
    0,
    0,
    0,
    0,
    0,
    0,
    0,
    0,
    330,
    330,
    330,
    330,
    330,
    330,
    330,
    330,
    330,
    330,
    330,
    330,
    330,
    330,
    330,
    0,
    0,
    0,
    0,
    0,
    0,
    0,
    0,
    0,
    0,
    0,
    0,
    0,
    0,
    0,
    0,
    0,
    0,
    0,
    0,
    0,
    0,
    0,
    0,
    0,
    0,
    0,
    0,
    0,
    0,
    0,
    0,
    0,
    0,
    0,
    0,
    0,
    0,
    0,
    0,
    0,
    0,
    0,
    0,
    0,
    0,
    0,
    0,
    0,
    0,
    0,
    0,
    0,
    0,
    0,
    0,
    0,
    0,
    0,
    0,
    0,
    0,
    0,
    0,
    0,
    0,
    0,
    0,
    0,
    0,
    0,
    0,
    0,
    0,
    0,
    0,
    0,
    0,
    0,
    0,
    0,
    330,
    330,
    330,
    330,
    330,
    330,
    330,
    330,
    330,
    330,
    330,
    330,
    330,
    330,
    330,
    0,
    0,
    0,
    0,
    0,
    0,
    0,
    0,
    0,
    0,
    0,
    0,
    0,
    0,
    0,
    0,
    0,
    0,
    0,
    0,
    0,
    0,
    0,
    0,
    0,
    0,
    0,
    0,
    0,
    0,
    0,
    0,
    0,
    0,
    0,
    0,
    0,
    0,
    0,
    0,
    0,
    0,
    0,
    0,
    0,
    0,
    0,
    0,
    0,
    0,
    0,
    0,
    0,
    0,
    0,
    0,
    0,
    0,
    0,
    0,
    0,
    0,
    0,
    0,
    0,
    0,
    0,
    0,
    0,
    0,
    0,
    0,
    0,
    0,
    0,
    0,
    0,
    0,
    0,
    0,
    0,
    0,
    330,
    330,
    330,
    330,
    330,
    330,
    330,
    330,
    330,
    330,
    330,
    330,
    330,
    0,
    0,
    0,
    0,
    0,
    0,
    0,
    0,
    0,
    0,
    0,
    0,
    0,
    0,
    0,
    0,
    0,
    0,
    0,
    0,
    0,
    0,
    0,
    0,
    0,
    0,
    0,
    0,
    0,
    0,
    0,
    0,
    0,
    0,
    0,
    0,
    0,
    0,
    0,
    0,
    0,
    0,
    0,
    0,
    0,
    0,
    0,
    0,
    0,
    0,
    0,
    0,
    0,
    0,
    0,
    0,
    0,
    0,
    0,
    0,
    0,
    0,
    0,
    0,
    0,
    0,
    0,
    0,
    0,
    0,
    0,
    0,
    0,
    0,
    0,
    0,
    0,
    0,
    0,
    0,
    0,
    0,
    0,
    330,
    330,
    330,
    330,
    330,
    330,
    330,
    330,
    330,
    330,
    330,
    330,
    0,
    0,
    0,
    0,
    0,
    0,
    0,
    0,
    0,
    0,
    0,
    0,
    0,
    0,
    0,
    0,
    0,
    0,
    0,
    0,
    0,
    0,
    0,
    0,
    0,
    0,
    0,
    0,
    0,
    0,
    0,
    0,
    0,
    0,
    0,
    0,
    0,
    0,
    0,
    0,
    0,
    0,
    0,
    0,
    0,
    0,
    0,
    0,
    0,
    0,
    0,
    0,
    0,
    0,
    0,
    0,
    0,
    0,
    0,
    0,
    0,
    0,
    0,
    0,
    0,
    0,
    0,
    0,
    0,
    0,
    0,
    0,
    0,
    0,
    0,
    0,
    0,
    0,
    0,
    0,
    0,
    0,
    0,
    0,
    330,
    330,
    330,
    330,
    330,
    330,
    330,
    330,
    330,
    330,
    330,
    0,
    0,
    0,
    330,
    330,
    330,
    0,
    0,
    0,
    0,
    0,
    0,
    0,
    0,
    0,
    0,
    0,
    0,
    0,
    0,
    0,
    0,
    0,
    0,
    0,
    0,
    0,
    0,
    0,
    0,
    0,
    0,
    0,
    0,
    0,
    0,
    0,
    0,
    0,
    0,
    0,
    0,
    0,
    0,
    0,
    0,
    0,
    0,
    0,
    0,
    0,
    0,
    0,
    0,
    0,
    0,
    0,
    0,
    0,
    0,
    0,
    0,
    0,
    0,
    0,
    0,
    0,
    0,
    0,
    0,
    0,
    0,
    0,
    0,
    0,
    0,
    0,
    0,
    0,
    0,
    0,
    0,
    0,
    0,
    0,
    0,
    330,
    330,
    330,
    330,
    330,
    330,
    330,
    330,
    0,
    0,
    0,
    0,
    0,
    330,
    330,
    330,
    0,
    0,
    0,
    0,
    0,
    0,
    0,
    0,
    0,
    0,
    0,
    0,
    0,
    0,
    0,
    0,
    0,
    0,
    0,
    0,
    0,
    0,
    0,
    0,
    0,
    0,
    0,
    0,
    0,
    0,
    0,
    0,
    0,
    0,
    0,
    0,
    0,
    0,
    0,
    0,
    0,
    0,
    0,
    0,
    0,
    0,
    0,
    0,
    0,
    0,
    0,
    0,
    0,
    0,
    0,
    0,
    0,
    0,
    0,
    0,
    0,
    0,
    0,
    0,
    0,
    0,
    0,
    0,
    0,
    0,
    0,
    0,
    0,
    0,
    0,
    0,
    0,
    0,
    0,
    0,
    0,
    330,
    330,
    0,
    0,
    0,
    0,
    0,
    0,
    0,
    0,
    0,
    0,
    330,
    330,
    330,
    0,
    0,
    0,
    0,
    0,
    0,
    0,
    0,
    0,
    0,
    0,
    0,
    0,
    0,
    0,
    0,
    0,
    0,
    0,
    0,
    0,
    0,
    0,
    0,
    0,
    0,
    0,
    0,
    0,
    0,
    0,
    0,
    0,
    0,
    0,
    0,
    0,
    0,
    0,
    0,
    0,
    0,
    0,
    0,
    0,
    0,
    0,
    0,
    0,
    0,
    0,
    0,
    0,
    0,
    0,
    0,
    0,
    0,
    0,
    0,
    0,
    0,
    0,
    0,
    0,
    0,
    0,
    0,
    0,
    0,
    0,
    0,
    0,
    0,
    0,
    0,
    0,
    0,
    0,
    0,
    0,
    0,
    0,
    0,
    0,
    0,
    0,
    0,
    0,
    0,
    0,
    0,
    0,
    0,
    0,
    0,
    0,
    0,
    0,
    0,
    0,
    0,
    0,
    0,
    0,
    0,
    0,
    0,
    0,
    0,
    0,
    0,
    0,
    0,
    0,
    0,
    0,
    0,
    0,
    0,
    0,
    0,
    0,
    0,
    0,
    0,
    0,
    0,
    0,
    0,
    0,
    0,
    0,
    0,
    0,
    0,
    0,
    0,
    0,
    0,
    0,
    0,
    0,
    0,
    0,
    0,
    0,
    0,
    0,
    0,
    0,
    0,
    0,
    0,
    0,
    0,
    0,
    0,
    0,
    0,
    0,
    0,
    0,
    0,
    0,
    0,
    0,
    0,
    0,
    0,
    0,
    0,
    0,
    0,
    0,
    0,
    0,
    0,
    0,
    0,
    0,
    0,
    0,
    0,
    0,
    0,
    0,
    0,
    0,
    0,
    0,
    0,
    0,
    0,
    0,
    0,
    0,
    0,
    0,
    0,
    0,
    0,
    0,
    0,
    0,
    0,
    0,
    0,
    0,
    0,
    0,
    0,
    0,
    0,
    0,
    0,
    0,
    0,
    0,
    0,
    0,
    0,
    0,
    0,
    0,
    0,
    0,
    0,
    0,
    0,
    0,
    0,
    0,
    0,
    0,
    0,
    0,
    0,
    0,
    0,
    0,
    0,
    0,
    0,
    0,
    0,
    0,
    0,
    0,
    0,
    0,
    0,
    0,
    0,
    0,
    0,
    0,
    0,
    0,
    0,
    0,
    0,
    0,
    0,
    0,
    0,
    0,
    0,
    0,
    0,
    0,
    0,
    0,
    0,
    0,
    0,
    0,
    0,
    0,
    0,
    0,
    0,
    0,
    0,
    0,
    0,
    0,
    0,
    0,
    0,
    0,
    0,
    0,
    0,
    0,
    0,
    0,
    0,
    0,
    0,
    0,
    0,
    0,
    0,
    0,
    0,
    0,
    0,
    0,
    0,
    0,
    0,
    0,
    0,
    0,
    330,
    330,
    330,
    330,
    0,
    0,
    0,
    0,
    0,
    0,
    0,
    0,
    0,
    0,
    0,
    0,
    0,
    0,
    0,
    0,
    0,
    0,
    0,
    0,
    0,
    0,
    0,
    0,
    0,
    330,
    330,
    330,
    330,
    330,
    330,
    330,
    330,
    330,
    330,
    330,
    0,
    0,
    0,
    0,
    0,
    0,
    0,
    0,
    0,
    0,
    0,
    0,
    0,
    0,
    0,
    0,
    0,
    0,
    0,
    0,
    0,
    0,
    0,
    0,
    0,
    0,
    0,
    0,
    0,
    0,
    0,
    0,
    0,
    0,
    0,
    0,
    0,
    0,
    0,
    0,
    0,
    0,
    330,
    0,
    0,
    0,
    330,
    330,
    330,
    0,
    0,
    0,
    0,
    0,
    0,
    0,
    0,
    330,
    330,
    0,
    0,
    330,
    0,
    0,
    0,
    0,
    0,
    0,
    0,
    0,
    0,
    0,
    0,
    0,
    0,
    0,
    0,
    0,
    0,
    0,
    0,
    0,
    0,
    0,
    0,
    0,
    0,
    0,
    330,
    330,
    330,
    330,
    330,
    330,
    330,
    0,
    0,
    0,
    330,
    330,
    330,
    0,
    0,
    0,
    0,
    0,
    0,
    0,
    0,
    0,
    0,
    0,
    0,
    0,
    0,
    0,
    0,
    0,
    0,
    0,
    0,
    0,
    0,
    0,
    0,
    0,
    0,
    0,
    0,
    0,
    0,
    330,
    330,
    330,
    0,
    0,
    0,
    0,
    0,
    0,
    0,
    0,
    330,
    330,
    330,
    0,
    0,
    0,
    0,
    0,
    0,
    0,
    0,
    330,
    330,
    0,
    0,
    330,
    330,
    330,
    0,
    0,
    0,
    0,
    0,
    0,
    0,
    0,
    0,
    0,
    0,
    0,
    0,
    0,
    0,
    0,
    0,
    330,
    330,
    330,
    0,
    0,
    0,
    0,
    0,
    0,
    0,
    0,
    0,
    0,
    0,
    0,
    0,
    0,
    330,
    330,
    330,
    0,
    0,
    0,
    0,
    0,
    0,
    0,
    0,
    0,
    0,
    0,
    0,
    0,
    330,
    330,
    330,
    0,
    0,
    0,
    0,
    0,
    0,
    0,
    0,
    0,
    0,
    0,
    0,
    330,
    0,
    330,
    330,
    330,
    330,
    0,
    0,
    0,
    0,
    0,
    0,
    0,
    330,
    330,
    330,
    0,
    0,
    0,
    0,
    0,
    0,
    0,
    0,
    330,
    330,
    0,
    0,
    330,
    330,
    330,
    0,
    0,
    0,
    0,
    0,
    0,
    0,
    330,
    0,
    0,
    0,
    0,
    0,
    0,
    0,
    0,
    0,
    330,
    330,
    330,
    0,
    0,
    0,
    0,
    0,
    330,
    0,
    0,
    0,
    0,
    0,
    0,
    0,
    0,
    330,
    330,
    330,
    0,
    0,
    0,
    0,
    0,
    0,
    0,
    0,
    0,
    0,
    0,
    0,
    0,
    330,
    330,
    330,
    0,
    0,
    0,
    0,
    0,
    0,
    0,
    0,
    0,
    0,
    0,
    0,
    0,
    0,
    330,
    330,
    330,
    0,
    0,
    0,
    0,
    0,
    0,
    0,
    0,
    0,
    0,
    0,
    0,
    0,
    0,
    0,
    0,
    0,
    0,
    0,
    0,
    0,
    0,
    0,
    330,
    330,
    330,
    0,
    0,
    0,
    0,
    0,
    330,
    0,
    0,
    0,
    0,
    0,
    0,
    0,
    0,
    0,
    0,
    0,
    330,
    330,
    330,
    0,
    0,
    0,
    0,
    0,
    0,
    0,
    0,
    0,
    0,
    0,
    0,
    0,
    0,
    0,
    0,
    0,
    0,
    0,
    0,
    0,
    0,
    0,
    0,
    0,
    330,
    330,
    330,
    0,
    0,
    330,
    330,
    330,
    0,
    0,
    0,
    0,
    0,
    0,
    0,
    0,
    0,
    0,
    0,
    0,
    0,
    0,
    0,
    0,
    0,
    0,
    0,
    0,
    0,
    0,
    0,
    330,
    0,
    0,
    0,
    0,
    0,
    0,
    0,
    0,
    0,
    0,
    0,
    0,
    0,
    0,
    0,
    0,
    0,
    0,
    0,
    0,
    0,
    0,
    0,
    0,
    0,
    0,
    0,
    0,
    0,
    0,
    0,
    0,
    0,
    0,
    0,
    0,
    0,
    0,
    0,
    0,
    330,
    0,
    0,
    0,
    0,
    0,
    0,
    0,
    0,
    0,
    0,
    0,
    0,
    330,
    0,
    0,
    0,
    0,
    0,
    0,
    0,
    0,
    0,
    330,
    330,
    330,
    330,
    330,
    0,
    0,
    0,
    0,
    0,
    0,
    0,
    0,
    0,
    0,
    0,
    0,
    0,
    0,
    330,
    0,
    0,
    0,
    0,
    0,
    0,
    0,
    330,
    0,
    0,
    0,
    0,
    0,
    0,
    0,
    0,
    0,
    0,
    0,
    0,
    0,
    0,
    0,
    0,
    0,
    0,
    0,
    0,
    0,
    0,
    0,
    0,
    0,
    330,
    0,
    0,
    330,
    0,
    330,
    0,
    0,
    0,
    0,
    0,
    0,
    0,
    0,
    0,
    0,
    0,
    0,
    0,
    0,
    0,
    0,
    0,
    0,
    0,
    0,
    0,
    0,
    0,
    0,
    0,
    0,
    0,
    0,
    0,
    0,
    0,
    0,
    0,
    0,
    0,
    330,
    330,
    330,
    330,
    330,
    330,
    330,
    330,
    330,
    330,
    330,
    330,
    330,
    0,
    0,
    0,
    0,
    0,
    0,
    0,
    0,
    0,
    0,
    0,
    0,
    0,
    0,
    0,
    0,
    0,
    0,
    0,
    0,
    0,
    0,
    0,
    0,
    0,
    0,
    0,
    0,
    0,
    0,
    0,
    0,
    0,
    0,
    330,
    0,
    0,
    0,
    0,
    0,
    0,
    0,
    0,
    0,
    0,
    0,
    0,
    0,
    0,
    0,
    0,
    0,
    0,
    0,
    0,
    0,
    0,
    0,
    0,
    0,
    0,
    0,
    0,
    0,
    0,
    0,
    0,
    0,
    0,
    0,
    0,
    0,
    330,
    0,
    0,
    0,
    0,
    0,
    0,
    0,
    0,
    0,
    0,
    330,
    330,
    330,
    330,
    330,
    330,
    330,
    330,
    330,
    330,
    330,
    330,
    330,
    330,
    330,
    330,
    0,
    0,
    0,
    0,
    0,
    0,
    0,
    0,
    0,
    0,
    0,
    0,
    0,
    0,
    0,
    0,
    0,
    0,
    0,
    0,
    0,
    0,
    0,
    0,
    0,
    0,
    0,
    0,
    0,
    330,
    330,
    0,
    0,
    0,
    0,
    0,
    0,
    0,
    0,
    0,
    0,
    0,
    0,
    0,
    0,
    0,
    0,
    0,
    0,
    0,
    0,
    0,
    0,
    0,
    0,
    0,
    0,
    0,
    0,
    0,
    0,
    0,
    0,
    0,
    0,
    330,
    0,
    0,
    0,
    0,
    0,
    330,
    0,
    0,
    0,
    0,
    0,
    0,
    0,
    330,
    330,
    330,
    330,
    330,
    330,
    330,
    330,
    330,
    330,
    330,
    330,
    330,
    330,
    330,
    330,
    330,
    330,
    0,
    0,
    0,
    0,
    0,
    0,
    0,
    0,
    330,
    0,
    0,
    0,
    0,
    0,
    0,
    0,
    330,
    0,
    0,
    0,
    0,
    0,
    0,
    0,
    0,
    0,
    0,
    0,
    0,
    0,
    0,
    0,
    0,
    0,
    0,
    0,
    0,
    0,
    0,
    0,
    0,
    0,
    330,
    0,
    0,
    0,
    0,
    330,
    0,
    0,
    0,
    330,
    330,
    330,
    330,
    330,
    330,
    330,
    330,
    330,
    0,
    0,
    330,
    0,
    0,
    0,
    330,
    0,
    0,
    0,
    0,
    0,
    0,
    0,
    0,
    0,
    0,
    0,
    330,
    330,
    330,
    330,
    330,
    330,
    330,
    330,
    330,
    330,
    330,
    330,
    330,
    330,
    330,
    330,
    330,
    330,
    0,
    0,
    0,
    0,
    0,
    0,
    330,
    0,
    0,
    0,
    0,
    0,
    0,
    0,
    0,
    0,
    0,
    0,
    0,
    0,
    0,
    0,
    0,
    0,
    0,
    0,
    0,
    0,
    0,
    0,
    0,
    0,
    0,
    0,
    0,
    0,
    0,
    0,
    0,
    0,
    0,
    0,
    0,
    330,
    0,
    0,
    0,
    0,
    0,
    0,
    0,
    330,
    330,
    330,
    330,
    330,
    330,
    330,
    330,
    330,
    330,
    0,
    0,
    0,
    330,
    0,
    0,
    0,
    330,
    0,
    0,
    0,
    0,
    0,
    0,
    0,
    0,
    0,
    330,
    330,
    330,
    330,
    330,
    330,
    330,
    330,
    330,
    330,
    330,
    330,
    330,
    330,
    330,
    330,
    330,
    330,
    0,
    0,
    0,
    0,
    0,
    0,
    0,
    0,
    330,
    0,
    0,
    0,
    0,
    0,
    0,
    0,
    0,
    0,
    0,
    0,
    0,
    0,
    0,
    0,
    0,
    0,
    0,
    0,
    0,
    0,
    0,
    0,
    0,
    0,
    0,
    330,
    0,
    0,
    0,
    0,
    0,
    0,
    0,
    0,
    0,
    0,
    0,
    0,
    0,
    330,
    330,
    330,
    330,
    330,
    330,
    330,
    330,
    330,
    330,
    330,
    330,
    330,
    0,
    0,
    0,
    0,
    0,
    0,
    0,
    0,
    0,
    0,
    0,
    0,
    0,
    0,
    0,
    0,
    330,
    330,
    330,
    330,
    330,
    330,
    330,
    330,
    330,
    330,
    330,
    330,
    330,
    330,
    330,
    330,
    330,
    330,
    0,
    0,
    0,
    0,
    0,
    0,
    0,
    0,
    0,
    0,
    0,
    0,
    0,
    0,
    0,
    0,
    0,
    0,
    0,
    0,
    0,
    0,
    0,
    0,
    0,
    0,
    0,
    0,
    0,
    330,
    0,
    0,
    0,
    0,
    0,
    0,
    0,
    0,
    0,
    0,
    0,
    0,
    0,
    0,
    0,
    0,
    0,
    0,
    330,
    330,
    330,
    330,
    330,
    330,
    330,
    330,
    330,
    330,
    330,
    330,
    330,
    330,
    0,
    0,
    0,
    0,
    0,
    0,
    0,
    0,
    0,
    330,
    0,
    0,
    0,
    0,
    0,
    0,
    0,
    330,
    330,
    330,
    330,
    330,
    330,
    330,
    330,
    330,
    330,
    330,
    330,
    330,
    330,
    330,
    330,
    330,
    0,
    0,
    0,
    0,
    0,
    0,
    0,
    0,
    0,
    0,
    0,
    0,
    0,
    0,
    0,
    0,
    0,
    0,
    0,
    0,
    0,
    0,
    0,
    0,
    0,
    0,
    0,
    0,
    0,
    0,
    0,
    0,
    0,
    0,
    0,
    0,
    0,
    0,
    0,
    0,
    0,
    0,
    0,
    0,
    0,
    0,
    0,
    330,
    330,
    330,
    330,
    330,
    330,
    330,
    330,
    330,
    330,
    330,
    330,
    330,
    330,
    330,
    0,
    0,
    0,
    0,
    0,
    0,
    0,
    0,
    0,
    0,
    0,
    0,
    0,
    0,
    0,
    0,
    0,
    330,
    330,
    330,
    330,
    330,
    330,
    330,
    330,
    330,
    330,
    330,
    330,
    330,
    330,
    330,
    330,
    330,
    0,
    0,
    0,
    0,
    0,
    0,
    0,
    0,
    0,
    0,
    0,
    0,
    0,
    0,
    0,
    330,
    0,
    0,
    0,
    0,
    0,
    0,
    0,
    0,
    0,
    0,
    0,
    0,
    0,
    0,
    0,
    0,
    0,
    0,
    0,
    0,
    0,
    0,
    0,
    0,
    0,
    0,
    0,
    0,
    0,
    0,
    0,
    330,
    330,
    330,
    330,
    330,
    330,
    330,
    330,
    330,
    330,
    330,
    330,
    330,
    330,
    330,
    0,
    0,
    0,
    0,
    0,
    0,
    0,
    0,
    0,
    0,
    0,
    0,
    0,
    0,
    0,
    0,
    0,
    330,
    330,
    330,
    330,
    330,
    330,
    330,
    330,
    330,
    330,
    330,
    330,
    330,
    330,
    330,
    330,
    330,
    0,
    0,
    0,
    0,
    0,
    0,
    0,
    0,
    0,
    0,
    0,
    0,
    0,
    0,
    0,
    0,
    0,
    0,
    0,
    0,
    0,
    0,
    0,
    0,
    0,
    0,
    0,
    0,
    0,
    0,
    330,
    0,
    0,
    0,
    0,
    0,
    0,
    0,
    0,
    0,
    0,
    0,
    0,
    0,
    0,
    330,
    330,
    330,
    330,
    330,
    330,
    330,
    330,
    330,
    330,
    330,
    330,
    330,
    330,
    330,
    330,
    330,
    0,
    0,
    0,
    0,
    0,
    0,
    0,
    0,
    0,
    0,
    0,
    0,
    0,
    0,
    0,
    0,
    0,
    330,
    330,
    330,
    330,
    330,
    330,
    330,
    330,
    330,
    330,
    330,
    330,
    330,
    330,
    330,
    330,
    330,
    0,
    0,
    0,
    0,
    0,
    0,
    0,
    0,
    0,
    0,
    0,
    0,
    0,
    0,
    0,
    0,
    0,
    0,
    0,
    0,
    0,
    0,
    0,
    0,
    0,
    0,
    0,
    0,
    0,
    0,
    0,
    0,
    0,
    0,
    0,
    0,
    0,
    0,
    0,
    0,
    0,
    0,
    0,
    0,
    330,
    330,
    330,
    330,
    330,
    330,
    330,
    330,
    330,
    330,
    330,
    330,
    330,
    330,
    330,
    330,
    330,
    330,
    0,
    0,
    0,
    0,
    0,
    0,
    0,
    0,
    0,
    0,
    0,
    0,
    0,
    0,
    0,
    0,
    0,
    330,
    330,
    330,
    330,
    330,
    330,
    330,
    330,
    330,
    330,
    330,
    330,
    330,
    330,
    330,
    330,
    330,
    0,
    0,
    0,
    0,
    0,
    0,
    0,
    0,
    0,
    0,
    0,
    0,
    0,
    0,
    0,
    0,
    0,
    0,
    0,
    0,
    0,
    0,
    0,
    0,
    0,
    0,
    0,
    0,
    330,
    0,
    0,
    0,
    0,
    0,
    0,
    0,
    0,
    0,
    0,
    0,
    0,
    0,
    0,
    330,
    330,
    330,
    330,
    330,
    330,
    330,
    330,
    330,
    330,
    330,
    330,
    330,
    330,
    330,
    330,
    330,
    330,
    0,
    0,
    0,
    0,
    0,
    0,
    0,
    0,
    0,
    0,
    0,
    0,
    0,
    0,
    0,
    0,
    0,
    330,
    330,
    330,
    330,
    330,
    330,
    330,
    330,
    330,
    330,
    330,
    330,
    330,
    330,
    330,
    330,
    330,
    330,
    0,
    0,
    0,
    0,
    0,
    0,
    0,
    0,
    0,
    0,
    0,
    0,
    0,
    0,
    0,
    0,
    0,
    0,
    0,
    0,
    0,
    0,
    0,
    0,
    0,
    0,
    0,
    0,
    0,
    0,
    0,
    0,
    0,
    0,
    0,
    0,
    0,
    0,
    0,
    0,
    0,
    0,
    0,
    330,
    330,
    330,
    330,
    330,
    330,
    330,
    0,
    330,
    330,
    330,
    330,
    330,
    330,
    330,
    330,
    330,
    330,
    0,
    0,
    0,
    0,
    0,
    0,
    0,
    0,
    0,
    0,
    0,
    0,
    0,
    0,
    0,
    0,
    0,
    330,
    330,
    330,
    330,
    330,
    330,
    330,
    330,
    330,
    330,
    330,
    330,
    330,
    330,
    330,
    330,
    330,
    330,
    0,
    0,
    0,
    0,
    0,
    0,
    0,
    0,
    0,
    0,
    0,
    0,
    0,
    0,
    0,
    0,
    0,
    0,
    0,
    0,
    0,
    0,
    0,
    0,
    0,
    0,
    0,
    0,
    0,
    0,
    0,
    0,
    0,
    0,
    0,
    0,
    0,
    0,
    0,
    0,
    0,
    0,
    0,
    330,
    330,
    330,
    330,
    330,
    330,
    330,
    0,
    330,
    330,
    330,
    330,
    330,
    330,
    330,
    330,
    330,
    330,
    0,
    0,
    0,
    0,
    0,
    0,
    0,
    0,
    0,
    0,
    0,
    0,
    0,
    0,
    0,
    0,
    0,
    0,
    330,
    330,
    330,
    330,
    330,
    330,
    330,
    330,
    330,
    330,
    330,
    330,
    330,
    330,
    330,
    330,
    330,
    0,
    0,
    0,
    0,
    0,
    0,
    0,
    0,
    0,
    0,
    0,
    0,
    0,
    0,
    0,
    0,
    0,
    0,
    0,
    0,
    0,
    0,
    0,
    0,
    0,
    0,
    0,
    0,
    0,
    0,
    0,
    0,
    0,
    0,
    0,
    0,
    0,
    0,
    0,
    0,
    0,
    0,
    0,
    330,
    330,
    330,
    330,
    330,
    330,
    0,
    0,
    330,
    330,
    330,
    330,
    330,
    330,
    330,
    330,
    330,
    330,
    0,
    0,
    0,
    0,
    0,
    0,
    0,
    0,
    0,
    0,
    0,
    0,
    0,
    0,
    0,
    0,
    0,
    0,
    330,
    0,
    0,
    0,
    330,
    330,
    330,
    330,
    330,
    330,
    330,
    330,
    330,
    330,
    330,
    330,
    330,
    0,
    0,
    0,
    0,
    0,
    0,
    0,
    0,
    0,
    0,
    0,
    0,
    0,
    0,
    0,
    0,
    0,
    0,
    0,
    0,
    0,
    0,
    0,
    0,
    0,
    0,
    0,
    0,
    0,
    0,
    0,
    0,
    0,
    0,
    0,
    0,
    0,
    0,
    0,
    0,
    0,
    0,
    0,
    330,
    330,
    330,
    330,
    0,
    0,
    0,
    0,
    0,
    0,
    0,
    330,
    330,
    330,
    330,
    330,
    330,
    330,
    0,
    0,
    0,
    0,
    0,
    0,
    0,
    0,
    0,
    0,
    0,
    0,
    0,
    0,
    0,
    0,
    0,
    0,
    0,
    0,
    0,
    0,
    0,
    330,
    330,
    330,
    330,
    330,
    330,
    330,
    330,
    330,
    330,
    330,
    330,
    0,
    0,
    0,
    0,
    0,
    0,
    0,
    0,
    0,
    0,
    0,
    0,
    0,
    0,
    0,
    0,
    0,
    0,
    0,
    0,
    0,
    0,
    0,
    330,
    330,
    330,
    330,
    0,
    0,
    0,
    0,
    330,
    0,
    0,
    0,
    0,
    0,
    0,
    0,
    0,
    0,
    0,
    0,
    0,
    0,
    0,
    0,
    0,
    0,
    0,
    0,
    0,
    0,
    0,
    0,
    0,
    330,
    330,
    330,
    330,
    330,
    0,
    0,
    330,
    0,
    0,
    0,
    0,
    0,
    0,
    0,
    330,
    0,
    0,
    0,
    0,
    0,
    0,
    0,
    0,
    0,
    0,
    0,
    0,
    0,
    330,
    330,
    330,
    330,
    330,
    330,
    330,
    0,
    0,
    0,
    330,
    0,
    0,
    0,
    0,
    0,
    0,
    0,
    0,
    0,
    0,
    0,
    0,
    0,
    0,
    0,
    0,
    0,
    0,
    0,
    0,
    0,
    330,
    330,
    330,
    330,
    330,
    330,
    0,
    0,
    0,
    0,
    0,
    0,
    0,
    0,
    0,
    0,
    0,
    0,
    0,
    0,
    0,
    0,
    0,
    0,
    0,
    0,
    0,
    0,
    0,
    0,
    0,
    0,
    0,
    330,
    0,
    330,
    330,
    330,
    330,
    330,
    330,
    0,
    0,
    0,
    0,
    0,
    0,
    0,
    0,
    0,
    0,
    0,
    0,
    0,
    0,
    0,
    0,
    0,
    0,
    0,
    0,
    0,
    0,
    0,
    0,
    330,
    330,
    330,
    330,
    0,
    0,
    0,
    0,
    0,
    0,
    0,
    0,
    0,
    0,
    0,
    0,
    0,
    0,
    0,
    0,
    0,
    0,
    0,
    0,
    0,
    0,
    0,
    0,
    0,
    330,
    330,
    330,
    330,
    330,
    330,
    330,
    330,
    0,
    0,
    0,
    0,
    0,
    0,
    0,
    0,
    0,
    0,
    0,
    0,
    0,
    0,
    0,
    0,
    0,
    0,
    0,
    0,
    0,
    0,
    0,
    0,
    0,
    0,
    0,
    0,
    0,
    0,
    330,
    330,
    330,
    330,
    330,
    0,
    0,
    0,
    330,
    0,
    330,
    0,
    0,
    0,
    0,
    0,
    0,
    0,
    0,
    0,
    0,
    0,
    0,
    0,
    0,
    0,
    0,
    0,
    0,
    0,
    330,
    330,
    330,
    0,
    0,
    0,
    0,
    330,
    0,
    0,
    0,
    0,
    0,
    0,
    0,
    330,
    330,
    330,
    330,
    330,
    330,
    330,
    330,
    330,
    330,
    330,
    330,
    330,
    330,
    330,
    330,
    330,
    330,
    330,
    330,
    330,
    0,
    0,
    0,
    330,
    330,
    330,
    330,
    0,
    0,
    0,
    0,
    0,
    0,
    0,
    0,
    0,
    0,
    330,
    0,
    0,
    0,
    0,
    0,
    0,
    0,
    0,
    0,
    0,
    0,
    0,
    330,
    330,
    330,
    330,
    330,
    330,
    0,
    0,
    0,
    0,
    0,
    0,
    330,
    0,
    0,
    0,
    0,
    0,
    0,
    0,
    0,
    0,
    0,
    0,
    0,
    0,
    0,
    0,
    0,
    0,
    330,
    330,
    0,
    0,
    0,
    0,
    0,
    0,
    0,
    0,
    0,
    0,
    330,
    330,
    330,
    330,
    330,
    330,
    330,
    330,
    330,
    330,
    330,
    330,
    330,
    330,
    330,
    330,
    330,
    330,
    330,
    330,
    330,
    330,
    330,
    330,
    0,
    0,
    330,
    330,
    330,
    330,
    330,
    330,
    0,
    0,
    0,
    0,
    0,
    0,
    0,
    0,
    0,
    0,
    0,
    0,
    0,
    0,
    0,
    0,
    0,
    0,
    0,
    0,
    0,
    0,
    330,
    330,
    330,
    330,
    330,
    330,
    330,
    330,
    0,
    0,
    0,
    0,
    0,
    0,
    0,
    0,
    0,
    0,
    0,
    0,
    0,
    0,
    0,
    0,
    330,
    0,
    330,
    0,
    0,
    0,
    0,
    0,
    0,
    0,
    0,
    0,
    0,
    0,
    330,
    0,
    0,
    0,
    330,
    330,
    330,
    330,
    330,
    330,
    330,
    330,
    330,
    330,
    330,
    330,
    330,
    330,
    330,
    330,
    330,
    330,
    330,
    330,
    330,
    330,
    330,
    330,
    0,
    0,
    330,
    330,
    330,
    330,
    330,
    330,
    0,
    0,
    0,
    0,
    0,
    0,
    0,
    0,
    0,
    0,
    0,
    0,
    0,
    0,
    0,
    0,
    0,
    0,
    0,
    0,
    0,
    0,
    330,
    330,
    330,
    330,
    330,
    330,
    330,
    330,
    330,
    330,
    330,
    330,
    330,
    0,
    0,
    0,
    0,
    0,
    0,
    0,
    0,
    0,
    0,
    0,
    0,
    0,
    0,
    0,
    330,
    0,
    0,
    0,
    0,
    0,
    330,
    0,
    330,
    0,
    0,
    0,
    0,
    0,
    330,
    330,
    330,
    330,
    330,
    330,
    330,
    330,
    330,
    330,
    330,
    330,
    330,
    330,
    330,
    330,
    330,
    330,
    330,
    330,
    330,
    330,
    330,
    330,
    0,
    0,
    330,
    330,
    330,
    330,
    330,
    330,
    0,
    0,
    0,
    0,
    0,
    0,
    0,
    0,
    0,
    0,
    0,
    0,
    0,
    0,
    0,
    0,
    0,
    0,
    0,
    0,
    0,
    0,
    330,
    330,
    330,
    330,
    330,
    330,
    330,
    330,
    330,
    330,
    330,
    330,
    330,
    330,
    330,
    330,
    0,
    0,
    0,
    0,
    0,
    0,
    0,
    0,
    0,
    0,
    0,
    0,
    0,
    0,
    0,
    0,
    0,
    0,
    0,
    330,
    0,
    330,
    0,
    0,
    0,
    0,
    330,
    330,
    330,
    330,
    330,
    330,
    330,
    330,
    330,
    330,
    330,
    330,
    330,
    330,
    330,
    330,
    330,
    330,
    330,
    330,
    330,
    330,
    330,
    330,
    0,
    0,
    330,
    330,
    330,
    330,
    330,
    330,
    0,
    0,
    0,
    0,
    0,
    0,
    0,
    0,
    0,
    0,
    0,
    0,
    0,
    0,
    0,
    0,
    0,
    0,
    0,
    0,
    0,
    0,
    0,
    330,
    330,
    330,
    330,
    330,
    330,
    330,
    330,
    330,
    330,
    330,
    330,
    330,
    330,
    330,
    330,
    0,
    0,
    0,
    0,
    0,
    0,
    0,
    0,
    0,
    0,
    0,
    0,
    0,
    0,
    0,
    0,
    0,
    0,
    0,
    0,
    0,
    0,
    0,
    0,
    0,
    330,
    330,
    330,
    330,
    330,
    330,
    330,
    330,
    330,
    330,
    330,
    330,
    330,
    330,
    330,
    330,
    330,
    330,
    330,
    330,
    330,
    330,
    330,
    330,
    0,
    0,
    330,
    330,
    330,
    330,
    330,
    0,
    0,
    0,
    0,
    0,
    0,
    0,
    0,
    0,
    0,
    0,
    0,
    0,
    330,
    330,
    330,
    0,
    0,
    0,
    0,
    0,
    0,
    0,
    0,
    0,
    0,
    0,
    0,
    0,
    0,
    330,
    330,
    330,
    330,
    330,
    330,
    330,
    330,
    330,
    330,
    330,
    0,
    0,
    0,
    0,
    0,
    0,
    0,
    0,
    0,
    330,
    0,
    0,
    0,
    0,
    0,
    0,
    330,
    0,
    0,
    0,
    330,
    330,
    330,
    0,
    330,
    330,
    330,
    330,
    330,
    330,
    330,
    330,
    330,
    330,
    330,
    330,
    330,
    330,
    330,
    330,
    330,
    330,
    330,
    330,
    330,
    330,
    330,
    330,
    0,
    0,
    330,
    330,
    330,
    330,
    330,
    0,
    0,
    0,
    0,
    0,
    0,
    0,
    0,
    0,
    0,
    0,
    0,
    0,
    330,
    330,
    330,
    0,
    0,
    0,
    0,
    0,
    0,
    0,
    330,
    0,
    0,
    0,
    0,
    0,
    0,
    0,
    330,
    330,
    330,
    330,
    330,
    330,
    330,
    330,
    330,
    330,
    0,
    0,
    0,
    0,
    0,
    0,
    0,
    0,
    0,
    0,
    0,
    0,
    0,
    0,
    0,
    0,
    0,
    0,
    0,
    0,
    330,
    330,
    330,
    0,
    330,
    330,
    330,
    330,
    330,
    330,
    330,
    330,
    330,
    330,
    330,
    330,
    330,
    330,
    330,
    330,
    330,
    330,
    330,
    330,
    330,
    330,
    330,
    330,
    0,
    0,
    330,
    330,
    330,
    330,
    330,
    0,
    0,
    0,
    0,
    0,
    0,
    0,
    0,
    0,
    0,
    0,
    0,
    0,
    330,
    330,
    330,
    0,
    0,
    0,
    0,
    0,
    330,
    0,
    0,
    0,
    0,
    0,
    0,
    0,
    0,
    0,
    0,
    330,
    330,
    330,
    330,
    330,
    330,
    330,
    330,
    330,
    0,
    0,
    0,
    0,
    0,
    0,
    0,
    0,
    0,
    0,
    0,
    0,
    0,
    0,
    330,
    0,
    0,
    0,
    0,
    0,
    330,
    330,
    330,
    0,
    330,
    330,
    330,
    330,
    330,
    330,
    330,
    330,
    330,
    330,
    330,
    330,
    330,
    330,
    330,
    330,
    330,
    330,
    330,
    330,
    330,
    330,
    330,
    330,
    0,
    0,
    0,
    0,
    0,
    0,
    0,
    0,
    0,
    0,
    0,
    0,
    0,
    0,
    0,
    0,
    0,
    0,
    0,
    0,
    0,
    0,
    0,
    0,
    0,
    0,
    0,
    0,
    0,
    0,
    0,
    0,
    0,
    0,
    0,
    0,
    0,
    0,
    0,
    0,
    0,
    0,
    0,
    0,
    0,
    0,
    0,
    0,
    0,
    0,
    0,
    0,
    0,
    0,
    0,
    0,
    0,
    0,
    0,
    0,
    0,
    0,
    0,
    0,
    0,
    0,
    0,
    0,
    0,
    0,
    0,
    0,
    330,
    330,
    330,
    330,
    330,
    330,
    330,
    330,
    330,
    330,
    330,
    330,
    330,
    330,
    330,
    330,
    330,
    330,
    330,
    330,
    330,
    330,
    330,
    330,
    0,
    0,
    0,
    0,
    0,
    0,
    0,
    0,
    0,
    0,
    0,
    0,
    0,
    0,
    0,
    0,
    0,
    0,
    0,
    0,
    0,
    0,
    0,
    0,
    0,
    330,
    0,
    0,
    0,
    0,
    0,
    0,
    0,
    0,
    0,
    0,
    0,
    0,
    0,
    0,
    0,
    0,
    0,
    0,
    0,
    0,
    0,
    0,
    0,
    0,
    0,
    0,
    0,
    0,
    0,
    0,
    0,
    0,
    0,
    0,
    0,
    0,
    0,
    0,
    0,
    0,
    0,
    0,
    0,
    0,
    0,
    0,
    330,
    330,
    330,
    330,
    330,
    330,
    330,
    330,
    330,
    330,
    330,
    330,
    330,
    330,
    330,
    330,
    330,
    330,
    330,
    330,
    330,
    330,
    330,
    330,
    0,
    0,
    0,
    0,
    0,
    0,
    0,
    0,
    0,
    0,
    0,
    0,
    0,
    0,
    0,
    0,
    0,
    0,
    0,
    0,
    0,
    0,
    0,
    0,
    0,
    0,
    0,
    0,
    0,
    0,
    0,
    0,
    0,
    0,
    0,
    0,
    0,
    0,
    0,
    0,
    0,
    0,
    0,
    0,
    0,
    0,
    0,
    0,
    0,
    0,
    0,
    0,
    0,
    0,
    0,
    0,
    0,
    0,
    0,
    0,
    0,
    0,
    0,
    0,
    0,
    0,
    0,
    0,
    0,
    0,
    0,
    0
   ]
  },
  {
   "id": 4,
   "type": "tilelayer",
   "name": "canopy",
   "width": 96,
   "height": 72,
   "x": 0,
   "y": 0,
   "opacity": 1,
   "visible": true,
   "data": [
    0,
    0,
    0,
    0,
    0,
    0,
    0,
    0,
    0,
    0,
    0,
    0,
    0,
    0,
    0,
    0,
    0,
    0,
    0,
    0,
    0,
    0,
    0,
    0,
    0,
    0,
    0,
    0,
    0,
    0,
    0,
    0,
    0,
    0,
    0,
    0,
    0,
    0,
    0,
    0,
    0,
    0,
    0,
    0,
    0,
    0,
    0,
    0,
    0,
    0,
    0,
    0,
    0,
    0,
    0,
    0,
    0,
    0,
    0,
    0,
    0,
    0,
    0,
    0,
    0,
    0,
    0,
    0,
    0,
    0,
    0,
    0,
    0,
    0,
    0,
    0,
    0,
    0,
    0,
    0,
    0,
    0,
    0,
    0,
    0,
    0,
    0,
    0,
    0,
    0,
    0,
    0,
    0,
    0,
    0,
    0,
    0,
    0,
    0,
    0,
    0,
    0,
    0,
    0,
    0,
    0,
    0,
    0,
    0,
    0,
    0,
    0,
    0,
    0,
    0,
    0,
    435,
    436,
    437,
    0,
    0,
    0,
    0,
    0,
    0,
    0,
    0,
    395,
    396,
    0,
    0,
    0,
    411,
    412,
    0,
    0,
    0,
    0,
    0,
    0,
    435,
    436,
    437,
    0,
    0,
    0,
    0,
    0,
    0,
    0,
    0,
    0,
    0,
    0,
    0,
    0,
    0,
    0,
    0,
    0,
    0,
    0,
    0,
    0,
    435,
    436,
    437,
    0,
    0,
    0,
    0,
    0,
    0,
    0,
    0,
    0,
    0,
    0,
    0,
    0,
    0,
    0,
    0,
    0,
    0,
    0,
    0,
    0,
    0,
    0,
    0,
    0,
    0,
    0,
    0,
    0,
    0,
    0,
    0,
    0,
    0,
    0,
    0,
    0,
    0,
    0,
    0,
    0,
    0,
    0,
    0,
    0,
    438,
    439,
    440,
    0,
    0,
    0,
    0,
    0,
    0,
    0,
    0,
    0,
    0,
    0,
    0,
    0,
    0,
    0,
    0,
    0,
    0,
    0,
    0,
    0,
    438,
    439,
    440,
    0,
    0,
    0,
    0,
    0,
    0,
    0,
    0,
    0,
    0,
    0,
    0,
    0,
    0,
    0,
    0,
    0,
    0,
    0,
    0,
    0,
    438,
    439,
    440,
    0,
    0,
    0,
    0,
    0,
    0,
    0,
    0,
    0,
    0,
    0,
    0,
    0,
    0,
    0,
    0,
    0,
    0,
    0,
    0,
    0,
    0,
    0,
    0,
    0,
    0,
    0,
    0,
    0,
    0,
    0,
    0,
    0,
    0,
    0,
    0,
    0,
    391,
    392,
    0,
    0,
    0,
    0,
    0,
    0,
    0,
    0,
    0,
    0,
    0,
    0,
    0,
    0,
    0,
    0,
    0,
    0,
    0,
    0,
    0,
    0,
    0,
    0,
    0,
    0,
    0,
    0,
    0,
    0,
    0,
    0,
    0,
    0,
    0,
    0,
    0,
    0,
    0,
    0,
    0,
    0,
    0,
    0,
    0,
    0,
    0,
    0,
    0,
    0,
    0,
    0,
    0,
    0,
    0,
    0,
    0,
    0,
    0,
    0,
    0,
    0,
    0,
    0,
    0,
    0,
    0,
    0,
    0,
    0,
    0,
    0,
    0,
    0,
    0,
    0,
    0,
    0,
    0,
    0,
    0,
    0,
    0,
    0,
    0,
    0,
    0,
    0,
    0,
    0,
    0,
    0,
    0,
    0,
    0,
    0,
    0,
    0,
    0,
    0,
    0,
    0,
    0,
    0,
    0,
    0,
    0,
    0,
    0,
    0,
    0,
    0,
    0,
    0,
    0,
    0,
    0,
    0,
    0,
    0,
    0,
    0,
    395,
    396,
    0,
    0,
    0,
    0,
    0,
    0,
    0,
    0,
    0,
    0,
    0,
    0,
    0,
    0,
    0,
    0,
    0,
    0,
    0,
    0,
    0,
    0,
    0,
    0,
    0,
    0,
    0,
    0,
    0,
    0,
    0,
    0,
    0,
    0,
    0,
    0,
    0,
    0,
    0,
    0,
    0,
    0,
    0,
    0,
    0,
    0,
    0,
    0,
    0,
    0,
    0,
    0,
    0,
    0,
    0,
    0,
    0,
    0,
    0,
    0,
    0,
    0,
    399,
    400,
    0,
    0,
    399,
    400,
    0,
    0,
    0,
    0,
    0,
    0,
    0,
    0,
    0,
    0,
    0,
    0,
    0,
    0,
    0,
    0,
    0,
    0,
    0,
    0,
    0,
    0,
    0,
    0,
    0,
    0,
    0,
    0,
    0,
    0,
    0,
    0,
    0,
    0,
    0,
    0,
    0,
    0,
    0,
    0,
    0,
    0,
    0,
    0,
    0,
    0,
    0,
    0,
    0,
    0,
    0,
    0,
    0,
    0,
    0,
    0,
    0,
    0,
    0,
    0,
    0,
    0,
    0,
    0,
    0,
    0,
    0,
    0,
    0,
    0,
    0,
    0,
    0,
    0,
    0,
    0,
    0,
    0,
    0,
    0,
    0,
    0,
    0,
    0,
    0,
    0,
    0,
    0,
    0,
    0,
    0,
    0,
    0,
    0,
    0,
    0,
    0,
    0,
    0,
    0,
    0,
    0,
    0,
    0,
    0,
    0,
    0,
    0,
    0,
    0,
    0,
    0,
    0,
    0,
    0,
    0,
    0,
    0,
    0,
    0,
    0,
    0,
    0,
    0,
    0,
    0,
    0,
    0,
    0,
    0,
    0,
    0,
    0,
    0,
    0,
    0,
    0,
    0,
    0,
    0,
    0,
    0,
    0,
    0,
    0,
    0,
    0,
    0,
    0,
    0,
    0,
    0,
    0,
    0,
    0,
    0,
    0,
    0,
    0,
    0,
    0,
    0,
    0,
    0,
    0,
    0,
    0,
    0,
    0,
    0,
    0,
    0,
    0,
    0,
    0,
    0,
    0,
    0,
    0,
    0,
    0,
    0,
    0,
    0,
    0,
    0,
    0,
    0,
    0,
    0,
    0,
    0,
    0,
    0,
    0,
    0,
    0,
    0,
    0,
    0,
    0,
    0,
    0,
    0,
    0,
    0,
    0,
    0,
    0,
    0,
    0,
    0,
    0,
    0,
    0,
    0,
    0,
    0,
    0,
    0,
    0,
    0,
    0,
    0,
    0,
    0,
    0,
    0,
    0,
    0,
    0,
    0,
    0,
    0,
    0,
    0,
    0,
    0,
    0,
    0,
    0,
    0,
    0,
    0,
    0,
    0,
    0,
    0,
    0,
    0,
    0,
    0,
    0,
    0,
    0,
    0,
    0,
    0,
    0,
    0,
    0,
    0,
    0,
    0,
    0,
    0,
    0,
    0,
    0,
    0,
    0,
    0,
    0,
    0,
    0,
    0,
    0,
    0,
    0,
    0,
    0,
    0,
    0,
    0,
    0,
    0,
    0,
    0,
    0,
    0,
    0,
    0,
    0,
    0,
    0,
    0,
    0,
    0,
    0,
    0,
    0,
    0,
    0,
    0,
    0,
    0,
    0,
    0,
    0,
    0,
    0,
    0,
    0,
    0,
    0,
    0,
    0,
    0,
    0,
    0,
    0,
    0,
    0,
    0,
    0,
    0,
    0,
    0,
    0,
    0,
    0,
    0,
    0,
    0,
    0,
    0,
    0,
    0,
    0,
    0,
    0,
    0,
    0,
    0,
    0,
    0,
    0,
    0,
    0,
    0,
    0,
    0,
    0,
    0,
    0,
    0,
    0,
    0,
    0,
    0,
    0,
    0,
    0,
    0,
    0,
    0,
    0,
    0,
    0,
    0,
    0,
    0,
    0,
    0,
    0,
    0,
    0,
    0,
    0,
    0,
    0,
    0,
    0,
    0,
    0,
    391,
    392,
    0,
    0,
    0,
    0,
    0,
    0,
    0,
    0,
    0,
    0,
    0,
    0,
    0,
    0,
    0,
    0,
    0,
    0,
    0,
    415,
    416,
    0,
    0,
    0,
    0,
    0,
    0,
    0,
    0,
    0,
    0,
    0,
    0,
    0,
    0,
    0,
    0,
    0,
    0,
    0,
    0,
    0,
    0,
    0,
    0,
    0,
    0,
    0,
    0,
    0,
    0,
    0,
    0,
    0,
    0,
    0,
    0,
    0,
    0,
    0,
    0,
    0,
    0,
    0,
    0,
    0,
    0,
    0,
    0,
    0,
    0,
    0,
    0,
    0,
    0,
    0,
    0,
    0,
    0,
    0,
    0,
    0,
    0,
    0,
    0,
    0,
    0,
    0,
    0,
    0,
    0,
    0,
    0,
    0,
    0,
    0,
    0,
    0,
    0,
    0,
    0,
    0,
    0,
    0,
    0,
    0,
    0,
    0,
    0,
    0,
    0,
    0,
    0,
    0,
    0,
    0,
    0,
    0,
    0,
    0,
    0,
    0,
    0,
    0,
    0,
    0,
    0,
    0,
    0,
    0,
    0,
    0,
    0,
    0,
    0,
    0,
    0,
    0,
    0,
    0,
    0,
    0,
    0,
    0,
    0,
    0,
    0,
    0,
    0,
    0,
    0,
    0,
    0,
    0,
    0,
    0,
    0,
    0,
    0,
    0,
    0,
    0,
    0,
    0,
    0,
    0,
    0,
    0,
    0,
    0,
    0,
    0,
    0,
    0,
    0,
    0,
    0,
    0,
    0,
    0,
    0,
    0,
    0,
    0,
    0,
    0,
    0,
    0,
    0,
    0,
    0,
    0,
    0,
    0,
    0,
    0,
    0,
    0,
    0,
    0,
    0,
    0,
    0,
    0,
    0,
    0,
    0,
    0,
    0,
    0,
    0,
    0,
    0,
    0,
    0,
    0,
    0,
    0,
    0,
    0,
    0,
    0,
    0,
    0,
    0,
    0,
    0,
    0,
    0,
    0,
    0,
    0,
    0,
    0,
    0,
    0,
    0,
    0,
    0,
    0,
    0,
    0,
    0,
    0,
    0,
    0,
    0,
    0,
    0,
    0,
    0,
    0,
    0,
    0,
    0,
    0,
    0,
    0,
    0,
    0,
    0,
    0,
    0,
    0,
    0,
    0,
    0,
    0,
    0,
    0,
    0,
    0,
    0,
    0,
    0,
    0,
    0,
    0,
    0,
    0,
    0,
    0,
    0,
    0,
    0,
    0,
    0,
    0,
    0,
    0,
    0,
    0,
    0,
    0,
    0,
    0,
    0,
    0,
    0,
    0,
    0,
    0,
    0,
    0,
    0,
    0,
    0,
    0,
    0,
    0,
    0,
    0,
    0,
    0,
    0,
    0,
    0,
    0,
    0,
    0,
    0,
    0,
    0,
    0,
    0,
    0,
    0,
    0,
    0,
    0,
    0,
    0,
    0,
    0,
    0,
    0,
    0,
    0,
    0,
    0,
    0,
    0,
    0,
    0,
    0,
    0,
    0,
    0,
    0,
    0,
    0,
    0,
    0,
    0,
    0,
    0,
    0,
    0,
    0,
    0,
    0,
    0,
    0,
    0,
    0,
    0,
    0,
    0,
    0,
    0,
    0,
    0,
    0,
    0,
    0,
    0,
    0,
    0,
    0,
    0,
    0,
    0,
    0,
    0,
    0,
    0,
    0,
    0,
    0,
    0,
    0,
    0,
    0,
    0,
    0,
    0,
    0,
    0,
    0,
    0,
    0,
    0,
    0,
    0,
    0,
    0,
    0,
    0,
    0,
    0,
    0,
    0,
    0,
    0,
    0,
    0,
    0,
    0,
    0,
    0,
    0,
    0,
    0,
    0,
    0,
    0,
    0,
    0,
    0,
    0,
    0,
    0,
    0,
    0,
    0,
    0,
    0,
    0,
    0,
    0,
    0,
    0,
    0,
    0,
    0,
    0,
    0,
    0,
    0,
    0,
    0,
    0,
    0,
    0,
    0,
    0,
    0,
    0,
    0,
    0,
    0,
    0,
    0,
    0,
    0,
    0,
    0,
    0,
    0,
    0,
    0,
    0,
    0,
    0,
    0,
    0,
    0,
    0,
    0,
    0,
    0,
    0,
    0,
    0,
    0,
    0,
    0,
    0,
    0,
    0,
    0,
    0,
    0,
    0,
    0,
    0,
    0,
    0,
    0,
    0,
    0,
    0,
    0,
    0,
    0,
    0,
    0,
    0,
    0,
    0,
    0,
    0,
    0,
    0,
    0,
    0,
    0,
    0,
    0,
    0,
    0,
    0,
    0,
    0,
    0,
    0,
    0,
    0,
    0,
    0,
    0,
    0,
    0,
    0,
    0,
    0,
    0,
    0,
    0,
    0,
    0,
    0,
    0,
    0,
    0,
    0,
    0,
    0,
    0,
    0,
    0,
    0,
    0,
    0,
    0,
    0,
    0,
    0,
    0,
    0,
    0,
    0,
    0,
    0,
    0,
    0,
    0,
    0,
    0,
    0,
    0,
    0,
    0,
    0,
    0,
    0,
    0,
    0,
    0,
    0,
    0,
    0,
    0,
    0,
    0,
    0,
    0,
    0,
    0,
    0,
    0,
    0,
    0,
    0,
    0,
    0,
    0,
    0,
    0,
    0,
    0,
    0,
    0,
    0,
    0,
    0,
    0,
    0,
    0,
    0,
    0,
    0,
    0,
    0,
    0,
    0,
    0,
    0,
    0,
    0,
    0,
    0,
    0,
    0,
    0,
    0,
    0,
    0,
    0,
    0,
    0,
    0,
    0,
    0,
    0,
    0,
    0,
    0,
    0,
    0,
    0,
    0,
    0,
    0,
    0,
    0,
    0,
    0,
    0,
    0,
    0,
    0,
    0,
    0,
    0,
    0,
    0,
    0,
    0,
    0,
    0,
    0,
    0,
    0,
    0,
    0,
    0,
    0,
    0,
    0,
    0,
    0,
    0,
    0,
    0,
    0,
    0,
    0,
    0,
    0,
    0,
    0,
    0,
    0,
    0,
    0,
    0,
    0,
    0,
    0,
    0,
    0,
    0,
    0,
    0,
    0,
    0,
    0,
    0,
    0,
    0,
    0,
    0,
    0,
    0,
    0,
    0,
    0,
    0,
    0,
    0,
    0,
    0,
    0,
    0,
    0,
    0,
    0,
    0,
    0,
    0,
    0,
    0,
    0,
    0,
    0,
    0,
    0,
    0,
    0,
    0,
    0,
    0,
    0,
    0,
    0,
    0,
    0,
    0,
    0,
    0,
    0,
    0,
    0,
    0,
    0,
    0,
    0,
    0,
    0,
    0,
    0,
    0,
    0,
    0,
    0,
    0,
    0,
    0,
    0,
    0,
    0,
    0,
    0,
    0,
    0,
    399,
    400,
    0,
    0,
    0,
    0,
    0,
    0,
    0,
    0,
    0,
    415,
    416,
    0,
    0,
    0,
    0,
    0,
    0,
    0,
    0,
    0,
    0,
    0,
    0,
    0,
    0,
    0,
    0,
    0,
    0,
    0,
    0,
    0,
    0,
    0,
    0,
    0,
    0,
    0,
    0,
    0,
    0,
    0,
    0,
    0,
    0,
    0,
    0,
    0,
    0,
    0,
    0,
    0,
    0,
    0,
    0,
    0,
    0,
    0,
    0,
    0,
    0,
    0,
    0,
    0,
    0,
    0,
    0,
    0,
    0,
    0,
    0,
    0,
    0,
    0,
    0,
    0,
    0,
    0,
    0,
    0,
    0,
    0,
    0,
    0,
    0,
    0,
    0,
    0,
    0,
    0,
    0,
    0,
    0,
    0,
    0,
    0,
    0,
    0,
    0,
    0,
    0,
    0,
    0,
    0,
    0,
    0,
    0,
    0,
    0,
    0,
    0,
    0,
    0,
    0,
    0,
    0,
    0,
    0,
    0,
    0,
    0,
    0,
    0,
    0,
    0,
    0,
    0,
    0,
    0,
    0,
    0,
    0,
    0,
    0,
    0,
    0,
    0,
    0,
    0,
    0,
    0,
    0,
    0,
    0,
    0,
    0,
    0,
    0,
    0,
    0,
    0,
    0,
    0,
    0,
    0,
    0,
    0,
    0,
    0,
    0,
    0,
    0,
    0,
    0,
    0,
    0,
    0,
    0,
    0,
    0,
    0,
    0,
    0,
    0,
    0,
    0,
    0,
    0,
    0,
    0,
    0,
    0,
    0,
    0,
    0,
    0,
    0,
    0,
    0,
    0,
    0,
    0,
    0,
    0,
    0,
    0,
    0,
    0,
    0,
    0,
    407,
    408,
    0,
    0,
    0,
    0,
    0,
    0,
    0,
    0,
    0,
    0,
    0,
    419,
    420,
    0,
    0,
    0,
    0,
    0,
    0,
    0,
    0,
    0,
    0,
    0,
    0,
    0,
    0,
    0,
    0,
    0,
    0,
    0,
    0,
    0,
    0,
    0,
    0,
    0,
    0,
    0,
    0,
    0,
    0,
    0,
    0,
    0,
    0,
    0,
    0,
    0,
    0,
    0,
    0,
    0,
    0,
    0,
    0,
    0,
    0,
    0,
    0,
    0,
    0,
    0,
    0,
    0,
    0,
    0,
    0,
    0,
    0,
    0,
    0,
    0,
    0,
    0,
    0,
    0,
    0,
    0,
    0,
    0,
    0,
    0,
    0,
    0,
    0,
    0,
    0,
    0,
    0,
    0,
    0,
    0,
    0,
    0,
    0,
    0,
    0,
    0,
    0,
    0,
    0,
    0,
    0,
    0,
    0,
    0,
    0,
    0,
    0,
    0,
    0,
    0,
    0,
    0,
    0,
    0,
    0,
    0,
    0,
    0,
    0,
    0,
    0,
    0,
    0,
    0,
    0,
    0,
    0,
    0,
    0,
    0,
    0,
    0,
    0,
    0,
    0,
    0,
    0,
    0,
    0,
    0,
    0,
    0,
    0,
    0,
    0,
    0,
    0,
    0,
    0,
    0,
    0,
    0,
    0,
    0,
    0,
    0,
    0,
    0,
    0,
    0,
    0,
    0,
    0,
    0,
    0,
    0,
    0,
    0,
    0,
    0,
    0,
    0,
    0,
    0,
    0,
    0,
    0,
    0,
    0,
    0,
    0,
    0,
    0,
    0,
    0,
    0,
    0,
    407,
    408,
    0,
    0,
    0,
    0,
    0,
    0,
    0,
    0,
    0,
    0,
    0,
    0,
    0,
    411,
    412,
    0,
    0,
    0,
    0,
    0,
    0,
    0,
    0,
    0,
    0,
    0,
    0,
    0,
    0,
    0,
    0,
    0,
    0,
    0,
    0,
    0,
    0,
    0,
    0,
    0,
    0,
    0,
    0,
    0,
    0,
    0,
    0,
    0,
    0,
    0,
    0,
    0,
    0,
    0,
    0,
    0,
    0,
    0,
    0,
    0,
    0,
    0,
    0,
    0,
    0,
    0,
    0,
    0,
    0,
    0,
    0,
    0,
    0,
    0,
    0,
    0,
    0,
    0,
    0,
    0,
    0,
    0,
    0,
    0,
    0,
    0,
    0,
    0,
    0,
    0,
    0,
    0,
    0,
    0,
    0,
    0,
    0,
    0,
    0,
    391,
    392,
    0,
    0,
    0,
    0,
    0,
    0,
    0,
    0,
    0,
    0,
    0,
    0,
    0,
    0,
    0,
    0,
    0,
    0,
    0,
    0,
    0,
    0,
    0,
    0,
    0,
    0,
    0,
    0,
    0,
    0,
    0,
    0,
    0,
    0,
    0,
    0,
    0,
    0,
    0,
    0,
    0,
    0,
    0,
    0,
    0,
    0,
    0,
    0,
    0,
    0,
    0,
    0,
    0,
    0,
    0,
    0,
    0,
    0,
    0,
    0,
    0,
    0,
    0,
    0,
    0,
    0,
    0,
    0,
    0,
    0,
    0,
    0,
    0,
    0,
    0,
    0,
    0,
    0,
    0,
    0,
    0,
    0,
    0,
    0,
    0,
    0,
    0,
    0,
    0,
    0,
    0,
    0,
    0,
    0,
    0,
    0,
    0,
    0,
    0,
    0,
    0,
    0,
    0,
    0,
    419,
    420,
    0,
    0,
    0,
    0,
    0,
    0,
    0,
    0,
    0,
    0,
    0,
    0,
    0,
    0,
    0,
    0,
    0,
    0,
    0,
    0,
    0,
    0,
    0,
    0,
    0,
    0,
    0,
    0,
    0,
    0,
    0,
    0,
    0,
    0,
    0,
    0,
    0,
    0,
    0,
    0,
    0,
    0,
    0,
    0,
    0,
    0,
    0,
    0,
    0,
    0,
    0,
    0,
    0,
    0,
    0,
    0,
    0,
    0,
    0,
    0,
    0,
    0,
    0,
    0,
    0,
    0,
    0,
    0,
    0,
    0,
    0,
    0,
    0,
    0,
    0,
    0,
    0,
    0,
    0,
    0,
    0,
    0,
    0,
    0,
    0,
    0,
    0,
    0,
    0,
    0,
    0,
    0,
    0,
    0,
    0,
    0,
    0,
    0,
    0,
    0,
    0,
    0,
    0,
    0,
    0,
    0,
    0,
    0,
    0,
    0,
    0,
    0,
    0,
    0,
    0,
    0,
    0,
    0,
    0,
    0,
    0,
    0,
    0,
    0,
    0,
    0,
    0,
    0,
    0,
    0,
    0,
    0,
    0,
    0,
    0,
    0,
    0,
    0,
    0,
    0,
    0,
    0,
    0,
    0,
    0,
    0,
    0,
    0,
    0,
    0,
    399,
    400,
    0,
    0,
    0,
    0,
    0,
    0,
    0,
    0,
    0,
    0,
    0,
    0,
    0,
    0,
    0,
    0,
    0,
    0,
    0,
    0,
    0,
    0,
    0,
    0,
    0,
    0,
    0,
    0,
    0,
    0,
    0,
    0,
    0,
    0,
    0,
    0,
    0,
    0,
    0,
    0,
    0,
    0,
    0,
    0,
    0,
    0,
    0,
    0,
    0,
    0,
    0,
    0,
    0,
    0,
    0,
    0,
    0,
    0,
    0,
    0,
    0,
    0,
    0,
    0,
    0,
    0,
    0,
    0,
    0,
    0,
    0,
    0,
    0,
    0,
    0,
    0,
    0,
    0,
    0,
    0,
    0,
    0,
    0,
    0,
    0,
    0,
    0,
    0,
    0,
    0,
    0,
    0,
    0,
    0,
    0,
    0,
    0,
    0,
    0,
    0,
    0,
    0,
    0,
    0,
    0,
    0,
    0,
    0,
    0,
    0,
    0,
    0,
    0,
    0,
    0,
    0,
    0,
    0,
    0,
    0,
    0,
    0,
    0,
    0,
    0,
    0,
    0,
    0,
    0,
    0,
    0,
    0,
    0,
    0,
    0,
    0,
    0,
    0,
    0,
    0,
    0,
    0,
    0,
    0,
    0,
    0,
    0,
    0,
    0,
    0,
    0,
    0,
    0,
    0,
    0,
    0,
    0,
    0,
    0,
    0,
    0,
    0,
    0,
    0,
    0,
    0,
    0,
    0,
    0,
    0,
    0,
    0,
    0,
    0,
    0,
    0,
    0,
    0,
    0,
    0,
    0,
    0,
    0,
    0,
    0,
    0,
    0,
    0,
    0,
    0,
    0,
    0,
    0,
    0,
    0,
    0,
    0,
    0,
    0,
    0,
    0,
    0,
    0,
    0,
    0,
    0,
    0,
    0,
    0,
    0,
    0,
    0,
    0,
    0,
    0,
    0,
    0,
    0,
    0,
    0,
    0,
    0,
    0,
    0,
    0,
    0,
    0,
    0,
    0,
    0,
    0,
    0,
    0,
    0,
    0,
    0,
    0,
    0,
    0,
    0,
    0,
    0,
    0,
    0,
    0,
    0,
    0,
    0,
    0,
    0,
    0,
    0,
    0,
    0,
    0,
    0,
    0,
    0,
    0,
    0,
    0,
    0,
    0,
    0,
    0,
    0,
    0,
    0,
    0,
    0,
    0,
    0,
    0,
    0,
    0,
    0,
    0,
    0,
    0,
    0,
    0,
    0,
    0,
    0,
    0,
    0,
    0,
    0,
    0,
    0,
    0,
    0,
    0,
    0,
    0,
    0,
    0,
    0,
    0,
    0,
    0,
    0,
    0,
    0,
    0,
    0,
    0,
    0,
    0,
    0,
    0,
    0,
    0,
    0,
    0,
    0,
    0,
    0,
    0,
    0,
    0,
    0,
    0,
    0,
    0,
    0,
    0,
    0,
    0,
    0,
    0,
    0,
    0,
    0,
    0,
    0,
    0,
    0,
    0,
    0,
    0,
    0,
    0,
    0,
    0,
    0,
    0,
    0,
    0,
    0,
    0,
    0,
    0,
    0,
    0,
    0,
    0,
    0,
    0,
    0,
    0,
    0,
    0,
    0,
    0,
    0,
    0,
    0,
    0,
    0,
    0,
    0,
    0,
    0,
    0,
    0,
    0,
    0,
    0,
    0,
    0,
    0,
    0,
    0,
    0,
    0,
    0,
    0,
    0,
    0,
    0,
    0,
    0,
    0,
    0,
    0,
    0,
    0,
    0,
    0,
    0,
    0,
    0,
    0,
    0,
    0,
    0,
    0,
    0,
    0,
    0,
    0,
    0,
    0,
    0,
    0,
    0,
    0,
    0,
    0,
    0,
    0,
    0,
    0,
    0,
    0,
    0,
    0,
    0,
    0,
    0,
    0,
    0,
    0,
    0,
    0,
    0,
    0,
    0,
    0,
    0,
    0,
    0,
    0,
    0,
    0,
    0,
    0,
    0,
    0,
    0,
    0,
    0,
    0,
    0,
    0,
    0,
    0,
    0,
    0,
    0,
    0,
    0,
    0,
    0,
    0,
    0,
    0,
    0,
    0,
    0,
    0,
    0,
    0,
    0,
    0,
    0,
    0,
    0,
    0,
    0,
    0,
    0,
    0,
    0,
    0,
    0,
    0,
    0,
    0,
    0,
    0,
    0,
    0,
    0,
    0,
    0,
    0,
    0,
    0,
    0,
    0,
    0,
    0,
    0,
    0,
    0,
    0,
    0,
    0,
    0,
    0,
    0,
    0,
    0,
    0,
    0,
    0,
    0,
    0,
    0,
    0,
    0,
    0,
    0,
    0,
    0,
    0,
    0,
    0,
    0,
    0,
    0,
    0,
    0,
    0,
    0,
    0,
    0,
    0,
    0,
    0,
    0,
    0,
    0,
    0,
    0,
    0,
    0,
    0,
    0,
    0,
    0,
    0,
    0,
    0,
    0,
    0,
    0,
    0,
    0,
    0,
    0,
    0,
    0,
    0,
    0,
    0,
    0,
    435,
    436,
    437,
    0,
    0,
    0,
    0,
    0,
    0,
    0,
    0,
    0,
    0,
    0,
    0,
    0,
    0,
    0,
    0,
    0,
    0,
    0,
    0,
    0,
    0,
    0,
    0,
    0,
    0,
    0,
    0,
    0,
    0,
    0,
    0,
    0,
    0,
    0,
    0,
    0,
    0,
    0,
    0,
    0,
    0,
    0,
    0,
    0,
    0,
    0,
    0,
    0,
    0,
    0,
    0,
    0,
    0,
    0,
    0,
    0,
    0,
    0,
    0,
    0,
    0,
    0,
    0,
    0,
    0,
    0,
    0,
    0,
    0,
    0,
    0,
    0,
    0,
    0,
    0,
    0,
    0,
    0,
    0,
    0,
    0,
    0,
    0,
    0,
    0,
    0,
    0,
    0,
    0,
    0,
    0,
    0,
    438,
    439,
    440,
    0,
    0,
    0,
    0,
    0,
    0,
    0,
    0,
    0,
    0,
    0,
    0,
    0,
    0,
    0,
    0,
    0,
    0,
    0,
    0,
    0,
    0,
    0,
    0,
    0,
    0,
    0,
    0,
    0,
    0,
    0,
    0,
    0,
    0,
    0,
    0,
    0,
    0,
    0,
    0,
    0,
    0,
    0,
    0,
    0,
    0,
    0,
    0,
    0,
    0,
    0,
    0,
    0,
    0,
    0,
    0,
    0,
    0,
    0,
    0,
    0,
    0,
    0,
    0,
    0,
    0,
    0,
    0,
    0,
    0,
    0,
    0,
    0,
    0,
    0,
    0,
    0,
    0,
    0,
    0,
    0,
    0,
    0,
    0,
    0,
    0,
    0,
    0,
    0,
    0,
    0,
    0,
    0,
    0,
    0,
    0,
    0,
    0,
    0,
    0,
    0,
    0,
    0,
    0,
    0,
    0,
    0,
    0,
    0,
    0,
    0,
    0,
    0,
    0,
    0,
    0,
    0,
    0,
    0,
    0,
    0,
    0,
    0,
    0,
    0,
    0,
    0,
    0,
    0,
    0,
    0,
    0,
    0,
    0,
    0,
    0,
    0,
    0,
    0,
    0,
    0,
    0,
    0,
    0,
    0,
    0,
    0,
    0,
    0,
    0,
    0,
    0,
    0,
    0,
    0,
    0,
    0,
    0,
    0,
    0,
    0,
    0,
    0,
    0,
    0,
    0,
    0,
    0,
    0,
    0,
    0,
    0,
    0,
    0,
    0,
    0,
    0,
    0,
    0,
    0,
    0,
    0,
    0,
    0,
    0,
    0,
    0,
    0,
    0,
    0,
    0,
    0,
    0,
    0,
    0,
    0,
    0,
    0,
    0,
    0,
    0,
    0,
    0,
    0,
    0,
    0,
    0,
    0,
    0,
    0,
    0,
    0,
    0,
    0,
    0,
    0,
    0,
    0,
    0,
    0,
    0,
    0,
    0,
    0,
    0,
    0,
    0,
    0,
    0,
    0,
    0,
    0,
    0,
    0,
    0,
    0,
    0,
    0,
    0,
    0,
    0,
    0,
    0,
    0,
    0,
    0,
    0,
    0,
    0,
    0,
    0,
    0,
    0,
    0,
    0,
    0,
    0,
    0,
    0,
    0,
    0,
    0,
    0,
    0,
    0,
    0,
    0,
    0,
    0,
    0,
    0,
    0,
    0,
    0,
    0,
    0,
    0,
    0,
    0,
    0,
    0,
    0,
    0,
    0,
    0,
    0,
    0,
    0,
    0,
    0,
    0,
    0,
    0,
    0,
    0,
    0,
    0,
    0,
    0,
    0,
    0,
    0,
    0,
    0,
    0,
    0,
    0,
    0,
    0,
    0,
    0,
    0,
    0,
    0,
    0,
    0,
    0,
    0,
    0,
    0,
    0,
    0,
    0,
    0,
    0,
    0,
    0,
    0,
    0,
    0,
    0,
    0,
    0,
    0,
    0,
    0,
    0,
    0,
    0,
    0,
    0,
    0,
    0,
    0,
    0,
    0,
    0,
    0,
    0,
    0,
    0,
    0,
    0,
    0,
    0,
    0,
    0,
    0,
    0,
    0,
    0,
    0,
    0,
    0,
    0,
    0,
    0,
    0,
    0,
    0,
    0,
    0,
    0,
    0,
    0,
    0,
    0,
    0,
    0,
    0,
    0,
    0,
    0,
    0,
    0,
    0,
    0,
    0,
    0,
    0,
    0,
    0,
    0,
    0,
    0,
    0,
    0,
    0,
    0,
    0,
    0,
    0,
    0,
    0,
    0,
    0,
    0,
    0,
    0,
    0,
    0,
    0,
    0,
    0,
    0,
    0,
    0,
    0,
    0,
    0,
    0,
    0,
    0,
    0,
    0,
    0,
    0,
    0,
    0,
    0,
    0,
    0,
    0,
    0,
    0,
    0,
    0,
    0,
    0,
    0,
    0,
    0,
    0,
    0,
    0,
    0,
    0,
    0,
    0,
    0,
    0,
    0,
    0,
    0,
    0,
    0,
    0,
    0,
    0,
    0,
    0,
    0,
    0,
    0,
    0,
    0,
    0,
    0,
    0,
    0,
    0,
    0,
    0,
    0,
    0,
    0,
    0,
    0,
    0,
    0,
    0,
    0,
    0,
    0,
    0,
    0,
    0,
    0,
    0,
    0,
    0,
    0,
    0,
    0,
    0,
    0,
    0,
    435,
    436,
    437,
    0,
    0,
    0,
    0,
    0,
    0,
    0,
    0,
    0,
    0,
    0,
    0,
    0,
    0,
    0,
    0,
    0,
    0,
    0,
    0,
    0,
    0,
    0,
    0,
    0,
    0,
    0,
    0,
    0,
    0,
    0,
    0,
    0,
    0,
    0,
    0,
    0,
    0,
    0,
    0,
    0,
    0,
    0,
    0,
    0,
    0,
    0,
    0,
    0,
    435,
    436,
    437,
    0,
    0,
    0,
    0,
    0,
    0,
    0,
    0,
    0,
    0,
    0,
    0,
    0,
    0,
    0,
    0,
    0,
    0,
    0,
    0,
    0,
    0,
    0,
    0,
    0,
    0,
    0,
    0,
    0,
    0,
    453,
    454,
    455,
    0,
    0,
    0,
    0,
    0,
    0,
    0,
    0,
    438,
    439,
    440,
    0,
    0,
    0,
    0,
    0,
    0,
    0,
    0,
    0,
    0,
    0,
    0,
    444,
    445,
    446,
    0,
    0,
    0,
    0,
    0,
    0,
    0,
    0,
    0,
    0,
    0,
    0,
    0,
    0,
    0,
    0,
    0,
    444,
    445,
    446,
    0,
    0,
    0,
    0,
    0,
    0,
    0,
    0,
    0,
    0,
    0,
    0,
    0,
    0,
    438,
    439,
    440,
    0,
    0,
    0,
    0,
    0,
    0,
    0,
    0,
    0,
    0,
    0,
    0,
    0,
    462,
    463,
    464,
    0,
    0,
    0,
    0,
    0,
    0,
    0,
    0,
    0,
    0,
    0,
    0,
    0,
    0,
    456,
    457,
    458,
    0,
    0,
    0,
    0,
    0,
    0,
    0,
    0,
    0,
    0,
    0,
    0,
    0,
    0,
    0,
    0,
    0,
    0,
    0,
    0,
    0,
    0,
    0,
    447,
    448,
    449,
    0,
    0,
    0,
    0,
    0,
    0,
    0,
    0,
    0,
    0,
    0,
    0,
    0,
    0,
    0,
    0,
    0,
    447,
    448,
    449,
    0,
    0,
    0,
    0,
    0,
    0,
    0,
    0,
    0,
    0,
    0,
    0,
    0,
    0,
    0,
    0,
    0,
    0,
    0,
    0,
    0,
    0,
    0,
    0,
    0,
    0,
    0,
    0,
    0,
    0,
    465,
    466,
    467,
    0,
    0,
    0,
    0,
    0,
    0,
    0,
    0,
    0,
    0,
    0,
    0,
    0,
    0,
    0,
    0,
    0,
    0,
    0,
    0,
    0,
    0,
    0,
    0,
    0,
    0,
    0,
    0,
    0,
    0,
    0,
    0,
    0,
    0,
    0,
    0,
    0,
    0,
    0,
    0,
    0,
    0,
    0,
    0,
    0,
    0,
    0,
    0,
    0,
    0,
    0,
    0,
    0,
    0,
    0,
    0,
    0,
    0,
    0,
    0,
    0,
    0,
    0,
    0,
    0,
    0,
    0,
    0,
    0,
    0,
    0,
    0,
    0,
    0,
    0,
    0,
    0,
    0,
    0,
    0,
    0,
    0,
    0,
    0,
    0,
    0,
    0,
    0,
    0,
    0,
    0,
    0,
    0,
    0,
    0,
    0,
    0,
    0,
    0,
    0,
    0,
    0,
    0,
    0,
    0,
    0,
    0,
    0,
    0,
    0,
    0,
    0,
    0,
    0,
    0,
    0,
    0,
    0,
    0,
    0,
    0,
    0,
    0,
    0,
    0,
    0,
    0,
    0,
    0,
    0,
    0,
    0,
    0,
    0,
    0,
    0,
    0,
    0,
    0,
    0,
    0,
    0,
    0,
    0,
    0,
    0,
    0,
    0,
    0,
    0,
    0,
    0,
    0,
    0,
    0,
    0,
    0,
    0,
    0,
    0,
    0,
    0,
    0,
    0,
    0,
    0,
    0,
    0,
    0,
    0,
    0,
    0,
    0,
    0,
    0,
    0,
    0,
    0,
    0,
    0,
    0,
    0,
    0,
    0,
    0,
    0,
    0,
    0,
    0,
    0,
    0,
    0,
    0,
    0,
    0,
    0,
    0,
    0,
    0,
    0,
    0,
    0,
    0,
    0,
    0,
    0,
    0,
    0,
    0,
    0,
    0,
    0,
    0,
    0,
    0,
    0,
    0,
    0,
    0,
    0,
    0,
    0,
    0,
    0,
    0,
    0,
    0,
    0,
    0,
    0,
    0,
    0,
    0,
    0,
    0,
    0,
    0,
    0,
    0,
    0,
    0,
    0,
    0,
    0,
    0,
    0,
    0,
    0,
    0,
    0,
    0,
    0,
    0,
    0,
    0,
    0,
    0,
    0,
    0,
    0,
    0,
    0,
    0,
    0,
    0,
    0,
    0,
    0,
    0,
    0,
    0,
    0,
    0,
    0,
    0,
    0,
    0,
    0,
    0,
    0,
    0,
    0,
    0,
    0,
    0,
    0,
    0,
    0,
    0,
    0,
    0,
    0,
    0,
    0,
    0,
    0,
    0,
    0,
    0,
    0,
    0,
    0,
    0,
    0,
    0,
    0,
    0,
    0,
    0,
    0,
    0,
    0,
    0,
    0,
    0,
    0,
    0,
    0,
    0,
    0,
    0,
    0,
    0,
    0,
    0,
    0,
    0,
    0,
    0,
    0,
    0,
    0,
    0,
    0,
    0,
    0,
    0,
    0,
    0,
    0,
    0,
    0,
    0,
    0,
    0,
    0,
    0,
    0,
    0,
    0,
    0,
    0,
    0,
    0,
    0,
    0,
    0,
    0,
    0,
    0,
    0,
    0,
    0,
    0,
    0,
    0,
    0,
    0,
    0,
    0,
    0,
    0,
    0,
    0,
    0,
    0,
    0,
    0,
    0,
    0,
    0,
    0,
    0,
    0,
    0,
    0,
    0,
    0,
    0,
    0,
    0,
    0,
    0,
    0,
    0,
    0,
    0,
    0,
    0,
    0,
    0,
    0,
    0,
    0,
    0,
    0,
    0,
    0,
    0,
    0,
    0,
    0,
    0,
    0,
    0,
    0,
    0,
    0,
    0,
    0,
    0,
    0,
    0,
    0,
    0,
    0,
    0,
    0,
    0,
    0,
    0,
    0,
    0,
    0,
    0,
    0,
    0,
    0,
    0,
    0,
    0,
    0,
    0,
    0,
    0,
    0,
    0,
    0,
    0,
    0,
    0,
    0,
    0,
    0,
    0,
    0,
    0,
    0,
    0,
    0,
    0,
    0,
    0,
    0,
    0,
    0,
    0,
    0,
    0,
    0,
    0,
    0,
    0,
    0,
    0,
    0,
    0,
    0,
    0,
    0,
    0,
    0,
    0,
    0,
    0,
    0,
    0,
    0,
    0,
    0,
    0,
    0,
    0,
    0,
    0,
    0,
    0,
    0,
    0,
    0,
    0,
    0,
    0,
    0,
    0,
    0,
    0,
    0,
    0,
    0,
    0,
    0,
    0,
    0,
    0,
    0,
    0,
    0,
    0,
    0,
    0,
    0,
    0,
    0,
    0,
    0,
    0,
    0,
    0,
    0,
    0,
    0,
    0,
    0,
    0,
    0,
    0,
    0,
    0,
    0,
    0,
    0,
    0,
    0,
    0,
    0,
    0,
    0,
    0,
    0,
    0,
    0,
    0,
    0,
    0,
    0,
    0,
    0,
    0,
    0,
    0,
    0,
    0,
    0,
    0,
    0,
    0,
    0,
    0,
    0,
    0,
    0,
    0,
    0,
    0,
    0,
    0,
    0,
    0,
    0,
    0,
    0,
    0,
    0,
    0,
    0,
    0,
    0,
    0,
    0,
    0,
    0,
    0,
    0,
    0,
    0,
    0,
    0,
    0,
    0,
    0,
    0,
    0,
    0,
    0,
    0,
    0,
    0,
    0,
    0,
    0,
    0,
    0,
    0,
    0,
    0,
    0,
    0,
    0,
    0,
    0,
    0,
    0,
    0,
    0,
    0,
    0,
    0,
    0,
    0,
    0,
    0,
    0,
    0,
    0,
    0,
    0,
    0,
    0,
    0,
    0,
    0,
    0,
    0,
    0,
    0,
    0,
    0,
    0,
    0,
    0,
    0,
    0,
    0,
    0,
    0,
    0,
    0,
    0,
    0,
    0,
    0,
    0,
    0,
    0,
    0,
    0,
    0,
    0,
    0,
    0,
    0,
    0,
    0,
    0,
    0,
    0,
    0,
    0,
    0,
    0,
    0,
    0,
    0,
    0,
    0,
    0,
    0,
    0,
    0,
    0,
    0,
    0,
    0,
    0,
    0,
    0,
    0,
    0,
    0,
    0,
    0,
    0,
    0,
    0,
    0,
    0,
    0,
    0,
    0,
    0,
    0,
    0,
    0,
    0,
    0,
    0,
    0,
    0,
    0,
    0,
    0,
    0,
    0,
    0,
    0,
    0,
    0,
    0,
    0,
    0,
    0,
    0,
    0,
    0,
    0,
    0,
    0,
    0,
    0,
    0,
    0,
    0,
    0,
    0,
    0,
    0,
    0,
    0,
    0,
    0,
    0,
    0,
    0,
    0,
    0,
    0,
    0,
    0,
    0,
    0,
    0,
    0,
    0,
    0,
    0,
    0,
    0,
    0,
    0,
    0,
    0,
    0,
    0,
    0,
    0,
    0,
    0,
    0,
    0,
    0,
    0,
    0,
    0,
    0,
    0,
    0,
    0,
    0,
    0,
    0,
    0,
    0,
    0,
    0,
    0,
    0,
    0,
    0,
    0,
    0,
    0,
    0,
    0,
    0,
    0,
    0,
    0,
    0,
    0,
    0,
    0,
    0,
    0,
    0,
    0,
    0,
    0,
    0,
    0,
    0,
    0,
    0,
    0,
    0,
    0,
    0,
    0,
    0,
    0,
    0,
    0,
    0,
    0,
    0,
    0,
    0,
    0,
    0,
    0,
    0,
    0,
    0,
    0,
    0,
    0,
    0,
    0,
    0,
    0,
    0,
    0,
    0,
    0,
    0,
    0,
    0,
    0,
    0,
    0,
    0,
    0,
    0,
    0,
    0,
    0,
    0,
    0,
    0,
    0,
    0,
    0,
    0,
    0,
    0,
    0,
    0,
    0,
    0,
    0,
    0,
    0,
    0,
    0,
    0,
    0,
    0,
    0,
    0,
    0,
    0,
    0,
    0,
    0,
    0,
    0,
    0,
    0,
    0,
    0,
    0,
    0,
    0,
    0,
    0,
    0,
    0,
    0,
    0,
    0,
    0,
    0,
    0,
    0,
    0,
    0,
    0,
    0,
    0,
    0,
    0,
    0,
    0,
    0,
    0,
    0,
    0,
    0,
    0,
    0,
    0,
    0,
    0,
    0,
    0,
    0,
    0,
    0,
    0,
    0,
    0,
    0,
    0,
    0,
    0,
    0,
    0,
    0,
    0,
    0,
    0,
    0,
    0,
    0,
    0,
    0,
    0,
    0,
    0,
    0,
    0,
    0,
    0,
    0,
    0,
    0,
    0,
    0,
    0,
    0,
    0,
    0,
    0,
    0,
    0,
    0,
    0,
    0,
    0,
    0,
    0,
    0,
    0,
    0,
    0,
    0,
    0,
    0,
    0,
    0,
    0,
    0,
    0,
    0,
    0,
    0,
    0,
    0,
    0,
    0,
    0,
    0,
    0,
    0,
    0,
    0,
    0,
    0,
    0,
    0,
    0,
    0,
    0,
    0,
    0,
    0,
    0,
    0,
    0,
    0,
    0,
    0,
    0,
    0,
    0,
    0,
    0,
    0,
    0,
    0,
    0,
    0,
    0,
    0,
    0,
    0,
    0,
    0,
    0,
    0,
    0,
    0,
    0,
    0,
    0,
    0,
    0,
    0,
    0,
    0,
    0,
    0,
    0,
    0,
    0,
    0,
    0,
    0,
    0,
    0,
    0,
    0,
    0,
    0,
    0,
    0,
    0,
    0,
    0,
    0,
    0,
    0,
    0,
    0,
    0,
    0,
    0,
    0,
    0,
    0,
    0,
    0,
    0,
    0,
    0,
    0,
    0,
    0,
    0,
    0,
    0,
    0,
    0,
    0,
    0,
    0,
    0,
    0,
    0,
    0,
    0,
    0,
    0,
    0,
    0,
    0,
    0,
    0,
    0,
    0,
    0,
    0,
    0,
    0,
    0,
    0,
    0,
    0,
    0,
    0,
    0,
    0,
    0,
    0,
    0,
    0,
    0,
    0,
    0,
    0,
    0,
    0,
    0,
    0,
    0,
    0,
    0,
    0,
    0,
    0,
    0,
    0,
    0,
    0,
    0,
    0,
    0,
    0,
    0,
    0,
    0,
    0,
    0,
    0,
    0,
    0,
    0,
    0,
    0,
    0,
    0,
    0,
    0,
    0,
    0,
    0,
    0,
    0,
    0,
    0,
    0,
    0,
    0,
    0,
    0,
    0,
    0,
    0,
    0,
    0,
    0,
    0,
    0,
    0,
    0,
    0,
    0,
    0,
    0,
    0,
    0,
    0,
    0,
    0,
    0,
    0,
    0,
    0,
    0,
    0,
    0,
    0,
    0,
    0,
    0,
    0,
    0,
    0,
    0,
    0,
    0,
    0,
    0,
    0,
    0,
    0,
    0,
    0,
    0,
    0,
    0,
    0,
    0,
    0,
    0,
    0,
    0,
    0,
    0,
    0,
    0,
    0,
    0,
    0,
    0,
    0,
    0,
    0,
    0,
    0,
    0,
    0,
    0,
    0,
    0,
    0,
    0,
    0,
    0,
    0,
    0,
    0,
    0,
    0,
    0,
    0,
    0,
    0,
    0,
    0,
    0,
    0,
    0,
    0,
    0,
    0,
    0,
    0,
    0,
    0,
    0,
    0,
    0,
    0,
    0,
    0,
    0,
    0,
    0,
    0,
    0,
    0,
    0,
    0,
    0,
    0,
    0,
    0,
    0,
    0,
    0,
    0,
    0,
    0,
    0,
    0,
    0,
    0,
    0,
    0,
    0,
    0,
    0,
    0,
    0,
    0,
    0,
    0,
    0,
    0,
    0,
    0,
    0,
    0,
    0,
    0,
    0,
    0,
    0,
    0,
    0,
    0,
    0,
    0,
    0,
    0,
    0,
    0,
    0,
    0,
    0,
    0,
    0,
    0,
    0,
    0,
    0,
    0,
    0,
    0,
    0,
    0,
    0,
    0,
    0,
    0,
    0,
    0,
    0,
    0,
    0,
    0,
    0,
    0,
    0,
    0,
    0,
    0,
    0,
    0,
    0,
    0,
    0,
    0,
    0,
    0,
    0,
    0,
    0,
    0,
    0,
    0,
    0,
    0,
    0,
    0,
    0,
    0,
    0,
    0,
    0,
    0,
    0,
    0,
    0,
    0,
    0,
    0,
    0,
    0,
    0,
    0,
    0,
    0,
    0,
    0,
    0,
    0,
    0,
    0,
    0,
    0,
    0,
    0,
    0,
    0,
    0,
    0,
    0,
    0,
    0,
    0,
    0,
    0,
    0,
    0,
    0,
    0,
    0,
    0,
    0,
    0,
    0,
    0,
    0,
    0,
    0,
    0,
    0,
    0,
    0,
    0,
    0,
    0,
    0,
    0,
    0,
    0,
    0,
    0,
    0,
    0,
    0,
    0,
    0,
    0,
    0,
    0,
    0,
    0,
    0,
    0,
    0,
    0,
    0,
    0,
    0,
    0,
    0,
    0,
    0,
    0,
    0,
    0,
    0,
    0,
    0,
    0,
    0,
    0,
    0,
    0,
    0,
    0,
    0,
    0,
    0,
    0,
    0,
    0,
    0,
    0,
    0,
    0,
    0,
    0,
    0,
    0,
    0,
    0,
    0,
    0,
    0,
    0,
    0,
    0,
    0,
    0,
    0,
    0,
    0,
    0,
    0,
    0,
    0,
    0,
    0,
    0,
    0,
    0,
    0,
    0,
    0,
    0,
    0,
    0,
    0,
    0,
    0,
    0,
    0,
    0,
    0,
    0,
    0,
    0,
    0,
    0,
    0,
    0,
    0,
    0,
    0,
    0,
    0,
    0,
    0,
    0,
    0,
    0,
    0,
    0,
    0,
    0,
    0,
    0,
    0,
    0,
    0,
    0,
    0,
    0,
    0,
    0,
    0,
    0,
    0,
    0,
    0,
    0,
    0,
    0,
    0,
    0,
    0,
    0,
    0,
    0,
    0,
    0,
    0,
    0,
    0,
    0,
    0,
    0,
    0,
    0,
    0,
    0,
    0,
    0,
    0,
    0,
    0,
    0,
    0,
    0,
    0,
    0,
    0,
    0,
    0,
    0,
    0,
    0,
    0,
    0,
    0,
    0,
    0,
    0,
    0,
    0,
    0,
    0,
    0,
    0,
    0,
    0,
    0,
    0,
    0,
    0,
    0,
    0,
    0,
    0,
    0,
    0,
    0,
    0,
    0,
    0,
    0,
    0,
    0,
    0,
    0,
    0,
    0,
    0,
    0,
    0,
    0,
    0,
    0,
    0,
    0,
    0,
    0,
    0,
    0,
    0,
    0,
    0,
    0,
    0,
    0,
    0,
    0,
    0,
    0,
    0,
    0,
    0,
    0,
    0,
    0,
    0,
    0,
    0,
    0,
    0,
    0,
    0,
    0,
    0,
    0,
    0,
    0,
    0,
    0,
    0,
    0,
    0,
    0,
    0,
    0,
    0,
    0,
    0,
    0,
    0,
    0,
    0,
    0,
    0,
    0,
    0,
    0,
    0,
    0,
    0,
    0,
    0,
    0,
    0,
    0,
    0,
    0,
    0,
    0,
    0,
    0,
    0,
    0,
    0,
    0,
    0,
    0,
    0,
    0,
    0,
    0,
    0,
    0,
    0,
    0,
    0,
    0,
    0,
    0,
    0,
    0,
    0,
    0,
    0,
    0,
    0,
    0,
    0,
    0,
    0,
    0,
    0,
    0,
    0,
    0,
    0,
    0,
    0,
    0,
    0,
    0,
    0,
    0,
    0,
    0,
    0,
    0,
    0,
    0,
    0,
    0,
    0,
    0,
    0,
    0,
    0,
    0,
    0,
    0,
    0,
    0,
    0,
    0,
    0,
    0,
    0,
    0,
    0,
    0,
    0,
    0,
    0,
    0,
    0,
    0,
    0,
    0,
    0,
    0,
    0,
    0,
    0,
    0,
    0,
    0,
    0,
    0,
    0,
    0,
    0,
    0,
    0,
    0,
    0,
    0,
    0,
    0,
    0,
    0,
    0,
    0,
    0,
    0,
    0,
    0,
    0,
    0,
    0,
    0,
    0,
    0,
    0,
    0,
    0,
    0,
    0,
    0,
    0,
    0,
    0,
    0,
    0,
    0,
    0,
    0,
    0,
    0,
    0,
    0,
    0,
    0,
    0,
    0,
    0,
    0,
    0,
    0,
    0,
    0,
    0,
    0,
    0,
    0,
    0,
    0,
    0,
    0,
    0,
    0,
    0,
    0,
    0,
    0,
    0,
    0,
    0,
    0,
    0,
    0,
    0,
    0,
    0,
    0,
    0,
    0,
    0,
    0,
    0,
    0,
    0,
    0,
    0,
    0,
    0,
    0,
    0,
    0,
    0,
    0,
    0,
    0,
    0,
    0,
    0,
    0,
    0,
    0,
    0,
    0,
    0,
    0,
    0,
    0,
    0,
    0,
    0,
    0,
    0,
    0,
    0,
    0,
    0,
    0,
    0,
    0,
    0,
    0,
    0,
    0,
    0,
    0,
    0,
    0,
    0,
    0,
    0,
    0,
    0,
    0,
    0,
    0,
    0,
    0,
    0,
    0,
    0,
    0,
    0,
    0,
    0,
    0,
    0,
    0,
    0,
    0,
    0,
    0,
    0,
    0,
    0,
    0,
    0,
    0,
    0,
    0,
    0,
    0,
    0,
    0,
    0,
    0,
    0,
    0,
    0,
    0,
    0,
    0,
    0,
    0,
    0,
    0,
    0,
    0,
    0,
    0,
    0,
    0,
    0,
    0,
    0,
    0,
    0,
    0,
    0,
    0,
    0,
    0,
    0,
    0,
    0,
    0,
    0,
    0,
    0,
    0,
    0,
    0,
    0,
    0,
    0,
    0,
    0,
    0,
    0,
    0,
    0,
    0,
    0,
    0,
    0,
    0,
    0,
    0,
    0,
    0,
    0,
    0,
    0,
    0,
    0,
    0,
    0,
    0,
    0,
    0,
    0,
    0,
    0,
    0,
    0,
    0,
    0,
    0,
    0,
    0,
    0,
    0,
    0,
    0,
    0,
    0,
    0,
    0,
    0,
    0,
    0,
    0,
    0,
    0,
    0,
    0,
    0,
    0,
    0,
    0,
    0,
    0,
    0,
    0,
    0,
    0,
    0,
    0,
    0,
    0,
    0,
    0,
    0,
    0,
    0,
    0,
    0,
    0,
    0,
    0,
    0,
    0,
    0,
    0,
    0,
    0,
    0,
    0,
    0,
    0,
    0,
    0,
    0,
    0,
    0,
    0,
    0,
    0,
    0,
    0,
    0,
    0,
    0,
    0,
    0,
    0,
    0,
    0,
    0,
    0,
    0,
    0,
    0,
    0,
    0,
    0,
    0,
    0,
    0,
    0,
    0,
    0,
    0,
    0,
    0,
    0,
    0,
    0,
    0,
    0,
    0,
    0,
    0,
    0,
    0,
    0,
    0,
    0,
    0,
    0,
    0,
    0,
    0,
    0,
    0,
    0,
    0,
    0,
    0,
    0,
    0,
    0,
    0,
    0,
    0,
    0,
    0,
    0,
    0,
    0,
    0,
    0,
    0,
    0,
    0,
    0,
    0,
    0,
    0,
    0,
    0,
    0,
    0,
    0,
    0,
    0,
    0,
    0,
    0,
    0,
    0,
    0,
    0,
    0,
    0,
    0,
    0,
    0,
    0,
    0,
    0,
    0,
    0,
    0,
    0,
    0,
    0,
    0,
    0,
    0,
    0,
    0,
    0,
    0,
    0,
    0,
    0,
    0,
    0,
    0,
    0,
    0,
    0,
    0,
    0,
    0,
    0,
    0,
    0,
    0,
    0,
    0,
    0,
    0,
    0,
    0,
    0,
    0,
    0,
    0,
    0,
    0,
    0,
    0,
    0,
    0,
    0,
    0,
    0,
    0,
    0,
    0,
    0,
    0,
    0,
    0,
    0,
    0,
    0,
    0,
    0,
    0,
    0,
    0,
    0,
    0,
    0,
    0,
    0,
    0,
    0,
    0,
    0,
    0,
    0,
    0,
    0,
    0,
    0,
    0,
    0,
    0,
    0,
    0,
    0,
    0,
    0,
    0,
    0,
    0,
    0,
    0,
    0,
    0,
    0,
    0,
    0,
    0,
    0,
    0,
    0,
    0,
    0,
    0,
    0,
    0,
    0,
    0,
    0,
    0,
    0,
    0,
    0,
    0,
    0,
    0,
    0,
    0,
    0,
    0,
    0,
    0,
    0,
    0,
    0,
    0,
    0,
    0,
    0,
    0,
    0,
    0,
    0,
    0,
    0,
    0,
    0,
    0,
    0,
    0,
    0,
    0,
    0,
    0,
    0,
    0,
    0,
    0,
    0,
    0,
    0,
    0,
    0,
    0,
    0,
    0,
    0,
    0,
    0,
    0,
    0,
    0,
    0,
    0,
    0,
    0,
    0,
    0,
    0,
    0,
    0,
    0,
    0,
    0,
    0,
    0,
    0,
    0,
    0,
    0,
    0,
    0,
    0,
    0,
    0,
    0,
    0,
    0,
    0,
    0,
    0,
    0,
    0,
    0,
    0,
    0,
    0,
    0,
    0,
    0,
    0,
    0,
    0,
    0,
    0,
    0,
    0,
    0,
    0,
    0,
    0,
    0,
    0,
    0,
    0,
    0,
    0,
    0,
    0,
    0,
    0,
    0,
    0,
    0,
    0,
    0,
    0,
    0,
    0,
    0,
    0,
    0,
    0,
    0,
    0,
    0,
    0,
    0,
    0,
    0,
    0,
    0,
    0,
    0,
    0,
    0,
    0,
    0,
    0,
    0,
    0,
    0,
    0,
    0,
    0,
    0,
    0,
    0,
    0,
    0,
    0,
    0,
    0,
    0,
    0,
    0,
    0,
    0,
    0,
    0,
    0,
    0,
    0,
    0,
    0,
    0,
    0,
    0,
    0,
    0,
    0,
    0,
    0,
    0,
    0,
    0,
    0,
    0,
    0,
    0,
    0,
    0,
    0,
    0,
    0,
    0,
    0,
    0,
    0,
    0,
    0,
    0,
    0,
    0,
    0,
    0,
    0,
    0,
    0,
    0,
    0,
    0,
    0,
    0,
    0,
    0,
    0,
    0,
    0,
    0,
    0,
    0,
    0,
    0,
    0,
    0,
    0,
    0,
    0,
    0,
    0,
    0,
    0,
    0,
    0,
    0,
    0,
    0,
    0,
    0,
    0,
    0,
    0,
    0,
    0,
    0,
    0,
    0,
    0,
    0,
    0,
    0,
    0,
    0,
    0,
    0,
    0,
    0,
    0,
    0,
    0,
    0,
    0,
    0,
    0,
    0,
    0,
    0,
    0,
    0,
    435,
    436,
    437,
    0,
    0,
    0,
    0,
    0,
    0,
    0,
    0,
    0,
    0,
    0,
    0,
    0,
    0,
    0,
    0,
    0,
    0,
    0,
    0,
    0,
    0,
    0,
    0,
    0,
    0,
    0,
    0,
    0,
    0,
    0,
    0,
    0,
    0,
    0,
    0,
    0,
    0,
    0,
    0,
    0,
    0,
    0,
    0,
    0,
    435,
    436,
    437,
    0,
    0,
    0,
    0,
    0,
    0,
    0,
    0,
    0,
    0,
    0,
    0,
    0,
    0,
    0,
    0,
    0,
    0,
    0,
    0,
    0,
    0,
    0,
    0,
    0,
    0,
    0,
    0,
    0,
    0,
    0,
    0,
    0,
    0,
    0,
    0,
    0,
    0,
    0,
    0,
    0,
    0,
    0,
    0,
    0,
    438,
    439,
    440,
    0,
    0,
    0,
    0,
    0,
    0,
    0,
    0,
    0,
    0,
    0,
    0,
    0,
    0,
    0,
    0,
    0,
    0,
    0,
    0,
    0,
    0,
    0,
    0,
    0,
    0,
    0,
    0,
    0,
    0,
    0,
    0,
    0,
    0,
    0,
    0,
    0,
    0,
    0,
    0,
    0,
    0,
    0,
    0,
    0,
    438,
    439,
    440,
    0,
    0,
    0,
    0,
    0,
    0,
    0,
    0,
    0,
    0,
    0,
    0,
    0,
    0,
    0,
    0,
    0,
    0,
    0,
    0,
    0,
    0,
    0,
    0,
    0,
    0,
    0,
    0,
    0,
    0,
    0,
    0,
    0,
    0,
    0,
    0,
    0,
    0,
    0,
    0,
    0,
    0,
    0,
    0,
    0,
    0,
    0,
    0,
    0,
    0,
    0,
    0,
    0,
    0,
    0,
    0,
    0,
    0,
    0,
    0,
    0,
    0,
    0,
    0,
    0,
    0,
    0,
    0,
    0,
    0,
    0,
    0,
    0,
    0,
    0,
    0,
    0,
    0,
    0,
    0,
    0,
    0,
    0,
    0,
    0,
    0,
    0,
    0,
    0,
    0,
    0,
    0,
    0,
    0,
    0,
    0,
    0,
    0,
    0,
    0,
    0,
    0,
    0,
    0,
    0,
    0,
    0,
    0,
    0,
    0,
    0,
    0,
    0,
    0,
    0,
    0,
    0,
    0,
    0,
    0,
    0,
    0,
    0,
    0,
    0,
    0,
    0,
    0,
    0,
    0,
    0,
    0,
    0,
    0,
    0,
    0,
    0,
    0,
    0,
    0,
    0,
    0,
    0,
    0,
    0,
    0,
    0,
    0,
    0,
    0,
    0,
    0,
    0,
    0,
    0,
    0,
    0,
    0,
    0,
    0,
    0,
    0,
    0,
    0,
    0,
    0,
    0,
    0,
    0,
    0,
    0,
    0,
    0,
    0,
    0,
    0,
    0,
    0,
    0,
    0,
    0,
    0,
    0,
    0,
    0,
    0,
    0,
    0,
    0,
    0,
    0,
    0,
    0,
    0,
    0,
    0,
    0,
    0,
    0,
    0,
    0,
    0,
    0,
    0,
    0,
    0,
    0,
    0,
    0,
    0,
    0,
    0,
    0,
    0,
    0,
    0,
    0,
    0,
    0,
    0,
    0,
    0,
    0,
    0,
    0,
    0,
    0,
    0,
    0,
    0,
    0,
    0,
    0,
    0,
    0,
    0,
    0,
    0,
    0,
    0,
    0,
    0,
    0,
    0,
    0,
    0,
    0,
    0,
    0,
    0,
    0,
    0,
    0,
    0,
    0,
    0,
    0,
    0,
    0,
    0,
    0,
    0,
    0,
    0,
    0,
    0,
    0,
    0,
    0,
    0,
    0,
    0,
    0,
    0,
    0,
    0,
    0,
    0,
    0,
    0,
    0,
    0,
    0,
    0,
    0,
    0,
    0,
    0,
    0,
    0,
    0,
    0,
    0,
    0,
    0,
    0,
    0,
    0,
    0,
    0,
    0,
    0,
    0,
    0,
    0,
    0,
    0,
    0,
    0,
    0,
    0,
    0,
    0,
    0,
    0,
    0,
    0,
    0,
    0,
    0,
    0,
    0,
    0,
    0,
    0,
    0,
    0,
    0,
    0,
    0,
    0,
    0,
    0,
    0,
    0,
    0,
    0,
    0,
    0,
    0,
    0,
    0,
    0,
    0,
    0,
    0,
    0,
    0,
    0,
    0,
    0,
    0,
    0,
    0,
    0,
    0,
    0,
    0,
    0,
    0,
    0,
    0,
    0,
    0,
    0,
    0,
    0,
    0,
    0,
    0,
    0,
    0,
    0,
    0,
    0,
    0,
    0,
    0,
    0,
    0,
    0,
    0,
    0,
    0,
    0
   ]
  },
  {
   "id": 5,
   "type": "objectgroup",
   "name": "objects",
   "x": 0,
   "y": 0,
   "opacity": 1,
   "visible": true,
   "draworder": "topdown",
   "objects": [
    {
     "id": 1,
     "class": "area",
     "name": "campo-inicial",
     "x": 0,
     "y": 0,
     "width": 768,
     "height": 1152,
     "rotation": 0,
     "visible": true,
     "properties": [
      {
       "name": "id",
       "type": "string",
       "value": "campo-inicial"
      },
      {
       "name": "name",
       "type": "string",
       "value": "Campo Inicial"
      }
     ]
    },
    {
     "id": 2,
     "class": "spawnPoint",
     "name": "spawnPoint",
     "x": 64,
     "y": 96,
     "width": 32,
     "height": 32,
     "rotation": 0,
     "visible": true,
     "properties": []
    },
    {
     "id": 3,
     "class": "pokecenter",
     "name": "pokecenter",
     "x": 672,
     "y": 128,
     "width": 32,
     "height": 32,
     "rotation": 0,
     "visible": true,
     "properties": []
    },
    {
     "id": 4,
     "class": "spawn",
     "name": "spawn",
     "x": 16,
     "y": 48,
     "width": 256,
     "height": 256,
     "rotation": 0,
     "visible": true,
     "properties": [
      {
       "name": "species",
       "type": "string",
       "value": "zubat"
      },
      {
       "name": "minLevel",
       "type": "int",
       "value": 2
      },
      {
       "name": "maxLevel",
       "type": "int",
       "value": 5
      },
      {
       "name": "count",
       "type": "int",
       "value": 3
      },
      {
       "name": "respawnSeconds",
       "type": "int",
       "value": 20
      }
     ]
    },
    {
     "id": 5,
     "class": "spawn",
     "name": "spawn",
     "x": 240,
     "y": 400,
     "width": 256,
     "height": 256,
     "rotation": 0,
     "visible": true,
     "properties": [
      {
       "name": "species",
       "type": "string",
       "value": "bellsprout"
      },
      {
       "name": "minLevel",
       "type": "int",
       "value": 2
      },
      {
       "name": "maxLevel",
       "type": "int",
       "value": 6
      },
      {
       "name": "count",
       "type": "int",
       "value": 3
      },
      {
       "name": "respawnSeconds",
       "type": "int",
       "value": 20
      }
     ]
    },
    {
     "id": 6,
     "class": "spawn",
     "name": "spawn",
     "x": 464,
     "y": 752,
     "width": 256,
     "height": 256,
     "rotation": 0,
     "visible": true,
     "properties": [
      {
       "name": "species",
       "type": "string",
       "value": "diglett"
      },
      {
       "name": "minLevel",
       "type": "int",
       "value": 2
      },
      {
       "name": "maxLevel",
       "type": "int",
       "value": 5
      },
      {
       "name": "count",
       "type": "int",
       "value": 3
      },
      {
       "name": "respawnSeconds",
       "type": "int",
       "value": 20
      }
     ]
    },
    {
     "id": 7,
     "class": "spawn",
     "name": "spawn",
     "x": 208,
     "y": 304,
     "width": 256,
     "height": 256,
     "rotation": 0,
     "visible": true,
     "properties": [
      {
       "name": "species",
       "type": "string",
       "value": "gastly"
      },
      {
       "name": "minLevel",
       "type": "int",
       "value": 3
      },
      {
       "name": "maxLevel",
       "type": "int",
       "value": 6
      },
      {
       "name": "count",
       "type": "int",
       "value": 3
      },
      {
       "name": "respawnSeconds",
       "type": "int",
       "value": 20
      }
     ]
    },
    {
     "id": 8,
     "class": "spawn",
     "name": "spawn",
     "x": 432,
     "y": 656,
     "width": 256,
     "height": 256,
     "rotation": 0,
     "visible": true,
     "properties": [
      {
       "name": "species",
       "type": "string",
       "value": "vulpix"
      },
      {
       "name": "minLevel",
       "type": "int",
       "value": 3
      },
      {
       "name": "maxLevel",
       "type": "int",
       "value": 6
      },
      {
       "name": "count",
       "type": "int",
       "value": 3
      },
      {
       "name": "respawnSeconds",
       "type": "int",
       "value": 20
      }
     ]
    },
    {
     "id": 9,
     "class": "area",
     "name": "bosque-denso",
     "x": 768,
     "y": 0,
     "width": 768,
     "height": 1152,
     "rotation": 0,
     "visible": true,
     "properties": [
      {
       "name": "id",
       "type": "string",
       "value": "bosque-denso"
      },
      {
       "name": "name",
       "type": "string",
       "value": "Bosque Denso"
      }
     ]
    },
    {
     "id": 10,
     "class": "spawnPoint",
     "name": "spawnPoint",
     "x": 832,
     "y": 96,
     "width": 32,
     "height": 32,
     "rotation": 0,
     "visible": true,
     "properties": []
    },
    {
     "id": 11,
     "class": "pokecenter",
     "name": "pokecenter",
     "x": 1440,
     "y": 128,
     "width": 32,
     "height": 32,
     "rotation": 0,
     "visible": true,
     "properties": []
    },
    {
     "id": 12,
     "class": "spawn",
     "name": "spawn",
     "x": 784,
     "y": 48,
     "width": 256,
     "height": 256,
     "rotation": 0,
     "visible": true,
     "properties": [
      {
       "name": "species",
       "type": "string",
       "value": "bellsprout"
      },
      {
       "name": "minLevel",
       "type": "int",
       "value": 5
      },
      {
       "name": "maxLevel",
       "type": "int",
       "value": 9
      },
      {
       "name": "count",
       "type": "int",
       "value": 4
      },
      {
       "name": "respawnSeconds",
       "type": "int",
       "value": 20
      }
     ]
    },
    {
     "id": 13,
     "class": "spawn",
     "name": "spawn",
     "x": 1008,
     "y": 400,
     "width": 256,
     "height": 256,
     "rotation": 0,
     "visible": true,
     "properties": [
      {
       "name": "species",
       "type": "string",
       "value": "butterfree"
      },
      {
       "name": "minLevel",
       "type": "int",
       "value": 6
      },
      {
       "name": "maxLevel",
       "type": "int",
       "value": 10
      },
      {
       "name": "count",
       "type": "int",
       "value": 3
      },
      {
       "name": "respawnSeconds",
       "type": "int",
       "value": 20
      }
     ]
    },
    {
     "id": 14,
     "class": "spawn",
     "name": "spawn",
     "x": 784,
     "y": 784,
     "width": 256,
     "height": 256,
     "rotation": 0,
     "visible": true,
     "properties": [
      {
       "name": "species",
       "type": "string",
       "value": "scyther"
      },
      {
       "name": "minLevel",
       "type": "int",
       "value": 7
      },
      {
       "name": "maxLevel",
       "type": "int",
       "value": 10
      },
      {
       "name": "count",
       "type": "int",
       "value": 2
      },
      {
       "name": "respawnSeconds",
       "type": "int",
       "value": 20
      }
     ]
    },
    {
     "id": 15,
     "class": "spawn",
     "name": "spawn",
     "x": 976,
     "y": 304,
     "width": 256,
     "height": 256,
     "rotation": 0,
     "visible": true,
     "properties": [
      {
       "name": "species",
       "type": "string",
       "value": "jigglypuff"
      },
      {
       "name": "minLevel",
       "type": "int",
       "value": 5
      },
      {
       "name": "maxLevel",
       "type": "int",
       "value": 9
      },
      {
       "name": "count",
       "type": "int",
       "value": 3
      },
      {
       "name": "respawnSeconds",
       "type": "int",
       "value": 20
      }
     ]
    },
    {
     "id": 16,
     "class": "area",
     "name": "trilha-pedregosa",
     "x": 1536,
     "y": 0,
     "width": 768,
     "height": 1152,
     "rotation": 0,
     "visible": true,
     "properties": [
      {
       "name": "id",
       "type": "string",
       "value": "trilha-pedregosa"
      },
      {
       "name": "name",
       "type": "string",
       "value": "Trilha Pedregosa"
      }
     ]
    },
    {
     "id": 17,
     "class": "spawnPoint",
     "name": "spawnPoint",
     "x": 1600,
     "y": 96,
     "width": 32,
     "height": 32,
     "rotation": 0,
     "visible": true,
     "properties": []
    },
    {
     "id": 18,
     "class": "pokecenter",
     "name": "pokecenter",
     "x": 2208,
     "y": 128,
     "width": 32,
     "height": 32,
     "rotation": 0,
     "visible": true,
     "properties": []
    },
    {
     "id": 19,
     "class": "spawn",
     "name": "spawn",
     "x": 1552,
     "y": 48,
     "width": 256,
     "height": 256,
     "rotation": 0,
     "visible": true,
     "properties": [
      {
       "name": "species",
       "type": "string",
       "value": "diglett"
      },
      {
       "name": "minLevel",
       "type": "int",
       "value": 8
      },
      {
       "name": "maxLevel",
       "type": "int",
       "value": 13
      },
      {
       "name": "count",
       "type": "int",
       "value": 4
      },
      {
       "name": "respawnSeconds",
       "type": "int",
       "value": 20
      }
     ]
    },
    {
     "id": 20,
     "class": "spawn",
     "name": "spawn",
     "x": 1776,
     "y": 400,
     "width": 256,
     "height": 256,
     "rotation": 0,
     "visible": true,
     "properties": [
      {
       "name": "species",
       "type": "string",
       "value": "growlithe"
      },
      {
       "name": "minLevel",
       "type": "int",
       "value": 9
      },
      {
       "name": "maxLevel",
       "type": "int",
       "value": 14
      },
      {
       "name": "count",
       "type": "int",
       "value": 3
      },
      {
       "name": "respawnSeconds",
       "type": "int",
       "value": 20
      }
     ]
    },
    {
     "id": 21,
     "class": "spawn",
     "name": "spawn",
     "x": 1552,
     "y": 784,
     "width": 256,
     "height": 256,
     "rotation": 0,
     "visible": true,
     "properties": [
      {
       "name": "species",
       "type": "string",
       "value": "pikachu"
      },
      {
       "name": "minLevel",
       "type": "int",
       "value": 9
      },
      {
       "name": "maxLevel",
       "type": "int",
       "value": 14
      },
      {
       "name": "count",
       "type": "int",
       "value": 3
      },
      {
       "name": "respawnSeconds",
       "type": "int",
       "value": 20
      }
     ]
    },
    {
     "id": 22,
     "class": "area",
     "name": "margem-do-lago",
     "x": 2304,
     "y": 0,
     "width": 768,
     "height": 1152,
     "rotation": 0,
     "visible": true,
     "properties": [
      {
       "name": "id",
       "type": "string",
       "value": "margem-do-lago"
      },
      {
       "name": "name",
       "type": "string",
       "value": "Margem do Lago"
      }
     ]
    },
    {
     "id": 23,
     "class": "spawnPoint",
     "name": "spawnPoint",
     "x": 2368,
     "y": 96,
     "width": 32,
     "height": 32,
     "rotation": 0,
     "visible": true,
     "properties": []
    },
    {
     "id": 24,
     "class": "pokecenter",
     "name": "pokecenter",
     "x": 2976,
     "y": 1056,
     "width": 32,
     "height": 32,
     "rotation": 0,
     "visible": true,
     "properties": []
    },
    {
     "id": 25,
     "class": "spawn",
     "name": "spawn",
     "x": 2320,
     "y": 48,
     "width": 256,
     "height": 256,
     "rotation": 0,
     "visible": true,
     "properties": [
      {
       "name": "species",
       "type": "string",
       "value": "horsea"
      },
      {
       "name": "minLevel",
       "type": "int",
       "value": 10
      },
      {
       "name": "maxLevel",
       "type": "int",
       "value": 15
      },
      {
       "name": "count",
       "type": "int",
       "value": 4
      },
      {
       "name": "respawnSeconds",
       "type": "int",
       "value": 20
      }
     ]
    },
    {
     "id": 26,
     "class": "spawn",
     "name": "spawn",
     "x": 2736,
     "y": 400,
     "width": 256,
     "height": 256,
     "rotation": 0,
     "visible": true,
     "properties": [
      {
       "name": "species",
       "type": "string",
       "value": "staryu"
      },
      {
       "name": "minLevel",
       "type": "int",
       "value": 11
      },
      {
       "name": "maxLevel",
       "type": "int",
       "value": 16
      },
      {
       "name": "count",
       "type": "int",
       "value": 3
      },
      {
       "name": "respawnSeconds",
       "type": "int",
       "value": 20
      }
     ]
    },
    {
     "id": 27,
     "class": "spawn",
     "name": "spawn",
     "x": 2320,
     "y": 816,
     "width": 256,
     "height": 256,
     "rotation": 0,
     "visible": true,
     "properties": [
      {
       "name": "species",
       "type": "string",
       "value": "dratini"
      },
      {
       "name": "minLevel",
       "type": "int",
       "value": 12
      },
      {
       "name": "maxLevel",
       "type": "int",
       "value": 16
      },
      {
       "name": "count",
       "type": "int",
       "value": 2
      },
      {
       "name": "respawnSeconds",
       "type": "int",
       "value": 20
      }
     ]
    },
    {
     "id": 28,
     "class": "area",
     "name": "praia-longa",
     "x": 0,
     "y": 1152,
     "width": 768,
     "height": 1152,
     "rotation": 0,
     "visible": true,
     "properties": [
      {
       "name": "id",
       "type": "string",
       "value": "praia-longa"
      },
      {
       "name": "name",
       "type": "string",
       "value": "Praia Longa"
      }
     ]
    },
    {
     "id": 29,
     "class": "spawnPoint",
     "name": "spawnPoint",
     "x": 64,
     "y": 1248,
     "width": 32,
     "height": 32,
     "rotation": 0,
     "visible": true,
     "properties": []
    },
    {
     "id": 30,
     "class": "pokecenter",
     "name": "pokecenter",
     "x": 544,
     "y": 1280,
     "width": 32,
     "height": 32,
     "rotation": 0,
     "visible": true,
     "properties": []
    },
    {
     "id": 31,
     "class": "spawn",
     "name": "spawn",
     "x": 16,
     "y": 1200,
     "width": 256,
     "height": 256,
     "rotation": 0,
     "visible": true,
     "properties": [
      {
       "name": "species",
       "type": "string",
       "value": "squirtle"
      },
      {
       "name": "minLevel",
       "type": "int",
       "value": 12
      },
      {
       "name": "maxLevel",
       "type": "int",
       "value": 17
      },
      {
       "name": "count",
       "type": "int",
       "value": 3
      },
      {
       "name": "respawnSeconds",
       "type": "int",
       "value": 20
      }
     ]
    },
    {
     "id": 32,
     "class": "spawn",
     "name": "spawn",
     "x": 240,
     "y": 1552,
     "width": 256,
     "height": 256,
     "rotation": 0,
     "visible": true,
     "properties": [
      {
       "name": "species",
       "type": "string",
       "value": "staryu"
      },
      {
       "name": "minLevel",
       "type": "int",
       "value": 13
      },
      {
       "name": "maxLevel",
       "type": "int",
       "value": 18
      },
      {
       "name": "count",
       "type": "int",
       "value": 3
      },
      {
       "name": "respawnSeconds",
       "type": "int",
       "value": 20
      }
     ]
    },
    {
     "id": 33,
     "class": "spawn",
     "name": "spawn",
     "x": 16,
     "y": 1168,
     "width": 256,
     "height": 256,
     "rotation": 0,
     "visible": true,
     "properties": [
      {
       "name": "species",
       "type": "string",
       "value": "doduo"
      },
      {
       "name": "minLevel",
       "type": "int",
       "value": 13
      },
      {
       "name": "maxLevel",
       "type": "int",
       "value": 18
      },
      {
       "name": "count",
       "type": "int",
       "value": 4
      },
      {
       "name": "respawnSeconds",
       "type": "int",
       "value": 20
      }
     ]
    },
    {
     "id": 34,
     "class": "area",
     "name": "entrada-da-caverna",
     "x": 768,
     "y": 1152,
     "width": 768,
     "height": 1152,
     "rotation": 0,
     "visible": true,
     "properties": [
      {
       "name": "id",
       "type": "string",
       "value": "entrada-da-caverna"
      },
      {
       "name": "name",
       "type": "string",
       "value": "Entrada da Caverna"
      }
     ]
    },
    {
     "id": 35,
     "class": "spawnPoint",
     "name": "spawnPoint",
     "x": 960,
     "y": 1248,
     "width": 32,
     "height": 32,
     "rotation": 0,
     "visible": true,
     "properties": []
    },
    {
     "id": 36,
     "class": "pokecenter",
     "name": "pokecenter",
     "x": 1440,
     "y": 2208,
     "width": 32,
     "height": 32,
     "rotation": 0,
     "visible": true,
     "properties": []
    },
    {
     "id": 37,
     "class": "spawn",
     "name": "spawn",
     "x": 816,
     "y": 1200,
     "width": 256,
     "height": 256,
     "rotation": 0,
     "visible": true,
     "properties": [
      {
       "name": "species",
       "type": "string",
       "value": "zubat"
      },
      {
       "name": "minLevel",
       "type": "int",
       "value": 15
      },
      {
       "name": "maxLevel",
       "type": "int",
       "value": 21
      },
      {
       "name": "count",
       "type": "int",
       "value": 5
      },
      {
       "name": "respawnSeconds",
       "type": "int",
       "value": 20
      }
     ]
    },
    {
     "id": 38,
     "class": "spawn",
     "name": "spawn",
     "x": 1008,
     "y": 1552,
     "width": 256,
     "height": 256,
     "rotation": 0,
     "visible": true,
     "properties": [
      {
       "name": "species",
       "type": "string",
       "value": "gastly"
      },
      {
       "name": "minLevel",
       "type": "int",
       "value": 16
      },
      {
       "name": "maxLevel",
       "type": "int",
       "value": 22
      },
      {
       "name": "count",
       "type": "int",
       "value": 3
      },
      {
       "name": "respawnSeconds",
       "type": "int",
       "value": 20
      }
     ]
    },
    {
     "id": 39,
     "class": "spawn",
     "name": "spawn",
     "x": 1232,
     "y": 1904,
     "width": 256,
     "height": 256,
     "rotation": 0,
     "visible": true,
     "properties": [
      {
       "name": "species",
       "type": "string",
       "value": "grimer"
      },
      {
       "name": "minLevel",
       "type": "int",
       "value": 17
      },
      {
       "name": "maxLevel",
       "type": "int",
       "value": 22
      },
      {
       "name": "count",
       "type": "int",
       "value": 3
      },
      {
       "name": "respawnSeconds",
       "type": "int",
       "value": 20
      }
     ]
    },
    {
     "id": 40,
     "class": "area",
     "name": "caverna-funda",
     "x": 1536,
     "y": 1152,
     "width": 768,
     "height": 1152,
     "rotation": 0,
     "visible": true,
     "properties": [
      {
       "name": "id",
       "type": "string",
       "value": "caverna-funda"
      },
      {
       "name": "name",
       "type": "string",
       "value": "Caverna Funda"
      }
     ]
    },
    {
     "id": 41,
     "class": "spawnPoint",
     "name": "spawnPoint",
     "x": 1600,
     "y": 1248,
     "width": 32,
     "height": 32,
     "rotation": 0,
     "visible": true,
     "properties": []
    },
    {
     "id": 42,
     "class": "pokecenter",
     "name": "pokecenter",
     "x": 2208,
     "y": 1280,
     "width": 32,
     "height": 32,
     "rotation": 0,
     "visible": true,
     "properties": []
    },
    {
     "id": 43,
     "class": "spawn",
     "name": "spawn",
     "x": 1552,
     "y": 1200,
     "width": 256,
     "height": 256,
     "rotation": 0,
     "visible": true,
     "properties": [
      {
       "name": "species",
       "type": "string",
       "value": "golbat"
      },
      {
       "name": "minLevel",
       "type": "int",
       "value": 20
      },
      {
       "name": "maxLevel",
       "type": "int",
       "value": 27
      },
      {
       "name": "count",
       "type": "int",
       "value": 4
      },
      {
       "name": "respawnSeconds",
       "type": "int",
       "value": 20
      }
     ]
    },
    {
     "id": 44,
     "class": "spawn",
     "name": "spawn",
     "x": 1808,
     "y": 1552,
     "width": 256,
     "height": 256,
     "rotation": 0,
     "visible": true,
     "properties": [
      {
       "name": "species",
       "type": "string",
       "value": "haunter"
      },
      {
       "name": "minLevel",
       "type": "int",
       "value": 21
      },
      {
       "name": "maxLevel",
       "type": "int",
       "value": 28
      },
      {
       "name": "count",
       "type": "int",
       "value": 3
      },
      {
       "name": "respawnSeconds",
       "type": "int",
       "value": 20
      }
     ]
    },
    {
     "id": 45,
     "class": "area",
     "name": "pico-rochoso",
     "x": 2304,
     "y": 1152,
     "width": 768,
     "height": 1152,
     "rotation": 0,
     "visible": true,
     "properties": [
      {
       "name": "id",
       "type": "string",
       "value": "pico-rochoso"
      },
      {
       "name": "name",
       "type": "string",
       "value": "Pico Rochoso"
      }
     ]
    },
    {
     "id": 46,
     "class": "spawnPoint",
     "name": "spawnPoint",
     "x": 2816,
     "y": 1248,
     "width": 32,
     "height": 32,
     "rotation": 0,
     "visible": true,
     "properties": []
    },
    {
     "id": 47,
     "class": "pokecenter",
     "name": "pokecenter",
     "x": 2976,
     "y": 2208,
     "width": 32,
     "height": 32,
     "rotation": 0,
     "visible": true,
     "properties": []
    },
    {
     "id": 48,
     "class": "spawn",
     "name": "spawn",
     "x": 2768,
     "y": 1200,
     "width": 256,
     "height": 256,
     "rotation": 0,
     "visible": true,
     "properties": [
      {
       "name": "species",
       "type": "string",
       "value": "rhydon"
      },
      {
       "name": "minLevel",
       "type": "int",
       "value": 25
      },
      {
       "name": "maxLevel",
       "type": "int",
       "value": 32
      },
      {
       "name": "count",
       "type": "int",
       "value": 3
      },
      {
       "name": "respawnSeconds",
       "type": "int",
       "value": 20
      }
     ]
    },
    {
     "id": 49,
     "class": "spawn",
     "name": "spawn",
     "x": 2384,
     "y": 1712,
     "width": 256,
     "height": 256,
     "rotation": 0,
     "visible": true,
     "properties": [
      {
       "name": "species",
       "type": "string",
       "value": "arcanine"
      },
      {
       "name": "minLevel",
       "type": "int",
       "value": 27
      },
      {
       "name": "maxLevel",
       "type": "int",
       "value": 35
      },
      {
       "name": "count",
       "type": "int",
       "value": 3
      },
      {
       "name": "respawnSeconds",
       "type": "int",
       "value": 20
      }
     ]
    }
   ]
  }
 ]
}