{
 "type": "map",
 "version": "1.10",
 "tiledversion": "1.11.0",
 "orientation": "orthogonal",
 "renderorder": "right-down",
 "infinite": false,
 "width": 40,
 "height": 30,
 "tilewidth": 32,
 "tileheight": 32,
 "nextlayerid": 5,
 "nextobjectid": 8,
 "tilesets": [
  {
   "firstgid": 1,
   "source": "../../../assets/atlas/tiles.tsj"
  }
 ],
 "layers": [
  {
   "id": 1,
   "type": "tilelayer",
   "name": "ground",
   "width": 40,
   "height": 30,
   "x": 0,
   "y": 0,
   "opacity": 1,
   "visible": true,
   "data": [
    3,
    2,
    1,
    3,
    2,
    1,
    4,
    1,
    2,
    1,
    3,
    2,
    3,
    3,
    2,
    2,
    1,
    3,
    4,
    1,
    2,
    1,
    1,
    1,
    3,
    1,
    1,
    1,
    1,
    1,
    1,
    4,
    4,
    1,
    1,
    1,
    1,
    1,
    1,
    1,
    3,
    2,
    3,
    1,
    2,
    3,
    1,
    2,
    2,
    1,
    1,
    2,
    1,
    3,
    1,
    3,
    1,
    2,
    1,
    3,
    2,
    1,
    1,
    1,
    1,
    3,
    1,
    3,
    4,
    3,
    1,
    4,
    3,
    3,
    2,
    3,
    2,
    2,
    1,
    2,
    1,
    2,
    2,
    3,
    1,
    4,
    2,
    2,
    1,
    1,
    1,
    1,
    4,
    3,
    2,
    1,
    1,
    1,
    1,
    1,
    1,
    1,
    3,
    4,
    3,
    1,
    1,
    1,
    1,
    106,
    110,
    110,
    110,
    110,
    110,
    110,
    108,
    1,
    3,
    3,
    4,
    1,
    4,
    3,
    4,
    4,
    1,
    1,
    3,
    1,
    2,
    1,
    1,
    1,
    1,
    1,
    3,
    2,
    2,
    1,
    1,
    4,
    4,
    3,
    2,
    1,
    3,
    1,
    3,
    107,
    5,
    6,
    7,
    5,
    5,
    5,
    116,
    3,
    2,
    4,
    1,
    4,
    4,
    4,
    1,
    4,
    1,
    1,
    1,
    3,
    2,
    4,
    1,
    1,
    1,
    1,
    3,
    4,
    1,
    2,
    1,
    2,
    2,
    2,
    2,
    3,
    2,
    1,
    1,
    107,
    7,
    11,
    11,
    11,
    11,
    11,
    116,
    1,
    1,
    1,
    1,
    1,
    3,
    1,
    3,
    4,
    3,
    1,
    1,
    1,
    3,
    1,
    1,
    3,
    1,
    3,
    1,
    1,
    1,
    1,
    1,
    2,
    1,
    3,
    3,
    1,
    4,
    1,
    4,
    107,
    5,
    11,
    11,
    11,
    11,
    11,
    116,
    1,
    2,
    3,
    1,
    1,
    2,
    1,
    1,
    1,
    2,
    1,
    4,
    4,
    1,
    2,
    1,
    1,
    1,
    1,
    3,
    4,
    1,
    4,
    1,
    1,
    4,
    3,
    1,
    3,
    2,
    3,
    1,
    107,
    5,
    11,
    11,
    11,
    11,
    11,
    116,
    2,
    1,
    1,
    2,
    2,
    1,
    1,
    1,
    3,
    1,
    2,
    3,
    4,
    1,
    2,
    1,
    3,
    1,
    1,
    4,
    1,
    4,
    1,
    2,
    1,
    1,
    1,
    3,
    2,
    4,
    1,
    2,
    107,
    7,
    11,
    11,
    11,
    11,
    11,
    116,
    1,
    4,
    1,
    1,
    1,
    1,
    3,
    2,
    2,
    3,
    1,
    3,
    3,
    3,
    1,
    1,
    1,
    1,
    1,
    1,
    4,
    3,
    4,
    3,
    1,
    1,
    1,
    4,
    1,
    4,
    3,
    2,
    105,
    115,
    6,
    5,
    7,
    117,
    113,
    112,
    1,
    1,
    3,
    2,
    1,
    1,
    3,
    1,
    1,
    3,
    1,
    4,
    4,
    1,
    4,
    2,
    1,
    2,
    1,
    3,
    1,
    1,
    1,
    2,
    2,
    2,
    1,
    2,
    4,
    3,
    1,
    1,
    1,
    107,
    7,
    7,
    5,
    116,
    1,
    1,
    3,
    2,
    1,
    1,
    3,
    4,
    3,
    4,
    1,
    3,
    1,
    3,
    1,
    3,
    3,
    2,
    3,
    1,
    3,
    1,
    3,
    1,
    1,
    4,
    106,
    110,
    108,
    3,
    1,
    106,
    110,
    110,
    110,
    111,
    5,
    6,
    117,
    112,
    1,
    3,
    2,
    1,
    3,
    1,
    1,
    3,
    4,
    2,
    3,
    1,
    2,
    1,
    1,
    1,
    1,
    1,
    3,
    3,
    2,
    1,
    1,
    1,
    1,
    106,
    111,
    6,
    118,
    110,
    110,
    111,
    6,
    7,
    5,
    5,
    5,
    117,
    112,
    2,
    3,
    2,
    1,
    1,
    4,
    3,
    2,
    1,
    1,
    1,
    4,
    2,
    1,
    3,
    1,
    1,
    1,
    4,
    1,
    4,
    2,
    4,
    1,
    2,
    106,
    111,
    5,
    6,
    7,
    5,
    6,
    5,
    6,
    5,
    5,
    5,
    117,
    112,
    1,
    1,
    2,
    1,
    3,
    1,
    3,
    1,
    3,
    1,
    2,
    1,
    3,
    1,
    4,
    3,
    1,
    4,
    4,
    1,
    3,
    4,
    2,
    3,
    4,
    2,
    107,
    6,
    5,
    117,
    113,
    113,
    113,
    113,
    113,
    113,
    113,
    113,
    112,
    1,
    1,
    3,
    2,
    1,
    1,
    4,
    3,
    1,
    1,
    1,
    1,
    1,
    3,
    120,
    124,
    124,
    124,
    124,
    122,
    1,
    3,
    4,
    2,
    1,
    1,
    4,
    107,
    5,
    117,
    112,
    1,
    1,
    1,
    2,
    2,
    1,
    4,
    1,
    1,
    2,
    1,
    3,
    1,
    1,
    1,
    1,
    1,
    1,
    3,
    1,
    1,
    4,
    120,
    8,
    9,
    9,
    9,
    8,
    8,
    8,
    124,
    122,
    1,
    2,
    3,
    1,
    107,
    7,
    116,
    3,
    1,
    1,
    1,
    1,
    4,
    4,
    1,
    1,
    1,
    1,
    1,
    1,
    1,
    2,
    3,
    1,
    1,
    1,
    1,
    4,
    3,
    120,
    9,
    16,
    16,
    16,
    16,
    16,
    16,
    16,
    9,
    9,
    122,
    3,
    3,
    1,
    107,
    7,
    116,
    2,
    2,
    1,
    2,
    1,
    1,
    1,
    2,
    4,
    1,
    1,
    1,
    3,
    2,
    1,
    1,
    1,
    2,
    1,
    2,
    1,
    2,
    121,
    8,
    16,
    16,
    16,
    16,
    16,
    16,
    16,
    16,
    16,
    8,
    124,
    122,
    1,
    107,
    7,
    116,
    1,
    3,
    1,
    1,
    1,
    4,
    1,
    2,
    4,
    2,
    1,
    3,
    4,
    3,
    4,
    1,
    3,
    1,
    1,
    4,
    4,
    1,
    121,
    8,
    16,
    16,
    16,
    16,
    16,
    16,
    16,
    16,
    16,
    16,
    8,
    130,
    2,
    107,
    7,
    116,
    4,
    3,
    4,
    1,
    1,
    2,
    1,
    1,
    3,
    1,
    3,
    1,
    1,
    1,
    2,
    1,
    1,
    1,
    2,
    2,
    2,
    120,
    125,
    8,
    16,
    16,
    16,
    16,
    16,
    16,
    16,
    16,
    16,
    16,
    8,
    132,
    122,
    107,
    5,
    118,
    108,
    1,
    1,
    2,
    2,
    4,
    4,
    1,
    4,
    1,
    1,
    2,
    3,
    1,
    4,
    1,
    3,
    3,
    1,
    1,
    1,
    121,
    8,
    16,
    16,
    16,
    16,
    16,
    16,
    16,
    16,
    16,
    16,
    16,
    9,
    9,
    130,
    107,
    5,
    5,
    116,
    1,
    4,
    4,
    2,
    3,
    3,
    1,
    1,
    4,
    1,
    1,
    2,
    1,
    1,
    1,
    4,
    1,
    1,
    1,
    3,
    119,
    9,
    16,
    16,
    16,
    16,
    16,
    16,
    16,
    16,
    16,
    16,
    8,
    8,
    127,
    126,
    107,
    5,
    6,
    116,
    1,
    1,
    1,
    4,
    4,
    2,
    1,
    3,
    1,
    1,
    3,
    1,
    2,
    1,
    4,
    1,
    1,
    1,
    2,
    2,
    2,
    119,
    9,
    8,
    16,
    16,
    16,
    16,
    16,
    10,
    8,
    9,
    8,
    8,
    110,
    110,
    111,
    5,
    117,
    112,
    1,
    1,
    2,
    3,
    1,
    2,
    1,
    1,
    2,
    3,
    1,
    4,
    2,
    4,
    2,
    1,
    2,
    4,
    1,
    2,
    106,
    110,
    10,
    127,
    8,
    8,
    8,
    9,
    9,
    9,
    10,
    5,
    5,
    5,
    6,
    5,
    5,
    117,
    112,
    1,
    1,
    4,
    4,
    1,
    3,
    4,
    1,
    3,
    1,
    1,
    1,
    1,
    3,
    1,
    4,
    1,
    1,
    1,
    3,
    106,
    111,
    7,
    118,
    110,
    8,
    8,
    8,
    8,
    8,
    5,
    6,
    5,
    5,
    7,
    5,
    7,
    5,
    116,
    1,
    2,
    1,
    4,
    3,
    1,
    1,
    1,
    3,
    4,
    3,
    1,
    4,
    3,
    3,
    2,
    1,
    1,
    4,
    1,
    3,
    107,
    5,
    5,
    6,
    5,
    6,
    5,
    5,
    7,
    5,
    117,
    113,
    113,
    113,
    113,
    113,
    113,
    113,
    112,
    1,
    2,
    1,
    4,
    1,
    4,
    2,
    1,
    1,
    2,
    1,
    4,
    4,
    1,
    3,
    1,
    3,
    4,
    1,
    2,
    4,
    105,
    113,
    113,
    113,
    113,
    113,
    113,
    113,
    113,
    113,
    112,
    1,
    1,
    1,
    1,
    1,
    1,
    1,
    4,
    1,
    4,
    3,
    1,
    1,
    3,
    1,
    1,
    4,
    4,
    3,
    1,
    4,
    2,
    3,
    1,
    2,
    3,
    4,
    1,
    1,
    1,
    3,
    1,
    2,
    1,
    3,
    1,
    1,
    2,
    1,
    3,
    4,
    3,
    1,
    4,
    4,
    3,
    1,
    2,
    4,
    2,
    1,
    1,
    1,
    1,
    1,
    4,
    1,
    1,
    3,
    2,
    1,
    2,
    1,
    1,
    1,
    1,
    3,
    1,
    1,
    4,
    1,
    4,
    1,
    4,
    1,
    1,
    1,
    3,
    2,
    1,
    1,
    1,
    1,
    4,
    1,
    3,
    3,
    3,
    1,
    1,
    1,
    1,
    3,
    2,
    3,
    1,
    3,
    1,
    3,
    1,
    2,
    3,
    3,
    1,
    1,
    1,
    2,
    4,
    1,
    1,
    1,
    1,
    4,
    2,
    1,
    1,
    1,
    1,
    3,
    1,
    1,
    4,
    1,
    1,
    1,
    1,
    2,
    1,
    2,
    2,
    1,
    4,
    1,
    2,
    2,
    3,
    4,
    3,
    4,
    3,
    3,
    1,
    1,
    3,
    3,
    2,
    3
   ]
  },
  {
   "id": 2,
   "type": "tilelayer",
   "name": "detail",
   "width": 40,
   "height": 30,
   "x": 0,
   "y": 0,
   "opacity": 1,
   "visible": true,
   "data": [
    24,
    25,
    28,
    29,
    24,
    25,
    24,
    25,
    24,
    25,
    28,
    29,
    24,
    25,
    24,
    25,
    24,
    25,
    36,
    37,
    28,
    29,
    24,
    25,
    24,
    25,
    24,
    25,
    36,
    37,
    36,
    37,
    24,
    25,
    24,
    25,
    36,
    37,
    36,
    37,
    26,
    27,
    30,
    31,
    26,
    27,
    26,
    27,
    26,
    27,
    30,
    31,
    26,
    27,
    26,
    27,
    26,
    27,
    38,
    39,
    30,
    31,
    26,
    27,
    26,
    27,
    26,
    27,
    38,
    39,
    38,
    39,
    26,
    27,
    26,
    27,
    38,
    39,
    38,
    39,
    36,
    37,
    0,
    0,
    0,
    0,
    0,
    0,
    0,
    0,
    0,
    0,
    0,
    0,
    0,
    0,
    0,
    0,
    0,
    0,
    0,
    0,
    0,
    0,
    0,
    0,
    0,
    0,
    0,
    0,
    0,
    0,
    0,
    0,
    0,
    0,
    0,
    0,
    36,
    37,
    38,
    39,
    0,
    0,
    0,
    0,
    0,
    30,
    31,
    0,
    0,
    26,
    27,
    30,
    31,
    0,
    0,
    0,
    0,
    0,
    0,
    30,
    31,
    0,
    0,
    0,
    0,
    0,
    0,
    0,
    0,
    0,
    0,
    0,
    0,
    0,
    0,
    0,
    38,
    39,
    24,
    25,
    0,
    0,
    0,
    30,
    31,
    0,
    0,
    0,
    0,
    0,
    0,
    0,
    0,
    0,
    0,
    0,
    0,
    0,
    0,
    0,
    0,
    26,
    27,
    30,
    31,
    26,
    27,
    0,
    0,
    0,
    0,
    0,
    0,
    0,
    0,
    0,
    24,
    25,
    26,
    27,
    0,
    26,
    27,
    0,
    0,
    0,
    0,
    0,
    0,
    0,
    38,
    39,
    0,
    26,
    27,
    0,
    0,
    0,
    0,
    0,
    0,
    40,
    41,
    0,
    0,
    0,
    0,
    0,
    0,
    0,
    0,
    0,
    0,
    0,
    0,
    0,
    26,
    27,
    28,
    29,
    0,
    0,
    0,
    0,
    0,
    0,
    0,
    0,
    44,
    45,
    0,
    0,
    0,
    0,
    0,
    0,
    0,
    0,
    0,
    0,
    0,
    0,
    0,
    0,
    26,
    27,
    0,
    0,
    0,
    0,
    0,
    0,
    0,
    0,
    0,
    0,
    36,
    37,
    30,
    31,
    0,
    57,
    0,
    0,
    0,
    38,
    39,
    0,
    0,
    0,
    0,
    0,
    38,
    39,
    0,
    0,
    0,
    38,
    39,
    0,
    0,
    0,
    0,
    0,
    0,
    0,
    0,
    0,
    0,
    0,
    0,
    0,
    0,
    0,
    0,
    0,
    38,
    39,
    28,
    29,
    0,
    0,
    0,
    0,
    0,
    0,
    0,
    0,
    26,
    27,
    0,
    0,
    59,
    0,
    0,
    0,
    0,
    0,
    0,
    0,
    0,
    0,
    40,
    41,
    26,
    27,
    0,
    0,
    0,
    0,
    0,
    0,
    0,
    0,
    0,
    0,
    36,
    37,
    30,
    31,
    0,
    0,
    0,
    0,
    26,
    27,
    0,
    0,
    0,
    0,
    0,
    0,
    0,
    0,
    0,
    0,
    0,
    0,
    38,
    39,
    0,
    0,
    0,
    0,
    0,
    0,
    60,
    0,
    0,
    0,
    0,
    0,
    0,
    0,
    0,
    0,
    38,
    39,
    24,
    25,
    57,
    38,
    39,
    0,
    0,
    0,
    0,
    0,
    0,
    0,
    0,
    0,
    0,
    0,
    0,
    0,
    0,
    0,
    0,
    0,
    0,
    0,
    0,
    0,
    0,
    0,
    0,
    0,
    0,
    0,
    0,
    0,
    0,
    48,
    49,
    0,
    28,
    29,
    26,
    27,
    0,
    0,
    0,
    0,
    0,
    0,
    0,
    58,
    0,
    0,
    0,
    0,
    0,
    0,
    0,
    0,
    0,
    0,
    0,
    0,
    0,
    0,
    0,
    0,
    0,
    0,
    0,
    0,
    0,
    0,
    0,
    0,
    0,
    0,
    0,
    0,
    30,
    31,
    24,
    25,
    0,
    26,
    27,
    0,
    0,
    0,
    0,
    0,
    0,
    0,
    0,
    30,
    31,
    0,
    0,
    0,
    0,
    0,
    0,
    0,
    0,
    0,
    0,
    0,
    0,
    0,
    0,
    0,
    0,
    0,
    0,
    0,
    0,
    0,
    0,
    0,
    28,
    29,
    26,
    27,
    0,
    0,
    0,
    0,
    0,
    0,
    38,
    39,
    0,
    0,
    0,
    0,
    0,
    0,
    38,
    39,
    0,
    0,
    0,
    0,
    0,
    0,
    0,
    0,
    0,
    0,
    0,
    0,
    0,
    0,
    0,
    0,
    0,
    26,
    27,
    0,
    30,
    31,
    36,
    37,
    0,
    0,
    0,
    0,
    0,
    0,
    0,
    0,
    26,
    27,
    0,
    0,
    0,
    0,
    0,
    0,
    0,
    0,
    0,
    0,
    0,
    0,
    0,
    0,
    0,
    0,
    0,
    0,
    0,
    0,
    38,
    39,
    0,
    0,
    0,
    0,
    24,
    25,
    38,
    39,
    0,
    0,
    38,
    39,
    26,
    27,
    0,
    0,
    0,
    0,
    0,
    0,
    0,
    0,
    0,
    0,
    0,
    0,
    0,
    0,
    0,
    0,
    30,
    31,
    38,
    39,
    0,
    0,
    0,
    0,
    0,
    0,
    38,
    39,
    0,
    0,
    26,
    27,
    28,
    29,
    0,
    0,
    0,
    0,
    0,
    0,
    0,
    0,
    0,
    0,
    0,
    0,
    26,
    27,
    0,
    0,
    0,
    0,
    0,
    0,
    0,
    0,
    0,
    0,
    0,
    0,
    0,
    0,
    57,
    0,
    0,
    0,
    0,
    0,
    0,
    0,
    24,
    25,
    30,
    31,
    0,
    0,
    0,
    0,
    0,
    0,
    0,
    0,
    0,
    0,
    0,
    0,
    0,
    0,
    38,
    39,
    0,
    0,
    0,
    0,
    0,
    0,
    0,
    0,
    0,
    0,
    0,
    0,
    0,
    38,
    39,
    0,
    0,
    0,
    0,
    0,
    26,
    27,
    36,
    37,
    0,
    0,
    0,
    0,
    0,
    0,
    0,
    0,
    0,
    0,
    0,
    0,
    0,
    0,
    0,
    0,
    0,
    0,
    0,
    0,
    0,
    0,
    38,
    39,
    0,
    48,
    49,
    38,
    39,
    0,
    0,
    30,
    31,
    0,
    0,
    0,
    28,
    29,
    38,
    39,
    0,
    0,
    0,
    0,
    0,
    0,
    0,
    0,
    0,
    0,
    0,
    0,
    0,
    0,
    0,
    0,
    0,
    0,
    0,
    0,
    0,
    0,
    0,
    0,
    0,
    0,
    0,
    0,
    0,
    0,
    0,
    0,
    0,
    0,
    0,
    0,
    30,
    31,
    36,
    37,
    0,
    0,
    0,
    0,
    0,
    0,
    0,
    0,
    0,
    0,
    0,
    0,
    0,
    0,
    0,
    0,
    0,
    0,
    0,
    0,
    0,
    0,
    0,
    0,
    0,
    0,
    0,
    0,
    0,
    0,
    0,
    57,
    0,
    0,
    0,
    0,
    28,
    29,
    38,
    39,
    0,
    0,
    0,
    0,
    0,
    0,
    0,
    0,
    0,
    0,
    0,
    0,
    0,
    0,
    0,
    0,
    0,
    0,
    0,
    0,
    0,
    0,
    0,
    0,
    26,
    27,
    0,
    0,
    0,
    0,
    0,
    0,
    56,
    0,
    0,
    0,
    30,
    31,
    24,
    25,
    0,
    0,
    0,
    0,
    0,
    0,
    0,
    0,
    0,
    0,
    0,
    0,
    0,
    0,
    0,
    0,
    0,
    0,
    0,
    0,
    0,
    0,
    30,
    31,
    56,
    0,
    0,
    0,
    0,
    0,
    26,
    27,
    0,
    38,
    39,
    0,
    28,
    29,
    26,
    27,
    0,
    0,
    0,
    0,
    0,
    0,
    0,
    0,
    0,
    0,
    0,
    0,
    0,
    0,
    0,
    0,
    0,
    0,
    0,
    0,
    0,
    0,
    0,
    0,
    0,
    26,
    27,
    0,
    0,
    0,
    0,
    0,
    0,
    0,
    0,
    60,
    30,
    31,
    36,
    37,
    0,
    0,
    0,
    0,
    0,
    0,
    0,
    0,
    0,
    0,
    0,
    0,
    0,
    0,
    0,
    0,
    0,
    0,
    0,
    0,
    0,
    0,
    0,
    0,
    0,
    0,
    0,
    0,
    38,
    39,
    0,
    0,
    0,
    57,
    0,
    0,
    28,
    29,
    38,
    39,
    0,
    0,
    0,
    0,
    0,
    0,
    0,
    0,
    0,
    0,
    0,
    0,
    0,
    0,
    0,
    0,
    0,
    0,
    0,
    0,
    0,
    0,
    0,
    0,
    26,
    27,
    0,
    0,
    0,
    0,
    0,
    38,
    39,
    0,
    0,
    0,
    30,
    31,
    28,
    29,
    0,
    0,
    0,
    0,
    0,
    0,
    0,
    0,
    0,
    0,
    0,
    0,
    0,
    0,
    0,
    0,
    0,
    44,
    45,
    0,
    0,
    38,
    39,
    0,
    0,
    0,
    0,
    0,
    0,
    0,
    0,
    0,
    0,
    0,
    0,
    0,
    24,
    25,
    30,
    31,
    0,
    0,
    0,
    0,
    0,
    0,
    0,
    0,
    0,
    0,
    0,
    0,
    38,
    39,
    38,
    39,
    0,
    0,
    0,
    0,
    0,
    0,
    0,
    26,
    27,
    0,
    0,
    0,
    0,
    0,
    26,
    27,
    59,
    0,
    0,
    0,
    26,
    27,
    36,
    37,
    24,
    25,
    24,
    25,
    24,
    25,
    24,
    25,
    36,
    37,
    36,
    37,
    28,
    29,
    28,
    29,
    36,
    37,
    36,
    37,
    24,
    25,
    36,
    37,
    36,
    37,
    36,
    37,
    36,
    37,
    36,
    37,
    28,
    29,
    28,
    29,
    28,
    29,
    38,
    39,
    26,
    27,
    26,
    27,
    26,
    27,
    26,
    27,
    38,
    39,
    38,
    39,
    30,
    31,
    30,
    31,
    38,
    39,
    38,
    39,
    26,
    27,
    38,
    39,
    38,
    39,
    38,
    39,
    38,
    39,
    38,
    39,
    30,
    31,
    30,
    31,
    30,
    31
   ]
  },
  {
   "id": 3,
   "type": "tilelayer",
   "name": "blocking",
   "width": 40,
   "height": 30,
   "x": 0,
   "y": 0,
   "opacity": 1,
   "visible": true,
   "data": [
    15,
    15,
    15,
    15,
    15,
    15,
    15,
    15,
    15,
    15,
    15,
    15,
    15,
    15,
    15,
    15,
    15,
    15,
    15,
    15,
    15,
    15,
    15,
    15,
    15,
    15,
    15,
    15,
    15,
    15,
    15,
    15,
    15,
    15,
    15,
    15,
    15,
    15,
    15,
    15,
    15,
    15,
    15,
    15,
    15,
    15,
    15,
    15,
    15,
    15,
    15,
    15,
    15,
    15,
    15,
    15,
    15,
    15,
    15,
    15,
    15,
    15,
    15,
    15,
    15,
    15,
    15,
    15,
    15,
    15,
    15,
    15,
    15,
    15,
    15,
    15,
    15,
    15,
    15,
    15,
    15,
    15,
    0,
    0,
    0,
    0,
    0,
    0,
    0,
    0,
    0,
    0,
    0,
    0,
    0,
    0,
    0,
    0,
    0,
    0,
    0,
    0,
    0,
    0,
    0,
    0,
    0,
    0,
    0,
    0,
    0,
    0,
    0,
    0,
    0,
    0,
    0,
    0,
    15,
    15,
    15,
    15,
    0,
    0,
    0,
    0,
    0,
    15,
    15,
    0,
    0,
    15,
    15,
    15,
    15,
    0,
    0,
    0,
    0,
    0,
    0,
    15,
    15,
    0,
    0,
    0,
    0,
    0,
    0,
    0,
    0,
    0,
    0,
    0,
    0,
    0,
    0,
    0,
    15,
    15,
    15,
    15,
    0,
    0,
    0,
    15,
    15,
    0,
    0,
    0,
    0,
    0,
    0,
    0,
    0,
    0,
    0,
    0,
    0,
    0,
    0,
    0,
    0,
    15,
    15,
    15,
    15,
    15,
    15,
    0,
    0,
    0,
    0,
    0,
    0,
    0,
    0,
    0,
    15,
    15,
    15,
    15,
    0,
    15,
    15,
    0,
    0,
    0,
    0,
    0,
    0,
    0,
    15,
    15,
    0,
    15,
    15,
    0,
    0,
    0,
    0,
    0,
    0,
    0,
    0,
    0,
    0,
    0,
    0,
    0,
    0,
    0,
    0,
    0,
    0,
    0,
    0,
    0,
    15,
    15,
    15,
    15,
    0,
    0,
    0,
    0,
    0,
    0,
    0,
    0,
    0,
    0,
    0,
    0,
    0,
    0,
    0,
    0,
    0,
    0,
    0,
    0,
    0,
    0,
    0,
    0,
    15,
    15,
    0,
    0,
    0,
    0,
    0,
    0,
    0,
    0,
    0,
    0,
    15,
    15,
    15,
    15,
    0,
    0,
    0,
    0,
    0,
    15,
    15,
    0,
    0,
    0,
    0,
    0,
    15,
    15,
    0,
    0,
    0,
    15,
    15,
    0,
    0,
    0,
    0,
    0,
    0,
    0,
    0,
    0,
    0,
    0,
    0,
    0,
    0,
    0,
    0,
    0,
    15,
    15,
    15,
    15,
    0,
    0,
    0,
    0,
    0,
    0,
    0,
    0,
    15,
    15,
    0,
    0,
    0,
    0,
    0,
    0,
    0,
    0,
    0,
    0,
    0,
    0,
    0,
    0,
    15,
    15,
    0,
    0,
    0,
    0,
    0,
    0,
    0,
    0,
    0,
    0,
    15,
    15,
    15,
    15,
    0,
    0,
    0,
    0,
    15,
    15,
    0,
    0,
    0,
    0,
    0,
    0,
    0,
    0,
    0,
    0,
    0,
    0,
    15,
    15,
    0,
    0,
    0,
    0,
    0,
    0,
    0,
    0,
    0,
    0,
    0,
    0,
    0,
    0,
    0,
    0,
    15,
    15,
    15,
    15,
    0,
    15,
    15,
    0,
    0,
    0,
    0,
    0,
    0,
    0,
    0,
    0,
    0,
    0,
    0,
    0,
    0,
    0,
    0,
    0,
    0,
    0,
    0,
    0,
    0,
    0,
    0,
    0,
    0,
    0,
    0,
    0,
    0,
    0,
    0,
    0,
    15,
    15,
    15,
    15,
    0,
    0,
    0,
    0,
    0,
    0,
    0,
    0,
    0,
    0,
    0,
    0,
    0,
    0,
    0,
    0,
    0,
    0,
    0,
    0,
    0,
    0,
    0,
    0,
    0,
    0,
    0,
    0,
    0,
    0,
    0,
    0,
    0,
    0,
    0,
    0,
    15,
    15,
    15,
    15,
    0,
    15,
    15,
    0,
    0,
    0,
    0,
    0,
    0,
    0,
    0,
    15,
    15,
    0,
    0,
    0,
    0,
    0,
    0,
    0,
    0,
    0,
    0,
    0,
    0,
    0,
    0,
    0,
    0,
    0,
    0,
    0,
    0,
    0,
    0,
    0,
    15,
    15,
    15,
    15,
    0,
    0,
    0,
    0,
    0,
    0,
    15,
    15,
    0,
    0,
    0,
    0,
    0,
    0,
    15,
    15,
    0,
    0,
    0,
    0,
    0,
    0,
    0,
    0,
    0,
    0,
    0,
    0,
    0,
    0,
    0,
    0,
    0,
    15,
    15,
    0,
    15,
    15,
    15,
    15,
    0,
    0,
    0,
    0,
    0,
    0,
    0,
    0,
    15,
    15,
    0,
    0,
    0,
    0,
    0,
    0,
    0,
    0,
    0,
    0,
    0,
    0,
    0,
    0,
    0,
    0,
    0,
    0,
    0,
    0,
    15,
    15,
    0,
    0,
    0,
    0,
    15,
    15,
    15,
    15,
    0,
    0,
    15,
    15,
    15,
    15,
    0,
    0,
    0,
    0,
    0,
    0,
    0,
    0,
    0,
    0,
    0,
    0,
    0,
    0,
    0,
    0,
    15,
    15,
    15,
    15,
    0,
    0,
    0,
    0,
    0,
    0,
    15,
    15,
    0,
    0,
    15,
    15,
    15,
    15,
    0,
    0,
    0,
    0,
    15,
    15,
    15,
    15,
    15,
    15,
    15,
    0,
    15,
    15,
    0,
    0,
    0,
    0,
    0,
    0,
    0,
    0,
    0,
    0,
    0,
    0,
    0,
    0,
    0,
    0,
    0,
    0,
    0,
    0,
    0,
    0,
    15,
    15,
    15,
    15,
    0,
    0,
    0,
    0,
    15,
    15,
    15,
    15,
    15,
    15,
    15,
    15,
    15,
    0,
    15,
    15,
    0,
    0,
    0,
    0,
    0,
    0,
    0,
    0,
    0,
    0,
    0,
    0,
    0,
    15,
    15,
    0,
    0,
    0,
    0,
    0,
    15,
    15,
    15,
    15,
    0,
    0,
    0,
    0,
    15,
    15,
    15,
    15,
    15,
    15,
    15,
    15,
    15,
    15,
    0,
    0,
    0,
    0,
    0,
    0,
    0,
    0,
    15,
    15,
    0,
    0,
    0,
    15,
    15,
    0,
    0,
    15,
    15,
    0,
    0,
    0,
    15,
    15,
    15,
    15,
    0,
    0,
    0,
    0,
    15,
    15,
    15,
    15,
    15,
    15,
    15,
    15,
    15,
    15,
    0,
    0,
    0,
    0,
    0,
    0,
    0,
    0,
    0,
    0,
    0,
    0,
    0,
    0,
    0,
    0,
    0,
    0,
    0,
    0,
    0,
    0,
    15,
    15,
    15,
    15,
    0,
    0,
    0,
    15,
    15,
    15,
    15,
    15,
    15,
    15,
    15,
    15,
    15,
    15,
    0,
    0,
    0,
    0,
    0,
    0,
    0,
    0,
    0,
    0,
    0,
    0,
    0,
    0,
    0,
    0,
    0,
    0,
    0,
    0,
    0,
    0,
    15,
    15,
    15,
    15,
    0,
    0,
    0,
    15,
    15,
    15,
    15,
    15,
    15,
    15,
    15,
    15,
    15,
    0,
    0,
    0,
    0,
    0,
    0,
    0,
    0,
    0,
    0,
    0,
    15,
    15,
    0,
    0,
    0,
    0,
    0,
    0,
    0,
    0,
    0,
    0,
    15,
    15,
    15,
    15,
    0,
    0,
    0,
    0,
    0,
    15,
    15,
    15,
    15,
    15,
    0,
    0,
    0,
    0,
    0,
    0,
    0,
    0,
    0,
    0,
    0,
    0,
    15,
    15,
    0,
    0,
    0,
    0,
    0,
    0,
    15,
    15,
    0,
    15,
    15,
    0,
    15,
    15,
    15,
    15,
    0,
    0,
    0,
    0,
    0,
    0,
    0,
    0,
    0,
    0,
    0,
    0,
    0,
    0,
    0,
    0,
    0,
    0,
    0,
    0,
    0,
    0,
    0,
    0,
    0,
    15,
    15,
    0,
    0,
    0,
    0,
    0,
    0,
    0,
    0,
    0,
    15,
    15,
    15,
    15,
    0,
    0,
    0,
    0,
    0,
    0,
    0,
    0,
    0,
    0,
    0,
    0,
    0,
    0,
    0,
    0,
    0,
    0,
    0,
    0,
    0,
    0,
    0,
    0,
    0,
    0,
    0,
    0,
    15,
    15,
    0,
    0,
    0,
    0,
    0,
    0,
    15,
    15,
    15,
    15,
    0,
    0,
    0,
    0,
    0,
    0,
    0,
    0,
    0,
    0,
    0,
    0,
    0,
    0,
    0,
    0,
    0,
    0,
    0,
    0,
    0,
    0,
    0,
    0,
    15,
    15,
    0,
    0,
    0,
    0,
    0,
    15,
    15,
    0,
    0,
    0,
    15,
    15,
    15,
    15,
    0,
    0,
    0,
    0,
    0,
    0,
    0,
    0,
    0,
    0,
    0,
    0,
    0,
    0,
    0,
    0,
    0,
    0,
    0,
    0,
    0,
    15,
    15,
    0,
    0,
    0,
    0,
    0,
    0,
    0,
    0,
    0,
    0,
    0,
    0,
    0,
    15,
    15,
    15,
    15,
    0,
    0,
    0,
    0,
    0,
    0,
    0,
    0,
    0,
    0,
    0,
    0,
    15,
    15,
    15,
    15,
    0,
    0,
    0,
    0,
    0,
    0,
    0,
    15,
    15,
    0,
    0,
    0,
    0,
    0,
    15,
    15,
    0,
    0,
    0,
    0,
    15,
    15,
    15,
    15,
    15,
    15,
    15,
    15,
    15,
    15,
    15,
    15,
    15,
    15,
    15,
    15,
    15,
    15,
    15,
    15,
    15,
    15,
    15,
    15,
    15,
    15,
    15,
    15,
    15,
    15,
    15,
    15,
    15,
    15,
    15,
    15,
    15,
    15,
    15,
    15,
    15,
    15,
    15,
    15,
    15,
    15,
    15,
    15,
    15,
    15,
    15,
    15,
    15,
    15,
    15,
    15,
    15,
    15,
    15,
    15,
    15,
    15,
    15,
    15,
    15,
    15,
    15,
    15,
    15,
    15,
    15,
    15,
    15,
    15,
    15,
    15,
    15,
    15,
    15,
    15,
    15,
    15
   ]
  },
  {
   "id": 5,
   "type": "tilelayer",
   "name": "canopy",
   "width": 40,
   "height": 30,
   "x": 0,
   "y": 0,
   "opacity": 1,
   "visible": true,
   "data": [
    0,
    0,
    0,
    0,
    0,
    0,
    0,
    0,
    0,
    0,
    0,
    0,
    0,
    0,
    0,
    0,
    0,
    0,
    0,
    0,
    0,
    0,
    0,
    0,
    0,
    0,
    0,
    0,
    0,
    0,
    0,
    0,
    0,
    0,
    0,
    0,
    0,
    0,
    0,
    0,
    0,
    0,
    0,
    0,
    0,
    0,
    0,
    0,
    0,
    0,
    0,
    0,
    0,
    0,
    0,
    0,
    0,
    0,
    0,
    0,
    0,
    0,
    0,
    0,
    0,
    0,
    0,
    0,
    0,
    0,
    0,
    0,
    0,
    0,
    0,
    0,
    0,
    0,
    0,
    0,
    0,
    0,
    0,
    0,
    0,
    0,
    0,
    28,
    29,
    0,
    0,
    24,
    25,
    28,
    29,
    0,
    0,
    0,
    0,
    0,
    0,
    28,
    29,
    0,
    0,
    0,
    0,
    0,
    0,
    0,
    0,
    0,
    0,
    0,
    0,
    0,
    0,
    0,
    0,
    0,
    0,
    0,
    0,
    0,
    0,
    28,
    29,
    0,
    0,
    0,
    0,
    0,
    0,
    0,
    0,
    0,
    0,
    0,
    0,
    0,
    0,
    0,
    0,
    24,
    25,
    28,
    29,
    24,
    25,
    0,
    0,
    0,
    0,
    0,
    0,
    0,
    0,
    0,
    0,
    0,
    0,
    0,
    0,
    24,
    25,
    0,
    0,
    0,
    0,
    0,
    0,
    0,
    36,
    37,
    0,
    24,
    25,
    0,
    0,
    0,
    0,
    0,
    0,
    0,
    0,
    0,
    0,
    0,
    0,
    0,
    0,
    0,
    0,
    0,
    0,
    0,
    0,
    0,
    0,
    0,
    0,
    0,
    0,
    0,
    0,
    0,
    0,
    0,
    0,
    0,
    0,
    0,
    0,
    0,
    0,
    0,
    0,
    0,
    0,
    0,
    0,
    0,
    0,
    0,
    0,
    0,
    24,
    25,
    0,
    0,
    0,
    0,
    0,
    0,
    0,
    0,
    0,
    0,
    0,
    0,
    0,
    0,
    0,
    0,
    0,
    0,
    0,
    36,
    37,
    0,
    0,
    0,
    0,
    0,
    36,
    37,
    0,
    0,
    0,
    36,
    37,
    0,
    0,
    0,
    0,
    0,
    0,
    0,
    0,
    0,
    0,
    0,
    0,
    0,
    0,
    0,
    0,
    0,
    0,
    0,
    0,
    0,
    0,
    0,
    0,
    0,
    0,
    0,
    0,
    0,
    24,
    25,
    0,
    0,
    0,
    0,
    0,
    0,
    0,
    0,
    0,
    0,
    0,
    0,
    0,
    0,
    24,
    25,
    0,
    0,
    0,
    0,
    0,
    0,
    0,
    0,
    0,
    0,
    0,
    0,
    0,
    0,
    0,
    0,
    0,
    0,
    24,
    25,
    0,
    0,
    0,
    0,
    0,
    0,
    0,
    0,
    0,
    0,
    0,
    0,
    36,
    37,
    0,
    0,
    0,
    0,
    0,
    0,
    0,
    0,
    0,
    0,
    0,
    0,
    0,
    0,
    0,
    0,
    0,
    0,
    0,
    0,
    0,
    36,
    37,
    0,
    0,
    0,
    0,
    0,
    0,
    0,
    0,
    0,
    0,
    0,
    0,
    0,
    0,
    0,
    0,
    0,
    0,
    0,
    0,
    0,
    0,
    0,
    0,
    0,
    0,
    0,
    0,
    0,
    0,
    0,
    0,
    0,
    0,
    0,
    0,
    0,
    0,
    0,
    0,
    0,
    0,
    0,
    0,
    0,
    0,
    0,
    0,
    0,
    0,
    0,
    0,
    0,
    0,
    0,
    0,
    0,
    0,
    0,
    0,
    0,
    0,
    0,
    0,
    0,
    0,
    0,
    0,
    0,
    0,
    0,
    0,
    0,
    0,
    0,
    0,
    0,
    0,
    24,
    25,
    0,
    0,
    0,
    0,
    0,
    0,
    0,
    0,
    28,
    29,
    0,
    0,
    0,
    0,
    0,
    0,
    0,
    0,
    0,
    0,
    0,
    0,
    0,
    0,
    0,
    0,
    0,
    0,
    0,
    0,
    0,
    0,
    0,
    0,
    0,
    0,
    0,
    0,
    0,
    0,
    0,
    0,
    0,
    36,
    37,
    0,
    0,
    0,
    0,
    0,
    0,
    36,
    37,
    0,
    0,
    0,
    0,
    0,
    0,
    0,
    0,
    0,
    0,
    0,
    0,
    0,
    0,
    0,
    0,
    0,
    24,
    25,
    0,
    0,
    0,
    0,
    0,
    0,
    0,
    0,
    0,
    0,
    0,
    0,
    0,
    24,
    25,
    0,
    0,
    0,
    0,
    0,
    0,
    0,
    0,
    0,
    0,
    0,
    0,
    0,
    0,
    0,
    0,
    0,
    0,
    0,
    0,
    36,
    37,
    0,
    0,
    0,
    0,
    0,
    0,
    0,
    0,
    0,
    0,
    36,
    37,
    24,
    25,
    0,
    0,
    0,
    0,
    0,
    0,
    0,
    0,
    0,
    0,
    0,
    0,
    0,
    0,
    0,
    0,
    28,
    29,
    36,
    37,
    0,
    0,
    0,
    0,
    0,
    0,
    36,
    37,
    0,
    0,
    0,
    0,
    0,
    0,
    0,
    0,
    0,
    0,
    0,
    0,
    0,
    0,
    0,
    0,
    0,
    0,
    24,
    25,
    0,
    0,
    0,
    0,
    0,
    0,
    0,
    0,
    0,
    0,
    0,
    0,
    0,
    0,
    0,
    0,
    0,
    0,
    0,
    0,
    0,
    0,
    0,
    0,
    0,
    0,
    0,
    0,
    0,
    0,
    0,
    0,
    0,
    0,
    0,
    0,
    0,
    0,
    0,
    0,
    36,
    37,
    0,
    0,
    0,
    0,
    0,
    0,
    0,
    0,
    0,
    0,
    0,
    0,
    0,
    36,
    37,
    0,
    0,
    0,
    0,
    0,
    0,
    0,
    0,
    0,
    0,
    0,
    0,
    0,
    0,
    0,
    0,
    0,
    0,
    0,
    0,
    0,
    0,
    0,
    0,
    0,
    0,
    0,
    0,
    0,
    0,
    0,
    36,
    37,
    0,
    0,
    0,
    36,
    37,
    0,
    0,
    28,
    29,
    0,
    0,
    0,
    0,
    0,
    0,
    0,
    0,
    0,
    0,
    0,
    0,
    0,
    0,
    0,
    0,
    0,
    0,
    0,
    0,
    0,
    0,
    0,
    0,
    0,
    0,
    0,
    0,
    0,
    0,
    0,
    0,
    0,
    0,
    0,
    0,
    0,
    0,
    0,
    0,
    0,
    0,
    0,
    0,
    0,
    0,
    0,
    0,
    0,
    0,
    0,
    0,
    0,
    0,
    0,
    0,
    0,
    0,
    0,
    0,
    0,
    0,
    0,
    0,
    0,
    0,
    0,
    0,
    0,
    0,
    0,
    0,
    0,
    0,
    0,
    0,
    0,
    0,
    0,
    0,
    0,
    0,
    0,
    0,
    0,
    0,
    0,
    0,
    0,
    0,
    0,
    0,
    0,
    0,
    0,
    0,
    0,
    0,
    0,
    0,
    0,
    0,
    0,
    0,
    0,
    0,
    0,
    0,
    0,
    0,
    0,
    24,
    25,
    0,
    0,
    0,
    0,
    0,
    0,
    0,
    0,
    0,
    0,
    0,
    0,
    0,
    0,
    0,
    0,
    0,
    0,
    0,
    0,
    0,
    0,
    0,
    0,
    0,
    0,
    0,
    0,
    0,
    0,
    0,
    0,
    0,
    0,
    0,
    0,
    28,
    29,
    0,
    0,
    0,
    0,
    0,
    0,
    24,
    25,
    0,
    36,
    37,
    0,
    0,
    0,
    0,
    0,
    0,
    0,
    0,
    0,
    0,
    0,
    0,
    0,
    0,
    0,
    0,
    0,
    0,
    0,
    0,
    0,
    0,
    0,
    0,
    0,
    0,
    0,
    0,
    0,
    0,
    24,
    25,
    0,
    0,
    0,
    0,
    0,
    0,
    0,
    0,
    0,
    0,
    0,
    0,
    0,
    0,
    0,
    0,
    0,
    0,
    0,
    0,
    0,
    0,
    0,
    0,
    0,
    0,
    0,
    0,
    0,
    0,
    0,
    0,
    0,
    0,
    0,
    0,
    0,
    0,
    0,
    0,
    0,
    36,
    37,
    0,
    0,
    0,
    0,
    0,
    0,
    0,
    0,
    0,
    0,
    0,
    0,
    0,
    0,
    0,
    0,
    0,
    0,
    0,
    0,
    0,
    0,
    0,
    0,
    0,
    0,
    0,
    0,
    0,
    0,
    0,
    0,
    0,
    0,
    24,
    25,
    0,
    0,
    0,
    0,
    0,
    36,
    37,
    0,
    0,
    0,
    0,
    0,
    0,
    0,
    0,
    0,
    0,
    0,
    0,
    0,
    0,
    0,
    0,
    0,
    0,
    0,
    0,
    0,
    0,
    0,
    0,
    0,
    0,
    0,
    0,
    36,
    37,
    0,
    0,
    0,
    0,
    0,
    0,
    0,
    0,
    0,
    0,
    0,
    0,
    0,
    0,
    0,
    0,
    0,
    0,
    0,
    0,
    0,
    0,
    0,
    0,
    0,
    0,
    0,
    0,
    0,
    36,
    37,
    36,
    37,
    0,
    0,
    0,
    0,
    0,
    0,
    0,
    24,
    25,
    0,
    0,
    0,
    0,
    0,
    24,
    25,
    0,
    0,
    0,
    0,
    0,
    0,
    0,
    0,
    0,
    0,
    0,
    0,
    0,
    0,
    0,
    0,
    0,
    0,
    0,
    0,
    0,
    0,
    0,
    0,
    0,
    0,
    0,
    0,
    0,
    0,
    0,
    0,
    0,
    0,
    0,
    0,
    0,
    0,
    0,
    0,
    0,
    0,
    0,
    0,
    0,
    0,
    0,
    0,
    0,
    0,
    0,
    0,
    0,
    0,
    0,
    0,
    0,
    0,
    0,
    0,
    0,
    0,
    0,
    0,
    0,
    0,
    0,
    0,
    0,
    0,
    0,
    0,
    0,
    0,
    0,
    0,
    0,
    0,
    0,
    0,
    0,
    0,
    0,
    0,
    0,
    0,
    0,
    0,
    0,
    0,
    0,
    0,
    0,
    0,
    0,
    0,
    0,
    0,
    0,
    0,
    0,
    0,
    0,
    0,
    0,
    0,
    0,
    0,
    0,
    0,
    0,
    0,
    0,
    0,
    0,
    0,
    0,
    0,
    0,
    0,
    0,
    0,
    0,
    0,
    0,
    0
   ]
  },
  {
   "id": 4,
   "type": "objectgroup",
   "name": "objects",
   "x": 0,
   "y": 0,
   "opacity": 1,
   "visible": true,
   "draworder": "topdown",
   "objects": [
    {
     "id": 1,
     "class": "spawnPoint",
     "name": "spawnPoint",
     "x": 128,
     "y": 768,
     "width": 32,
     "height": 32,
     "rotation": 0,
     "visible": true,
     "properties": []
    },
    {
     "id": 2,
     "class": "pokecenter",
     "name": "pokecenter",
     "x": 1120,
     "y": 160,
     "width": 32,
     "height": 32,
     "rotation": 0,
     "visible": true,
     "properties": []
    },
    {
     "id": 3,
     "class": "spawn",
     "name": "spawn",
     "x": 704,
     "y": 448,
     "width": 256,
     "height": 192,
     "rotation": 0,
     "visible": true,
     "properties": [
      {
       "name": "species",
       "type": "string",
       "value": "zubat"
      },
      {
       "name": "minLevel",
       "type": "int",
       "value": 2
      },
      {
       "name": "maxLevel",
       "type": "int",
       "value": 5
      },
      {
       "name": "count",
       "type": "int",
       "value": 4
      },
      {
       "name": "respawnSeconds",
       "type": "int",
       "value": 20
      }
     ]
    },
    {
     "id": 4,
     "class": "spawn",
     "name": "spawn",
     "x": 160,
     "y": 128,
     "width": 320,
     "height": 256,
     "rotation": 0,
     "visible": true,
     "properties": [
      {
       "name": "species",
       "type": "string",
       "value": "bellsprout"
      },
      {
       "name": "minLevel",
       "type": "int",
       "value": 3
      },
      {
       "name": "maxLevel",
       "type": "int",
       "value": 6
      },
      {
       "name": "count",
       "type": "int",
       "value": 4
      },
      {
       "name": "respawnSeconds",
       "type": "int",
       "value": 25
      }
     ]
    },
    {
     "id": 5,
     "class": "spawn",
     "name": "spawn",
     "x": 768,
     "y": 640,
     "width": 320,
     "height": 192,
     "rotation": 0,
     "visible": true,
     "properties": [
      {
       "name": "species",
       "type": "string",
       "value": "diglett"
      },
      {
       "name": "minLevel",
       "type": "int",
       "value": 4
      },
      {
       "name": "maxLevel",
       "type": "int",
       "value": 8
      },
      {
       "name": "count",
       "type": "int",
       "value": 3
      },
      {
       "name": "respawnSeconds",
       "type": "int",
       "value": 30
      }
     ]
    },
    {
     "id": 6,
     "class": "spawn",
     "name": "spawn",
     "x": 448,
     "y": 512,
     "width": 192,
     "height": 192,
     "rotation": 0,
     "visible": true,
     "properties": [
      {
       "name": "species",
       "type": "string",
       "value": "horsea"
      },
      {
       "name": "minLevel",
       "type": "int",
       "value": 5
      },
      {
       "name": "maxLevel",
       "type": "int",
       "value": 9
      },
      {
       "name": "count",
       "type": "int",
       "value": 2
      },
      {
       "name": "respawnSeconds",
       "type": "int",
       "value": 40
      }
     ]
    },
    {
     "id": 7,
     "class": "spawn",
     "name": "spawn",
     "x": 832,
     "y": 128,
     "width": 192,
     "height": 160,
     "rotation": 0,
     "visible": true,
     "properties": [
      {
       "name": "species",
       "type": "string",
       "value": "gastly"
      },
      {
       "name": "minLevel",
       "type": "int",
       "value": 8
      },
      {
       "name": "maxLevel",
       "type": "int",
       "value": 12
      },
      {
       "name": "count",
       "type": "int",
       "value": 2
      },
      {
       "name": "respawnSeconds",
       "type": "int",
       "value": 60
      }
     ]
    }
   ]
  }
 ]
}