{
 "type": "map",
 "version": "1.10",
 "tiledversion": "1.11.0",
 "orientation": "orthogonal",
 "renderorder": "right-down",
 "infinite": false,
 "width": 96,
 "height": 72,
 "tilewidth": 32,
 "tileheight": 32,
 "nextlayerid": 6,
 "nextobjectid": 42,
 "properties": [
  {
   "name": "id",
   "type": "string",
   "value": "terras-altas"
  },
  {
   "name": "name",
   "type": "string",
   "value": "Terras Altas"
  },
  {
   "name": "order",
   "type": "int",
   "value": 2
  },
  {
   "name": "minTrainerLevel",
   "type": "int",
   "value": 34
  }
 ],
 "tilesets": [
  {
   "firstgid": 1,
   "source": "../../../assets/atlas/tiles.tsj"
  }
 ],
 "layers": [
  {
   "id": 1,
   "type": "tilelayer",
   "name": "ground",
   "width": 96,
   "height": 72,
   "x": 0,
   "y": 0,
   "opacity": 1,
   "visible": true,
   "data": [
    327,
    327,
    327,
    328,
    327,
    327,
    327,
    327,
    327,
    327,
    327,
    316,
    328,
    327,
    327,
    328,
    327,
    328,
    316,
    316,
    328,
    328,
    327,
    316,
    328,
    328,
    328,
    327,
    328,
    327,
    328,
    316,
    316,
    327,
    316,
    327,
    327,
    316,
    316,
    328,
    316,
    328,
    316,
    316,
    328,
    328,
    327,
    328,
    330,
    330,
    330,
    330,
    330,
    330,
    334,
    247,
    248,
    236,
    247,
    248,
    236,
    248,
    236,
    247,
    236,
    248,
    247,
    247,
    236,
    247,
    247,
    248,
    335,
    346,
    346,
    346,
    347,
    347,
    347,
    346,
    335,
    347,
    335,
    347,
    335,
    346,
    347,
    347,
    335,
    346,
    346,
    347,
    347,
    347,
    335,
    347,
    316,
    316,
    316,
    328,
    328,
    328,
    316,
    328,
    316,
    316,
    316,
    327,
    316,
    328,
    316,
    327,
    327,
    327,
    316,
    328,
    316,
    327,
    328,
    327,
    316,
    328,
    328,
    327,
    327,
    316,
    327,
    327,
    327,
    328,
    328,
    328,
    328,
    316,
    316,
    328,
    327,
    328,
    327,
    316,
    316,
    316,
    328,
    327,
    330,
    330,
    330,
    330,
    330,
    330,
    337,
    341,
    373,
    372,
    247,
    248,
    247,
    247,
    236,
    247,
    247,
    236,
    247,
    247,
    247,
    247,
    247,
    247,
    346,
    347,
    335,
    346,
    347,
    347,
    346,
    347,
    346,
    346,
    346,
    346,
    346,
    346,
    347,
    346,
    346,
    335,
    347,
    335,
    346,
    347,
    347,
    347,
    328,
    316,
    328,
    316,
    316,
    321,
    319,
    319,
    322,
    327,
    328,
    328,
    328,
    316,
    316,
    328,
    328,
    328,
    328,
    328,
    327,
    316,
    328,
    327,
    327,
    316,
    316,
    316,
    316,
    328,
    316,
    321,
    319,
    319,
    319,
    319,
    319,
    319,
    319,
    319,
    319,
    319,
    319,
    322,
    316,
    328,
    316,
    316,
    330,
    330,
    330,
    330,
    330,
    330,
    330,
    337,
    341,
    239,
    242,
    236,
    247,
    247,
    248,
    248,
    248,
    247,
    247,
    247,
    248,
    247,
    248,
    236,
    338,
    338,
    338,
    338,
    338,
    338,
    338,
    338,
    338,
    338,
    338,
    338,
    338,
    341,
    242,
    346,
    346,
    347,
    335,
    335,
    335,
    347,
    347,
    346,
    328,
    316,
    316,
    327,
    316,
    324,
    313,
    313,
    325,
    328,
    328,
    328,
    327,
    327,
    316,
    328,
    316,
    328,
    327,
    327,
    327,
    327,
    327,
    327,
    327,
    328,
    328,
    316,
    316,
    327,
    328,
    317,
    311,
    329,
    329,
    311,
    329,
    311,
    329,
    312,
    313,
    313,
    313,
    325,
    327,
    316,
    328,
    327,
    330,
    330,
    330,
    330,
    330,
    330,
    330,
    330,
    337,
    341,
    245,
    372,
    236,
    247,
    248,
    248,
    247,
    247,
    247,
    236,
    247,
    248,
    247,
    248,
    348,
    349,
    348,
    349,
    349,
    348,
    349,
    330,
    349,
    348,
    348,
    349,
    348,
    334,
    245,
    372,
    346,
    346,
    335,
    335,
    347,
    347,
    335,
    346,
    316,
    328,
    328,
    316,
    327,
    316,
    327,
    328,
    327,
    316,
    327,
    327,
    328,
    316,
    327,
    327,
    316,
    328,
    328,
    327,
    327,
    327,
    328,
    316,
    316,
    327,
    327,
    328,
    328,
    316,
    321,
    320,
    329,
    329,
    311,
    329,
    329,
    329,
    312,
    325,
    328,
    328,
    316,
    328,
    316,
    316,
    327,
    328,
    330,
    330,
    330,
    330,
    330,
    330,
    330,
    330,
    331,
    344,
    374,
    385,
    247,
    248,
    247,
    247,
    236,
    236,
    248,
    248,
    247,
    236,
    248,
    236,
    348,
    348,
    348,
    349,
    330,
    349,
    349,
    330,
    349,
    349,
    348,
    330,
    331,
    344,
    374,
    378,
    372,
    346,
    347,
    347,
    335,
    347,
    335,
    346,
    316,
    327,
    327,
    316,
    316,
    327,
    316,
    328,
    316,
    316,
    327,
    327,
    328,
    316,
    316,
    316,
    328,
    316,
    327,
    327,
    316,
    327,
    328,
    327,
    327,
    316,
    316,
    327,
    316,
    321,
    320,
    311,
    329,
    311,
    311,
    329,
    329,
    312,
    325,
    316,
    328,
    316,
    316,
    328,
    327,
    328,
    316,
    327,
    330,
    330,
    330,
    330,
    330,
    330,
    330,
    330,
    334,
    235,
    374,
    378,
    372,
    247,
    248,
    248,
    247,
    236,
    247,
    247,
    247,
    248,
    247,
    247,
    349,
    349,
    330,
    349,
    330,
    349,
    330,
    349,
    330,
    348,
    348,
    331,
    344,
    235,
    374,
    374,
    385,
    347,
    346,
    335,
    335,
    346,
    347,
    346,
    327,
    328,
    328,
    316,
    316,
    328,
    328,
    327,
    316,
    316,
    327,
    316,
    328,
    327,
    316,
    327,
    328,
    327,
    328,
    316,
    327,
    327,
    316,
    327,
    327,
    328,
    316,
    321,
    319,
    320,
    329,
    329,
    329,
    311,
    311,
    311,
    311,
    315,
    328,
    316,
    327,
    328,
    327,
    327,
    328,
    327,
    328,
    327,
    330,
    330,
    330,
    330,
    330,
    330,
    331,
    332,
    344,
    235,
    374,
    376,
    380,
    236,
    236,
    236,
    236,
    236,
    247,
    236,
    247,
    236,
    248,
    236,
    348,
    348,
    348,
    330,
    348,
    348,
    348,
    349,
    330,
    349,
    348,
    334,
    237,
    235,
    374,
    374,
    385,
    335,
    335,
    347,
    347,
    335,
    335,
    335,
    316,
    327,
    327,
    327,
    327,
    327,
    316,
    327,
    316,
    316,
    328,
    327,
    316,
    327,
    328,
    328,
    316,
    328,
    328,
    316,
    327,
    327,
    316,
    328,
    328,
    316,
    328,
    324,
    314,
    311,
    329,
    311,
    311,
    311,
    329,
    329,
    311,
    315,
    327,
    316,
    316,
    327,
    316,
    328,
    327,
    327,
    328,
    328,
    330,
    330,
    330,
    330,
    330,
    331,
    344,
    381,
    237,
    235,
    376,
    380,
    248,
    247,
    236,
    236,
    248,
    248,
    247,
    247,
    248,
    236,
    247,
    236,
    330,
    349,
    348,
    348,
    349,
    330,
    348,
    330,
    330,
    348,
    331,
    344,
    237,
    235,
    374,
    376,
    380,
    335,
    335,
    335,
    335,
    347,
    335,
    335,
    327,
    316,
    327,
    316,
    327,
    316,
    328,
    328,
    327,
    316,
    328,
    327,
    327,
    328,
    316,
    316,
    328,
    316,
    316,
    327,
    316,
    328,
    316,
    328,
    327,
    327,
    328,
    328,
    324,
    313,
    313,
    313,
    313,
    313,
    313,
    313,
    313,
    325,
    328,
    327,
    316,
    316,
    327,
    327,
    327,
    328,
    328,
    327,
    330,
    330,
    330,
    330,
    330,
    334,
    248,
    375,
    237,
    235,
    380,
    247,
    236,
    236,
    248,
    247,
    236,
    247,
    247,
    247,
    247,
    236,
    247,
    247,
    333,
    349,
    330,
    330,
    330,
    349,
    330,
    348,
    348,
    331,
    344,
    335,
    237,
    235,
    377,
    380,
    347,
    347,
    346,
    347,
    347,
    335,
    347,
    346,
    328,
    316,
    327,
    328,
    327,
    328,
    328,
    316,
    328,
    327,
    327,
    328,
    327,
    328,
    316,
    328,
    328,
    327,
    327,
    327,
    327,
    327,
    328,
    328,
    328,
    328,
    327,
    327,
    327,
    328,
    328,
    327,
    327,
    316,
    328,
    316,
    327,
    316,
    316,
    327,
    327,
    327,
    316,
    328,
    316,
    316,
    328,
    316,
    330,
    330,
    330,
    330,
    331,
    344,
    236,
    247,
    237,
    235,
    248,
    248,
    248,
    248,
    247,
    248,
    247,
    236,
    236,
    248,
    247,
    248,
    247,
    236,
    343,
    332,
    333,
    348,
    348,
    348,
    330,
    331,
    332,
    344,
    347,
    347,
    237,
    235,
    347,
    335,
    346,
    347,
    347,
    335,
    335,
    346,
    347,
    346,
    316,
    328,
    327,
    327,
    328,
    327,
    316,
    316,
    316,
    328,
    328,
    328,
    327,
    327,
    327,
    328,
    316,
    328,
    316,
    316,
    316,
    316,
    316,
    316,
    316,
    328,
    328,
    327,
    316,
    327,
    327,
    328,
    327,
    328,
    328,
    328,
    316,
    316,
    328,
    327,
    316,
    328,
    327,
    316,
    328,
    327,
    316,
    328,
    330,
    330,
    330,
    330,
    334,
    236,
    248,
    236,
    237,
    235,
    248,
    248,
    248,
    248,
    247,
    236,
    236,
    236,
    247,
    247,
    247,
    248,
    248,
    236,
    347,
    335,
    343,
    332,
    332,
    332,
    332,
    344,
    335,
    335,
    346,
    335,
    237,
    235,
    346,
    347,
    346,
    346,
    347,
    346,
    347,
    346,
    335,
    346,
    327,
    328,
    328,
    316,
    328,
    327,
    327,
    316,
    328,
    327,
    328,
    327,
    327,
    327,
    328,
    328,
    327,
    316,
    316,
    328,
    328,
    327,
    328,
    316,
    316,
    328,
    316,
    316,
    327,
    328,
    327,
    328,
    328,
    328,
    316,
    327,
    316,
    316,
    316,
    327,
    328,
    327,
    327,
    328,
    316,
    321,
    319,
    319,
    330,
    330,
    330,
    331,
    344,
    236,
    248,
    236,
    237,
    235,
    236,
    248,
    247,
    247,
    247,
    248,
    248,
    247,
    236,
    248,
    247,
    248,
    247,
    247,
    346,
    335,
    347,
    335,
    346,
    346,
    347,
    335,
    335,
    347,
    347,
    335,
    237,
    235,
    346,
    347,
    340,
    338,
    338,
    338,
    338,
    341,
    347,
    335,
    328,
    327,
    316,
    328,
    328,
    327,
    328,
    328,
    316,
    328,
    316,
    316,
    327,
    328,
    328,
    327,
    316,
    328,
    316,
    327,
    328,
    327,
    327,
    327,
    327,
    327,
    316,
    316,
    328,
    327,
    328,
    316,
    328,
    328,
    316,
    328,
    316,
    327,
    316,
    328,
    327,
    327,
    328,
    321,
    319,
    320,
    329,
    329,
    330,
    330,
    330,
    337,
    341,
    247,
    248,
    236,
    237,
    235,
    236,
    236,
    247,
    248,
    248,
    236,
    248,
    247,
    247,
    247,
    247,
    236,
    248,
    247,
    346,
    346,
    347,
    346,
    347,
    335,
    347,
    346,
    346,
    335,
    346,
    346,
    237,
    235,
    335,
    347,
    336,
    348,
    349,
    349,
    330,
    334,
    347,
    347,
    316,
    327,
    328,
    328,
    316,
    327,
    316,
    328,
    316,
    316,
    327,
    328,
    316,
    327,
    316,
    328,
    328,
    316,
    328,
    328,
    328,
    327,
    328,
    316,
    316,
    327,
    327,
    316,
    328,
    316,
    328,
    327,
    327,
    316,
    316,
    328,
    316,
    316,
    327,
    327,
    316,
    321,
    319,
    320,
    329,
    311,
    311,
    311,
    330,
    330,
    330,
    330,
    334,
    247,
    236,
    247,
    237,
    235,
    371,
    371,
    371,
    372,
    247,
    248,
    248,
    236,
    248,
    248,
    247,
    248,
    247,
    247,
    346,
    335,
    347,
    335,
    335,
    335,
    347,
    347,
    347,
    373,
    371,
    371,
    237,
    235,
    346,
    340,
    339,
    349,
    349,
    330,
    348,
    334,
    346,
    335,
    327,
    316,
    328,
    327,
    316,
    327,
    316,
    328,
    328,
    327,
    327,
    327,
    316,
    327,
    316,
    316,
    316,
    327,
    327,
    328,
    327,
    327,
    316,
    327,
    316,
    316,
    327,
    327,
    328,
    327,
    328,
    328,
    328,
    327,
    316,
    316,
    316,
    316,
    328,
    327,
    327,
    324,
    313,
    314,
    329,
    329,
    329,
    311,
    330,
    330,
    330,
    330,
    337,
    341,
    236,
    248,
    237,
    235,
    374,
    374,
    374,
    378,
    372,
    247,
    248,
    236,
    247,
    236,
    236,
    236,
    248,
    247,
    346,
    346,
    347,
    346,
    347,
    346,
    347,
    346,
    373,
    379,
    374,
    374,
    237,
    235,
    372,
    343,
    333,
    349,
    348,
    330,
    330,
    334,
    347,
    346,
    327,
    328,
    327,
    327,
    327,
    328,
    316,
    328,
    328,
    327,
    316,
    328,
    328,
    316,
    327,
    327,
    316,
    328,
    316,
    328,
    327,
    328,
    327,
    316,
    328,
    328,
    327,
    316,
    316,
    328,
    316,
    327,
    327,
    327,
    328,
    328,
    316,
    316,
    328,
    328,
    328,
    328,
    316,
    324,
    314,
    311,
    311,
    311,
    330,
    330,
    330,
    330,
    330,
    334,
    248,
    236,
    237,
    238,
    239,
    239,
    239,
    239,
    239,
    239,
    239,
    239,
    239,
    239,
    239,
    242,
    248,
    247,
    347,
    346,
    347,
    347,
    335,
    347,
    335,
    346,
    381,
    374,
    241,
    239,
    240,
    238,
    239,
    239,
    336,
    349,
    330,
    349,
    330,
    334,
    347,
    346,
    316,
    328,
    328,
    316,
    316,
    328,
    327,
    328,
    316,
    327,
    327,
    316,
    316,
    328,
    328,
    327,
    327,
    327,
    327,
    316,
    327,
    328,
    316,
    327,
    327,
    327,
    328,
    316,
    328,
    327,
    316,
    328,
    327,
    328,
    316,
    316,
    328,
    327,
    328,
    328,
    328,
    327,
    328,
    327,
    317,
    329,
    329,
    311,
    330,
    330,
    330,
    330,
    330,
    334,
    247,
    236,
    244,
    233,
    233,
    233,
    233,
    233,
    233,
    233,
    233,
    233,
    233,
    233,
    234,
    235,
    236,
    236,
    347,
    347,
    346,
    335,
    346,
    346,
    346,
    373,
    379,
    374,
    237,
    232,
    233,
    233,
    233,
    233,
    343,
    332,
    333,
    331,
    332,
    344,
    346,
    347,
    328,
    327,
    316,
    316,
    327,
    316,
    328,
    327,
    327,
    316,
    327,
    327,
    316,
    327,
    327,
    327,
    316,
    327,
    316,
    316,
    327,
    327,
    316,
    316,
    328,
    316,
    327,
    327,
    327,
    327,
    316,
    328,
    328,
    316,
    316,
    327,
    328,
    316,
    327,
    316,
    328,
    328,
    328,
    327,
    317,
    329,
    329,
    311,
    239,
    239,
    242,
    330,
    330,
    334,
    247,
    248,
    375,
    384,
    374,
    374,
    374,
    376,
    380,
    236,
    248,
    236,
    248,
    247,
    237,
    235,
    236,
    248,
    347,
    347,
    346,
    347,
    346,
    335,
    346,
    375,
    384,
    374,
    237,
    235,
    374,
    374,
    385,
    335,
    335,
    347,
    343,
    344,
    237,
    235,
    346,
    346,
    327,
    327,
    328,
    328,
    327,
    316,
    327,
    328,
    316,
    316,
    328,
    316,
    316,
    327,
    316,
    327,
    316,
    328,
    328,
    321,
    319,
    319,
    322,
    328,
    322,
    327,
    316,
    316,
    316,
    316,
    327,
    328,
    328,
    316,
    327,
    316,
    328,
    327,
    328,
    316,
    328,
    328,
    327,
    316,
    317,
    311,
    311,
    329,
    249,
    249,
    238,
    242,
    330,
    337,
    341,
    248,
    247,
    375,
    384,
    374,
    374,
    385,
    248,
    248,
    236,
    247,
    247,
    247,
    237,
    235,
    248,
    236,
    347,
    347,
    346,
    347,
    335,
    347,
    347,
    347,
    381,
    374,
    237,
    235,
    374,
    376,
    380,
    347,
    346,
    335,
    347,
    335,
    237,
    235,
    346,
    346,
    327,
    328,
    328,
    327,
    327,
    321,
    319,
    319,
    322,
    316,
    328,
    328,
    328,
    316,
    328,
    328,
    316,
    327,
    321,
    320,
    311,
    329,
    318,
    322,
    315,
    328,
    316,
    328,
    327,
    327,
    327,
    328,
    327,
    328,
    328,
    327,
    316,
    327,
    327,
    316,
    316,
    316,
    327,
    328,
    317,
    329,
    329,
    329,
    231,
    249,
    249,
    238,
    242,
    330,
    337,
    341,
    236,
    236,
    375,
    377,
    377,
    380,
    236,
    248,
    248,
    236,
    247,
    247,
    237,
    235,
    247,
    248,
    341,
    346,
    346,
    346,
    335,
    347,
    335,
    346,
    375,
    377,
    237,
    235,
    377,
    380,
    346,
    335,
    347,
    335,
    335,
    335,
    237,
    235,
    347,
    346,
    328,
    316,
    316,
    316,
    321,
    320,
    311,
    311,
    315,
    316,
    327,
    328,
    327,
    327,
    327,
    328,
    327,
    328,
    317,
    311,
    311,
    329,
    329,
    315,
    318,
    322,
    328,
    316,
    316,
    316,
    328,
    316,
    316,
    316,
    316,
    328,
    328,
    327,
    328,
    316,
    316,
    316,
    316,
    316,
    317,
    329,
    329,
    311,
    231,
    231,
    231,
    250,
    238,
    242,
    330,
    334,
    248,
    247,
    236,
    248,
    247,
    248,
    247,
    236,
    248,
    236,
    236,
    236,
    237,
    235,
    247,
    248,
    337,
    341,
    346,
    335,
    346,
    347,
    335,
    335,
    335,
    347,
    237,
    235,
    346,
    346,
    347,
    335,
    347,
    335,
    335,
    347,
    237,
    235,
    347,
    346,
    327,
    328,
    316,
    327,
    324,
    314,
    311,
    311,
    315,
    328,
    327,
    327,
    316,
    327,
    316,
    327,
    327,
    316,
    317,
    311,
    329,
    329,
    311,
    315,
    311,
    315,
    327,
    328,
    327,
    328,
    327,
    328,
    316,
    327,
    328,
    316,
    327,
    316,
    328,
    316,
    316,
    327,
    328,
    328,
    324,
    314,
    311,
    329,
    250,
    231,
    249,
    250,
    232,
    245,
    330,
    334,
    247,
    248,
    248,
    248,
    236,
    247,
    236,
    248,
    247,
    236,
    236,
    236,
    237,
    235,
    248,
    247,
    331,
    344,
    346,
    335,
    346,
    335,
    346,
    346,
    335,
    335,
    237,
    235,
    347,
    347,
    347,
    347,
    335,
    347,
    347,
    347,
    237,
    235,
    346,
    347,
    328,
    327,
    327,
    316,
    316,
    324,
    313,
    313,
    325,
    328,
    327,
    316,
    328,
    327,
    328,
    328,
    328,
    327,
    324,
    314,
    311,
    329,
    329,
    315,
    329,
    315,
    327,
    328,
    327,
    327,
    327,
    316,
    316,
    328,
    327,
    328,
    327,
    316,
    328,
    316,
    316,
    328,
    316,
    316,
    327,
    317,
    329,
    329,
    231,
    250,
    249,
    250,
    235,
    330,
    330,
    334,
    236,
    248,
    247,
    248,
    248,
    248,
    241,
    242,
    247,
    248,
    248,
    247,
    237,
    235,
    236,
    236,
    334,
    335,
    347,
    335,
    346,
    335,
    347,
    346,
    346,
    335,
    237,
    235,
    335,
    347,
    347,
    346,
    335,
    346,
    335,
    347,
    237,
    235,
    347,
    346,
    328,
    316,
    316,
    328,
    316,
    328,
    327,
    327,
    316,
    328,
    316,
    327,
    316,
    316,
    328,
    316,
    327,
    328,
    328,
    317,
    329,
    311,
    312,
    325,
    311,
    315,
    327,
    316,
    316,
    328,
    316,
    328,
    328,
    328,
    316,
    328,
    316,
    328,
    316,
    316,
    327,
    316,
    328,
    316,
    327,
    317,
    311,
    329,
    249,
    231,
    250,
    232,
    245,
    330,
    330,
    334,
    236,
    248,
    236,
    248,
    248,
    241,
    240,
    238,
    239,
    242,
    248,
    247,
    237,
    235,
    236,
    248,
    344,
    335,
    335,
    347,
    347,
    347,
    346,
    335,
    347,
    346,
    237,
    235,
    346,
    347,
    347,
    346,
    346,
    347,
    346,
    347,
    237,
    235,
    347,
    346,
    316,
    328,
    327,
    327,
    327,
    327,
    316,
    328,
    327,
    327,
    327,
    316,
    327,
    316,
    328,
    316,
    328,
    316,
    328,
    324,
    313,
    313,
    325,
    328,
    311,
    318,
    319,
    319,
    319,
    319,
    322,
    327,
    316,
    328,
    316,
    327,
    327,
    327,
    327,
    328,
    328,
    316,
    327,
    328,
    328,
    317,
    329,
    311,
    249,
    250,
    231,
    235,
    330,
    330,
    330,
    334,
    248,
    247,
    248,
    248,
    248,
    237,
    231,
    249,
    250,
    235,
    247,
    248,
    237,
    238,
    239,
    239,
    239,
    239,
    239,
    239,
    239,
    239,
    239,
    239,
    239,
    239,
    240,
    235,
    346,
    347,
    335,
    347,
    346,
    335,
    335,
    347,
    237,
    235,
    335,
    346,
    327,
    316,
    316,
    316,
    327,
    316,
    328,
    327,
    316,
    328,
    328,
    328,
    327,
    328,
    328,
    327,
    316,
    316,
    327,
    328,
    328,
    316,
    316,
    327,
    329,
    311,
    329,
    329,
    311,
    329,
    318,
    322,
    327,
    328,
    327,
    328,
    316,
    328,
    328,
    327,
    327,
    328,
    316,
    328,
    316,
    317,
    329,
    329,
    249,
    250,
    232,
    245,
    330,
    330,
    330,
    334,
    248,
    247,
    248,
    248,
    236,
    237,
    231,
    250,
    250,
    235,
    247,
    236,
    237,
    232,
    233,
    233,
    233,
    233,
    233,
    233,
    233,
    233,
    233,
    233,
    233,
    233,
    233,
    245,
    335,
    347,
    346,
    335,
    347,
    347,
    346,
    347,
    237,
    235,
    347,
    335,
    327,
    327,
    316,
    328,
    328,
    327,
    328,
    328,
    327,
    327,
    328,
    316,
    327,
    328,
    316,
    316,
    328,
    316,
    328,
    316,
    316,
    327,
    328,
    328,
    311,
    329,
    329,
    311,
    329,
    329,
    311,
    315,
    328,
    316,
    316,
    316,
    327,
    316,
    316,
    328,
    316,
    327,
    328,
    327,
    327,
    317,
    311,
    311,
    250,
    249,
    235,
    331,
    332,
    332,
    332,
    344,
    247,
    236,
    236,
    247,
    248,
    237,
    231,
    250,
    231,
    235,
    236,
    236,
    237,
    235,
    247,
    248,
    346,
    347,
    335,
    335,
    346,
    335,
    335,
    346,
    347,
    347,
    335,
    347,
    335,
    335,
    346,
    347,
    335,
    335,
    335,
    335,
    237,
    235,
    335,
    346,
    328,
    328,
    316,
    316,
    328,
    316,
    316,
    316,
    328,
    327,
    316,
    327,
    327,
    328,
    327,
    316,
    316,
    327,
    316,
    328,
    327,
    327,
    316,
    327,
    311,
    329,
    329,
    329,
    329,
    311,
    311,
    318,
    322,
    316,
    328,
    327,
    327,
    316,
    328,
    328,
    316,
    327,
    316,
    316,
    316,
    317,
    311,
    311,
    250,
    231,
    235,
    334,
    236,
    248,
    247,
    236,
    248,
    248,
    236,
    248,
    236,
    237,
    231,
    250,
    249,
    235,
    236,
    248,
    237,
    235,
    236,
    236,
    346,
    347,
    346,
    347,
    335,
    346,
    335,
    335,
    346,
    335,
    335,
    346,
    346,
    347,
    335,
    335,
    346,
    347,
    346,
    347,
    237,
    235,
    335,
    347,
    327,
    328,
    316,
    327,
    327,
    316,
    327,
    327,
    327,
    327,
    327,
    316,
    327,
    328,
    328,
    327,
    316,
    327,
    328,
    328,
    316,
    328,
    328,
    316,
    329,
    311,
    329,
    311,
    329,
    311,
    311,
    311,
    315,
    328,
    327,
    316,
    316,
    328,
    316,
    316,
    316,
    316,
    316,
    327,
    328,
    317,
    311,
    311,
    231,
    249,
    235,
    334,
    248,
    247,
    247,
    247,
    236,
    247,
    236,
    247,
    236,
    237,
    249,
    249,
    231,
    235,
    248,
    247,
    237,
    235,
    236,
    236,
    335,
    335,
    346,
    346,
    347,
    335,
    346,
    335,
    335,
    335,
    346,
    347,
    347,
    346,
    347,
    346,
    335,
    346,
    347,
    335,
    237,
    235,
    335,
    335,
    328,
    316,
    327,
    328,
    327,
    316,
    327,
    327,
    328,
    328,
    328,
    328,
    328,
    327,
    316,
    327,
    327,
    316,
    327,
    316,
    316,
    327,
    327,
    316,
    329,
    329,
    311,
    329,
    329,
    311,
    329,
    312,
    325,
    327,
    316,
    327,
    316,
    316,
    328,
    328,
    316,
    328,
    316,
    328,
    316,
    317,
    311,
    329,
    233,
    233,
    245,
    334,
    248,
    247,
    236,
    248,
    247,
    248,
    248,
    248,
    248,
    237,
    250,
    249,
    250,
    235,
    248,
    247,
    237,
    235,
    247,
    236,
    347,
    346,
    346,
    335,
    347,
    335,
    347,
    335,
    346,
    346,
    347,
    347,
    346,
    346,
    347,
    335,
    335,
    347,
    335,
    335,
    237,
    235,
    346,
    335,
    328,
    327,
    316,
    327,
    327,
    328,
    327,
    327,
    328,
    328,
    327,
    316,
    328,
    316,
    316,
    316,
    316,
    316,
    327,
    316,
    327,
    316,
    316,
    327,
    314,
    329,
    311,
    311,
    329,
    311,
    311,
    315,
    316,
    316,
    316,
    328,
    316,
    316,
    316,
    328,
    328,
    328,
    316,
    327,
    327,
    324,
    313,
    314,
    330,
    330,
    330,
    334,
    248,
    247,
    247,
    247,
    247,
    247,
    247,
    248,
    247,
    237,
    249,
    249,
    232,
    245,
    236,
    236,
    247,
    247,
    248,
    236,
    346,
    346,
    335,
    335,
    346,
    346,
    347,
    335,
    346,
    347,
    347,
    347,
    346,
    347,
    346,
    346,
    346,
    346,
    347,
    347,
    335,
    346,
    335,
    347,
    316,
    316,
    328,
    327,
    316,
    316,
    316,
    316,
    316,
    328,
    327,
    328,
    327,
    316,
    316,
    328,
    327,
    328,
    327,
    327,
    328,
    327,
    316,
    328,
    317,
    329,
    329,
    329,
    329,
    329,
    329,
    315,
    328,
    316,
    327,
    327,
    328,
    327,
    327,
    327,
    327,
    327,
    328,
    316,
    327,
    327,
    328,
    324,
    330,
    330,
    330,
    334,
    248,
    247,
    248,
    236,
    236,
    247,
    247,
    248,
    236,
    237,
    231,
    231,
    235,
    248,
    247,
    236,
    236,
    248,
    248,
    236,
    335,
    346,
    347,
    335,
    346,
    347,
    347,
    346,
    346,
    347,
    335,
    346,
    347,
    335,
    335,
    346,
    335,
    346,
    335,
    346,
    346,
    335,
    347,
    335,
    328,
    316,
    327,
    316,
    327,
    328,
    327,
    327,
    328,
    327,
    327,
    328,
    327,
    316,
    327,
    328,
    316,
    328,
    327,
    328,
    316,
    316,
    327,
    328,
    317,
    311,
    311,
    311,
    329,
    329,
    329,
    315,
    328,
    316,
    328,
    316,
    328,
    328,
    327,
    327,
    327,
    328,
    328,
    316,
    328,
    327,
    328,
    327,
    330,
    330,
    330,
    334,
    248,
    248,
    236,
    247,
    248,
    247,
    248,
    248,
    247,
    237,
    249,
    250,
    235,
    236,
    236,
    247,
    247,
    247,
    248,
    236,
    347,
    346,
    346,
    346,
    346,
    347,
    335,
    335,
    335,
    335,
    346,
    347,
    335,
    346,
    347,
    347,
    347,
    335,
    335,
    346,
    335,
    347,
    346,
    335,
    327,
    327,
    316,
    316,
    328,
    316,
    316,
    327,
    328,
    316,
    327,
    316,
    327,
    328,
    316,
    328,
    316,
    327,
    328,
    328,
    327,
    327,
    328,
    327,
    317,
    311,
    329,
    311,
    311,
    329,
    311,
    315,
    328,
    328,
    316,
    316,
    328,
    316,
    327,
    316,
    328,
    327,
    316,
    328,
    327,
    316,
    327,
    316,
    330,
    330,
    330,
    334,
    236,
    248,
    248,
    247,
    247,
    248,
    248,
    248,
    236,
    237,
    249,
    231,
    235,
    247,
    236,
    248,
    244,
    245,
    248,
    236,
    346,
    347,
    347,
    346,
    347,
    335,
    346,
    346,
    346,
    335,
    346,
    346,
    347,
    347,
    347,
    335,
    347,
    347,
    335,
    347,
    244,
    245,
    346,
    347,
    316,
    328,
    328,
    327,
    316,
    316,
    327,
    327,
    328,
    327,
    328,
    327,
    316,
    327,
    327,
    328,
    327,
    316,
    328,
    327,
    316,
    316,
    328,
    327,
    317,
    311,
    329,
    329,
    311,
    329,
    311,
    315,
    328,
    328,
    328,
    316,
    327,
    328,
    328,
    328,
    328,
    321,
    322,
    328,
    316,
    327,
    316,
    327,
    330,
    330,
    330,
    337,
    341,
    248,
    236,
    236,
    248,
    236,
    248,
    247,
    247,
    237,
    231,
    232,
    245,
    248,
    248,
    236,
    248,
    247,
    248,
    248,
    346,
    347,
    346,
    347,
    346,
    335,
    335,
    335,
    346,
    335,
    335,
    347,
    346,
    335,
    346,
    347,
    335,
    347,
    347,
    335,
    346,
    347,
    335,
    347,
    328,
    328,
    327,
    327,
    316,
    316,
    328,
    327,
    327,
    327,
    328,
    328,
    327,
    327,
    328,
    328,
    328,
    327,
    327,
    327,
    328,
    327,
    328,
    328,
    317,
    311,
    329,
    329,
    329,
    311,
    311,
    315,
    328,
    328,
    328,
    328,
    327,
    327,
    316,
    316,
    316,
    324,
    325,
    327,
    316,
    328,
    328,
    328,
    330,
    330,
    330,
    330,
    337,
    338,
    338,
    341,
    236,
    248,
    247,
    248,
    236,
    244,
    234,
    235,
    236,
    247,
    248,
    248,
    247,
    236,
    247,
    236,
    347,
    347,
    335,
    346,
    346,
    335,
    346,
    346,
    335,
    346,
    346,
    347,
    347,
    335,
    347,
    335,
    346,
    347,
    347,
    335,
    335,
    346,
    335,
    335,
    350,
    350,
    350,
    350,
    350,
    350,
    350,
    350,
    350,
    350,
    350,
    350,
    350,
    350,
    350,
    350,
    350,
    350,
    350,
    350,
    350,
    350,
    350,
    350,
    271,
    271,
    271,
    271,
    278,
    282,
    330,
    330,
    330,
    330,
    330,
    330,
    330,
    330,
    330,
    330,
    330,
    330,
    330,
    330,
    330,
    330,
    330,
    330,
    347,
    347,
    346,
    346,
    347,
    346,
    347,
    347,
    347,
    346,
    347,
    346,
    346,
    335,
    347,
    346,
    346,
    335,
    346,
    335,
    346,
    346,
    347,
    347,
    346,
    346,
    335,
    347,
    347,
    346,
    347,
    346,
    335,
    347,
    346,
    347,
    346,
    347,
    335,
    335,
    347,
    335,
    346,
    335,
    347,
    347,
    346,
    347,
    350,
    350,
    350,
    350,
    350,
    350,
    350,
    350,
    350,
    350,
    350,
    350,
    350,
    350,
    350,
    350,
    350,
    350,
    350,
    350,
    350,
    350,
    350,
    350,
    271,
    271,
    271,
    271,
    271,
    275,
    330,
    330,
    330,
    330,
    330,
    330,
    330,
    330,
    330,
    330,
    330,
    330,
    330,
    330,
    330,
    330,
    330,
    330,
    335,
    346,
    335,
    346,
    347,
    335,
    346,
    346,
    346,
    346,
    347,
    346,
    347,
    335,
    335,
    347,
    346,
    346,
    347,
    347,
    335,
    335,
    346,
    346,
    335,
    335,
    346,
    347,
    346,
    335,
    335,
    346,
    347,
    335,
    346,
    335,
    335,
    347,
    335,
    346,
    346,
    335,
    335,
    346,
    347,
    335,
    346,
    346,
    350,
    350,
    350,
    350,
    301,
    299,
    299,
    299,
    299,
    299,
    299,
    299,
    299,
    299,
    299,
    302,
    350,
    350,
    350,
    350,
    350,
    350,
    350,
    350,
    271,
    271,
    271,
    271,
    271,
    278,
    282,
    330,
    330,
    330,
    330,
    330,
    330,
    330,
    330,
    330,
    330,
    330,
    330,
    330,
    330,
    330,
    330,
    330,
    346,
    347,
    373,
    371,
    371,
    371,
    371,
    372,
    335,
    346,
    335,
    347,
    347,
    347,
    346,
    347,
    335,
    335,
    335,
    347,
    347,
    346,
    335,
    347,
    347,
    335,
    335,
    335,
    347,
    346,
    346,
    346,
    347,
    347,
    335,
    346,
    346,
    347,
    335,
    347,
    335,
    335,
    373,
    371,
    372,
    347,
    346,
    347,
    350,
    350,
    350,
    301,
    300,
    291,
    291,
    291,
    291,
    291,
    291,
    291,
    291,
    291,
    291,
    298,
    302,
    350,
    350,
    350,
    350,
    350,
    350,
    350,
    271,
    271,
    271,
    271,
    271,
    271,
    278,
    282,
    330,
    330,
    330,
    330,
    330,
    330,
    330,
    330,
    330,
    330,
    330,
    330,
    330,
    330,
    330,
    330,
    335,
    373,
    379,
    374,
    374,
    374,
    374,
    385,
    335,
    335,
    346,
    347,
    347,
    346,
    346,
    346,
    347,
    346,
    346,
    347,
    335,
    335,
    346,
    346,
    335,
    335,
    335,
    346,
    347,
    346,
    340,
    338,
    338,
    338,
    341,
    346,
    346,
    335,
    335,
    347,
    347,
    373,
    379,
    374,
    378,
    371,
    372,
    346,
    352,
    352,
    352,
    297,
    291,
    291,
    291,
    291,
    291,
    291,
    291,
    291,
    291,
    291,
    291,
    291,
    295,
    350,
    350,
    350,
    350,
    350,
    350,
    350,
    271,
    271,
    271,
    271,
    271,
    271,
    271,
    275,
    330,
    330,
    330,
    330,
    330,
    330,
    330,
    330,
    330,
    330,
    330,
    330,
    330,
    330,
    330,
    331,
    346,
    381,
    374,
    374,
    374,
    374,
    374,
    385,
    346,
    335,
    335,
    346,
    335,
    347,
    346,
    335,
    346,
    347,
    335,
    335,
    346,
    346,
    347,
    346,
    347,
    335,
    347,
    335,
    347,
    340,
    339,
    349,
    348,
    348,
    337,
    341,
    347,
    335,
    346,
    347,
    373,
    379,
    374,
    374,
    374,
    374,
    385,
    347,
    307,
    296,
    307,
    297,
    291,
    291,
    291,
    291,
    291,
    291,
    291,
    291,
    291,
    291,
    291,
    291,
    295,
    352,
    352,
    352,
    352,
    353,
    350,
    350,
    271,
    271,
    271,
    271,
    271,
    271,
    271,
    275,
    330,
    330,
    331,
    332,
    332,
    333,
    330,
    330,
    330,
    330,
    330,
    330,
    330,
    330,
    330,
    334,
    347,
    381,
    374,
    374,
    374,
    374,
    374,
    385,
    347,
    346,
    335,
    347,
    347,
    347,
    335,
    347,
    335,
    347,
    335,
    347,
    335,
    347,
    335,
    347,
    347,
    335,
    335,
    346,
    340,
    339,
    330,
    348,
    349,
    348,
    330,
    337,
    338,
    338,
    338,
    338,
    338,
    338,
    341,
    374,
    374,
    374,
    385,
    335,
    308,
    308,
    308,
    297,
    291,
    291,
    291,
    291,
    291,
    291,
    291,
    291,
    291,
    291,
    291,
    291,
    295,
    296,
    308,
    296,
    308,
    363,
    352,
    352,
    271,
    271,
    271,
    271,
    271,
    271,
    271,
    275,
    330,
    331,
    344,
    232,
    245,
    343,
    332,
    332,
    332,
    333,
    330,
    330,
    330,
    330,
    330,
    334,
    335,
    375,
    384,
    374,
    374,
    374,
    376,
    380,
    346,
    346,
    346,
    335,
    347,
    346,
    347,
    347,
    347,
    347,
    335,
    335,
    347,
    346,
    347,
    335,
    346,
    346,
    346,
    340,
    339,
    348,
    349,
    348,
    349,
    348,
    349,
    330,
    330,
    348,
    349,
    349,
    330,
    349,
    337,
    338,
    338,
    341,
    385,
    346,
    296,
    296,
    307,
    297,
    291,
    291,
    291,
    291,
    291,
    291,
    291,
    291,
    291,
    291,
    291,
    291,
    295,
    308,
    296,
    307,
    308,
    308,
    307,
    308,
    271,
    271,
    271,
    271,
    271,
    271,
    271,
    278,
    282,
    344,
    237,
    235,
    374,
    376,
    380,
    248,
    247,
    343,
    333,
    330,
    330,
    330,
    331,
    344,
    335,
    335,
    375,
    384,
    374,
    376,
    380,
    347,
    347,
    347,
    335,
    347,
    335,
    346,
    346,
    335,
    346,
    346,
    346,
    347,
    335,
    347,
    346,
    335,
    346,
    346,
    340,
    339,
    348,
    348,
    330,
    349,
    349,
    348,
    330,
    348,
    348,
    348,
    330,
    330,
    349,
    348,
    330,
    330,
    330,
    334,
    380,
    346,
    307,
    307,
    308,
    304,
    293,
    294,
    291,
    291,
    291,
    291,
    291,
    291,
    291,
    291,
    291,
    292,
    305,
    308,
    307,
    308,
    307,
    307,
    296,
    307,
    271,
    271,
    271,
    271,
    271,
    271,
    271,
    272,
    285,
    384,
    237,
    235,
    376,
    380,
    248,
    248,
    236,
    247,
    343,
    333,
    331,
    332,
    344,
    247,
    347,
    346,
    347,
    375,
    377,
    380,
    346,
    346,
    346,
    335,
    335,
    347,
    347,
    335,
    346,
    340,
    338,
    338,
    341,
    335,
    346,
    335,
    335,
    346,
    347,
    346,
    336,
    349,
    330,
    349,
    330,
    330,
    330,
    348,
    349,
    330,
    348,
    348,
    349,
    349,
    349,
    348,
    330,
    348,
    330,
    334,
    346,
    346,
    296,
    307,
    308,
    308,
    308,
    304,
    293,
    293,
    293,
    293,
    293,
    293,
    293,
    293,
    293,
    305,
    308,
    307,
    307,
    296,
    307,
    307,
    296,
    308,
    271,
    271,
    271,
    271,
    271,
    271,
    272,
    285,
    247,
    375,
    237,
    235,
    380,
    247,
    247,
    247,
    248,
    248,
    247,
    343,
    344,
    236,
    247,
    248,
    347,
    335,
    335,
    346,
    335,
    346,
    347,
    335,
    346,
    335,
    346,
    347,
    346,
    335,
    335,
    336,
    330,
    330,
    337,
    341,
    346,
    347,
    346,
    347,
    347,
    340,
    339,
    349,
    349,
    330,
    348,
    348,
    348,
    348,
    348,
    349,
    330,
    349,
    348,
    348,
    330,
    349,
    330,
    348,
    349,
    334,
    347,
    347,
    296,
    307,
    296,
    307,
    307,
    296,
    296,
    307,
    307,
    307,
    307,
    296,
    308,
    308,
    296,
    307,
    296,
    307,
    296,
    296,
    296,
    296,
    308,
    308,
    271,
    271,
    271,
    271,
    271,
    271,
    275,
    248,
    236,
    248,
    237,
    235,
    247,
    236,
    248,
    247,
    236,
    236,
    248,
    247,
    248,
    236,
    247,
    247,
    335,
    347,
    335,
    346,
    335,
    347,
    346,
    347,
    346,
    335,
    346,
    347,
    346,
    340,
    338,
    339,
    349,
    330,
    330,
    334,
    347,
    347,
    347,
    346,
    346,
    343,
    333,
    348,
    330,
    349,
    330,
    330,
    348,
    330,
    330,
    349,
    349,
    349,
    349,
    349,
    348,
    349,
    348,
    349,
    349,
    334,
    335,
    347,
    307,
    296,
    296,
    296,
    307,
    307,
    307,
    308,
    308,
    307,
    296,
    296,
    307,
    308,
    307,
    296,
    307,
    296,
    296,
    296,
    308,
    308,
    307,
    308,
    271,
    271,
    271,
    271,
    271,
    272,
    285,
    247,
    248,
    236,
    237,
    235,
    247,
    248,
    248,
    248,
    236,
    248,
    248,
    247,
    236,
    247,
    248,
    241,
    335,
    347,
    335,
    347,
    335,
    335,
    335,
    346,
    340,
    338,
    338,
    338,
    338,
    339,
    349,
    348,
    348,
    348,
    330,
    334,
    346,
    346,
    347,
    346,
    347,
    347,
    336,
    330,
    348,
    330,
    330,
    348,
    348,
    330,
    349,
    330,
    349,
    348,
    349,
    348,
    349,
    330,
    348,
    348,
    330,
    334,
    346,
    347,
    307,
    296,
    307,
    308,
    296,
    296,
    307,
    307,
    308,
    308,
    296,
    307,
    307,
    307,
    308,
    296,
    307,
    308,
    296,
    296,
    296,
    308,
    307,
    308,
    271,
    271,
    271,
    271,
    271,
    275,
    247,
    247,
    248,
    236,
    237,
    235,
    247,
    247,
    248,
    236,
    248,
    236,
    236,
    236,
    247,
    247,
    241,
    240,
    347,
    347,
    335,
    340,
    338,
    338,
    338,
    338,
    339,
    330,
    330,
    348,
    348,
    348,
    349,
    330,
    330,
    330,
    348,
    334,
    335,
    346,
    347,
    346,
    347,
    347,
    343,
    333,
    330,
    330,
    330,
    330,
    330,
    349,
    349,
    349,
    349,
    349,
    330,
    330,
    349,
    348,
    348,
    348,
    348,
    334,
    335,
    347,
    308,
    296,
    296,
    308,
    296,
    307,
    307,
    308,
    307,
    307,
    307,
    307,
    307,
    307,
    308,
    296,
    308,
    307,
    307,
    296,
    296,
    308,
    296,
    296,
    271,
    271,
    271,
    271,
    271,
    278,
    282,
    248,
    247,
    236,
    237,
    235,
    371,
    372,
    236,
    247,
    247,
    236,
    247,
    247,
    236,
    247,
    237,
    249,
    335,
    340,
    338,
    339,
    330,
    348,
    348,
    330,
    330,
    330,
    349,
    349,
    330,
    349,
    330,
    330,
    349,
    348,
    349,
    334,
    335,
    335,
    346,
    347,
    346,
    346,
    335,
    336,
    330,
    348,
    349,
    330,
    349,
    349,
    330,
    349,
    348,
    330,
    349,
    330,
    348,
    349,
    349,
    330,
    330,
    334,
    346,
    335,
    296,
    308,
    308,
    308,
    308,
    296,
    296,
    308,
    307,
    296,
    296,
    308,
    308,
    307,
    308,
    307,
    307,
    307,
    296,
    296,
    307,
    308,
    308,
    296,
    271,
    271,
    271,
    271,
    271,
    271,
    275,
    236,
    236,
    373,
    237,
    235,
    374,
    378,
    372,
    247,
    236,
    236,
    248,
    236,
    236,
    247,
    244,
    234,
    346,
    336,
    348,
    349,
    330,
    348,
    349,
    330,
    348,
    348,
    348,
    330,
    330,
    330,
    349,
    330,
    330,
    330,
    349,
    337,
    341,
    347,
    346,
    347,
    335,
    346,
    346,
    336,
    349,
    349,
    349,
    330,
    348,
    330,
    330,
    349,
    330,
    330,
    330,
    349,
    330,
    348,
    349,
    349,
    349,
    334,
    347,
    346,
    308,
    308,
    296,
    296,
    308,
    308,
    307,
    296,
    307,
    308,
    307,
    308,
    308,
    296,
    296,
    308,
    308,
    307,
    307,
    307,
    307,
    308,
    307,
    308,
    271,
    271,
    271,
    271,
    271,
    271,
    275,
    236,
    248,
    381,
    237,
    238,
    239,
    239,
    239,
    239,
    239,
    239,
    239,
    239,
    239,
    242,
    247,
    244,
    346,
    336,
    330,
    349,
    348,
    348,
    330,
    348,
    349,
    348,
    349,
    349,
    349,
    330,
    330,
    348,
    330,
    330,
    349,
    330,
    337,
    341,
    335,
    346,
    335,
    346,
    346,
    336,
    348,
    348,
    349,
    348,
    330,
    349,
    330,
    330,
    330,
    330,
    330,
    348,
    349,
    330,
    349,
    349,
    330,
    334,
    346,
    347,
    307,
    296,
    308,
    307,
    307,
    308,
    296,
    308,
    296,
    307,
    296,
    308,
    308,
    296,
    307,
    296,
    308,
    296,
    308,
    308,
    296,
    308,
    308,
    296,
    271,
    271,
    271,
    271,
    271,
    271,
    275,
    247,
    236,
    381,
    244,
    233,
    233,
    233,
    233,
    233,
    233,
    233,
    233,
    233,
    234,
    235,
    248,
    247,
    347,
    343,
    333,
    348,
    330,
    348,
    330,
    330,
    349,
    349,
    349,
    330,
    330,
    348,
    349,
    330,
    330,
    330,
    330,
    349,
    348,
    337,
    338,
    338,
    347,
    347,
    340,
    339,
    349,
    330,
    330,
    349,
    348,
    330,
    330,
    348,
    330,
    330,
    348,
    330,
    330,
    349,
    349,
    348,
    349,
    334,
    335,
    347,
    307,
    307,
    308,
    296,
    307,
    307,
    307,
    296,
    296,
    308,
    308,
    296,
    307,
    296,
    296,
    308,
    296,
    307,
    308,
    308,
    308,
    307,
    296,
    296,
    271,
    271,
    271,
    271,
    271,
    271,
    275,
    248,
    247,
    381,
    374,
    374,
    374,
    376,
    380,
    248,
    248,
    241,
    239,
    242,
    237,
    235,
    247,
    247,
    346,
    347,
    336,
    348,
    348,
    349,
    348,
    348,
    330,
    349,
    330,
    330,
    349,
    330,
    349,
    348,
    330,
    348,
    348,
    349,
    330,
    349,
    330,
    349,
    347,
    346,
    336,
    348,
    349,
    348,
    348,
    330,
    349,
    348,
    348,
    330,
    349,
    330,
    349,
    330,
    330,
    348,
    330,
    348,
    348,
    334,
    346,
    347,
    308,
    308,
    308,
    296,
    308,
    296,
    308,
    296,
    307,
    307,
    296,
    308,
    296,
    296,
    296,
    296,
    296,
    307,
    307,
    307,
    308,
    308,
    296,
    308,
    271,
    271,
    271,
    271,
    271,
    271,
    278,
    279,
    282,
    375,
    384,
    374,
    374,
    385,
    247,
    248,
    241,
    240,
    249,
    238,
    242,
    235,
    247,
    236,
    346,
    346,
    336,
    348,
    348,
    348,
    348,
    330,
    330,
    348,
    349,
    349,
    348,
    348,
    348,
    349,
    348,
    330,
    348,
    349,
    348,
    330,
    349,
    348,
    346,
    335,
    336,
    330,
    330,
    349,
    348,
    330,
    348,
    330,
    348,
    330,
    349,
    348,
    349,
    348,
    348,
    348,
    348,
    330,
    330,
    334,
    335,
    335,
    307,
    307,
    296,
    308,
    296,
    307,
    308,
    308,
    296,
    296,
    308,
    308,
    307,
    296,
    296,
    296,
    296,
    296,
    307,
    308,
    296,
    308,
    296,
    308,
    271,
    271,
    271,
    271,
    271,
    271,
    271,
    271,
    278,
    282,
    375,
    377,
    377,
    380,
    247,
    236,
    237,
    249,
    231,
    249,
    235,
    235,
    247,
    236,
    346,
    347,
    336,
    330,
    348,
    330,
    348,
    348,
    348,
    349,
    349,
    349,
    349,
    330,
    330,
    349,
    330,
    349,
    348,
    349,
    330,
    330,
    349,
    348,
    347,
    335,
    336,
    349,
    330,
    348,
    330,
    348,
    330,
    330,
    348,
    330,
    349,
    349,
    348,
    349,
    348,
    348,
    348,
    348,
    348,
    334,
    335,
    347,
    296,
    308,
    296,
    308,
    308,
    307,
    308,
    308,
    308,
    296,
    307,
    296,
    296,
    296,
    296,
    296,
    307,
    296,
    308,
    307,
    308,
    307,
    296,
    307,
    271,
    271,
    271,
    271,
    271,
    271,
    271,
    271,
    272,
    285,
    248,
    236,
    248,
    248,
    236,
    248,
    237,
    250,
    250,
    232,
    245,
    235,
    248,
    247,
    347,
    340,
    339,
    330,
    349,
    349,
    349,
    349,
    349,
    330,
    330,
    348,
    349,
    330,
    349,
    348,
    349,
    330,
    348,
    349,
    330,
    348,
    348,
    330,
    346,
    346,
    343,
    333,
    348,
    348,
    349,
    348,
    330,
    348,
    330,
    349,
    348,
    330,
    349,
    330,
    348,
    349,
    330,
    330,
    348,
    334,
    335,
    347,
    296,
    296,
    307,
    296,
    308,
    296,
    296,
    308,
    296,
    307,
    296,
    307,
    308,
    307,
    308,
    307,
    308,
    307,
    307,
    307,
    296,
    296,
    308,
    296,
    271,
    271,
    271,
    271,
    271,
    271,
    272,
    273,
    285,
    236,
    236,
    248,
    248,
    248,
    247,
    236,
    244,
    233,
    233,
    245,
    237,
    235,
    236,
    248,
    346,
    336,
    348,
    349,
    330,
    330,
    330,
    348,
    348,
    348,
    348,
    330,
    349,
    330,
    349,
    349,
    349,
    330,
    349,
    330,
    330,
    330,
    348,
    330,
    346,
    347,
    373,
    336,
    331,
    332,
    332,
    332,
    333,
    348,
    349,
    348,
    348,
    330,
    330,
    348,
    349,
    349,
    348,
    348,
    330,
    334,
    335,
    346,
    307,
    307,
    296,
    308,
    307,
    307,
    296,
    307,
    296,
    296,
    296,
    308,
    307,
    308,
    308,
    296,
    307,
    296,
    307,
    308,
    296,
    307,
    307,
    307,
    271,
    271,
    271,
    271,
    271,
    271,
    275,
    247,
    247,
    247,
    236,
    236,
    247,
    248,
    248,
    247,
    236,
    247,
    248,
    236,
    237,
    235,
    247,
    248,
    346,
    336,
    349,
    349,
    330,
    348,
    330,
    330,
    330,
    348,
    330,
    348,
    330,
    349,
    330,
    349,
    349,
    330,
    349,
    348,
    348,
    349,
    331,
    332,
    347,
    347,
    381,
    343,
    344,
    374,
    374,
    374,
    343,
    333,
    348,
    348,
    330,
    330,
    330,
    330,
    330,
    349,
    348,
    348,
    348,
    334,
    347,
    335,
    296,
    308,
    308,
    307,
    307,
    307,
    296,
    307,
    307,
    307,
    296,
    308,
    308,
    308,
    296,
    307,
    296,
    308,
    308,
    308,
    308,
    308,
    296,
    296,
    271,
    271,
    271,
    271,
    271,
    271,
    275,
    247,
    236,
    236,
    236,
    247,
    247,
    248,
    236,
    236,
    248,
    247,
    248,
    247,
    237,
    235,
    236,
    236,
    335,
    336,
    330,
    348,
    349,
    349,
    330,
    330,
    349,
    330,
    330,
    348,
    348,
    349,
    348,
    349,
    349,
    348,
    330,
    349,
    349,
    331,
    344,
    347,
    347,
    346,
    375,
    384,
    374,
    374,
    374,
    374,
    385,
    336,
    348,
    348,
    349,
    330,
    348,
    348,
    331,
    332,
    332,
    333,
    349,
    334,
    347,
    346,
    308,
    307,
    307,
    296,
    296,
    308,
    296,
    308,
    307,
    308,
    308,
    301,
    299,
    299,
    299,
    302,
    296,
    308,
    296,
    308,
    307,
    307,
    296,
    296,
    271,
    271,
    271,
    271,
    271,
    271,
    275,
    248,
    248,
    236,
    236,
    247,
    248,
    247,
    236,
    248,
    236,
    236,
    248,
    248,
    237,
    235,
    248,
    236,
    347,
    343,
    333,
    348,
    330,
    348,
    330,
    348,
    348,
    348,
    330,
    349,
    348,
    348,
    330,
    348,
    348,
    349,
    348,
    349,
    348,
    334,
    346,
    347,
    346,
    335,
    335,
    375,
    384,
    374,
    376,
    377,
    380,
    343,
    333,
    349,
    349,
    330,
    330,
    349,
    334,
    379,
    378,
    343,
    333,
    334,
    346,
    335,
    296,
    307,
    301,
    302,
    307,
    308,
    307,
    307,
    296,
    308,
    301,
    300,
    291,
    291,
    291,
    298,
    302,
    308,
    307,
    308,
    308,
    308,
    296,
    308,
    271,
    271,
    271,
    241,
    239,
    242,
    275,
    247,
    236,
    248,
    247,
    247,
    236,
    248,
    248,
    247,
    248,
    236,
    247,
    247,
    237,
    235,
    247,
    248,
    347,
    346,
    343,
    333,
    349,
    348,
    349,
    348,
    330,
    349,
    349,
    330,
    348,
    330,
    349,
    330,
    349,
    348,
    348,
    330,
    330,
    337,
    341,
    335,
    335,
    346,
    347,
    335,
    375,
    377,
    380,
    347,
    335,
    335,
    336,
    348,
    349,
    349,
    349,
    331,
    344,
    374,
    374,
    378,
    336,
    334,
    346,
    335,
    307,
    296,
    297,
    295,
    307,
    307,
    307,
    307,
    296,
    308,
    297,
    291,
    291,
    291,
    291,
    291,
    295,
    308,
    307,
    307,
    307,
    307,
    296,
    307,
    271,
    271,
    241,
    240,
    250,
    235,
    278,
    279,
    282,
    247,
    248,
    247,
    247,
    248,
    236,
    248,
    236,
    236,
    247,
    247,
    237,
    235,
    236,
    236,
    335,
    373,
    379,
    343,
    333,
    349,
    349,
    330,
    348,
    330,
    348,
    349,
    330,
    330,
    348,
    348,
    349,
    348,
    330,
    330,
    349,
    348,
    337,
    341,
    335,
    347,
    347,
    335,
    346,
    346,
    347,
    346,
    335,
    335,
    343,
    333,
    349,
    330,
    348,
    334,
    374,
    374,
    374,
    374,
    343,
    344,
    335,
    335,
    308,
    307,
    297,
    295,
    308,
    308,
    296,
    296,
    296,
    296,
    297,
    291,
    291,
    291,
    291,
    291,
    295,
    308,
    307,
    307,
    296,
    296,
    308,
    308,
    271,
    271,
    244,
    234,
    231,
    235,
    271,
    271,
    275,
    236,
    236,
    236,
    248,
    247,
    247,
    248,
    247,
    236,
    247,
    236,
    237,
    235,
    236,
    247,
    346,
    381,
    374,
    374,
    343,
    333,
    330,
    330,
    348,
    348,
    349,
    330,
    330,
    349,
    348,
    349,
    330,
    349,
    348,
    330,
    348,
    348,
    330,
    334,
    335,
    346,
    346,
    347,
    347,
    335,
    346,
    346,
    335,
    346,
    346,
    343,
    333,
    331,
    332,
    344,
    374,
    374,
    374,
    374,
    374,
    385,
    346,
    347,
    296,
    308,
    297,
    295,
    308,
    308,
    307,
    308,
    307,
    301,
    300,
    291,
    291,
    291,
    291,
    292,
    305,
    308,
    296,
    296,
    296,
    308,
    296,
    308,
    271,
    271,
    271,
    237,
    231,
    235,
    271,
    271,
    275,
    236,
    236,
    236,
    236,
    247,
    236,
    236,
    236,
    236,
    247,
    247,
    237,
    235,
    248,
    247,
    335,
    381,
    374,
    374,
    374,
    343,
    333,
    349,
    330,
    330,
    330,
    349,
    349,
    348,
    330,
    330,
    330,
    330,
    348,
    348,
    349,
    348,
    348,
    334,
    335,
    335,
    346,
    347,
    347,
    347,
    335,
    346,
    346,
    335,
    347,
    335,
    343,
    344,
    347,
    381,
    374,
    374,
    374,
    374,
    374,
    385,
    347,
    347,
    296,
    296,
    304,
    303,
    299,
    299,
    299,
    299,
    299,
    300,
    291,
    291,
    291,
    291,
    292,
    305,
    308,
    307,
    307,
    296,
    307,
    308,
    296,
    308,
    271,
    271,
    271,
    244,
    233,
    245,
    272,
    273,
    285,
    247,
    247,
    248,
    247,
    236,
    248,
    248,
    247,
    248,
    247,
    247,
    237,
    235,
    236,
    236,
    346,
    381,
    374,
    374,
    374,
    374,
    336,
    348,
    349,
    330,
    349,
    348,
    330,
    348,
    349,
    349,
    330,
    349,
    349,
    348,
    330,
    348,
    331,
    344,
    347,
    335,
    346,
    347,
    347,
    346,
    347,
    346,
    335,
    347,
    347,
    335,
    346,
    335,
    335,
    375,
    384,
    374,
    374,
    374,
    376,
    380,
    346,
    335,
    307,
    307,
    308,
    297,
    291,
    291,
    291,
    291,
    291,
    291,
    291,
    292,
    293,
    293,
    305,
    296,
    307,
    296,
    307,
    307,
    307,
    307,
    307,
    307,
    271,
    271,
    271,
    271,
    271,
    271,
    275,
    247,
    248,
    248,
    247,
    248,
    236,
    247,
    248,
    248,
    248,
    236,
    248,
    236,
    248,
    247,
    248,
    248,
    346,
    375,
    384,
    374,
    376,
    377,
    343,
    333,
    349,
    349,
    348,
    330,
    349,
    349,
    348,
    348,
    348,
    330,
    348,
    348,
    331,
    332,
    344,
    335,
    347,
    335,
    346,
    347,
    347,
    335,
    347,
    346,
    335,
    347,
    346,
    335,
    335,
    347,
    335,
    346,
    375,
    377,
    377,
    377,
    380,
    346,
    335,
    335,
    296,
    307,
    308,
    297,
    291,
    291,
    291,
    291,
    291,
    291,
    291,
    295,
    307,
    308,
    308,
    296,
    307,
    307,
    308,
    308,
    307,
    308,
    308,
    308,
    271,
    271,
    271,
    271,
    271,
    272,
    285,
    236,
    247,
    236,
    236,
    248,
    248,
    236,
    248,
    248,
    236,
    248,
    248,
    247,
    247,
    247,
    247,
    247,
    347,
    347,
    375,
    377,
    380,
    347,
    347,
    343,
    332,
    333,
    330,
    348,
    330,
    349,
    330,
    348,
    349,
    349,
    330,
    331,
    344,
    346,
    335,
    347,
    346,
    335,
    335,
    335,
    347,
    347,
    347,
    335,
    346,
    347,
    346,
    346,
    347,
    335,
    347,
    346,
    335,
    335,
    347,
    347,
    346,
    346,
    346,
    347,
    296,
    308,
    308,
    297,
    291,
    291,
    291,
    291,
    291,
    291,
    291,
    295,
    296,
    307,
    296,
    296,
    307,
    308,
    296,
    308,
    307,
    307,
    296,
    308,
    271,
    271,
    271,
    271,
    271,
    278,
    282,
    248,
    247,
    248,
    248,
    236,
    248,
    236,
    247,
    236,
    248,
    247,
    248,
    247,
    247,
    236,
    236,
    247,
    335,
    347,
    335,
    335,
    347,
    335,
    346,
    335,
    347,
    343,
    332,
    332,
    332,
    333,
    349,
    349,
    330,
    330,
    331,
    344,
    347,
    335,
    335,
    335,
    335,
    346,
    335,
    347,
    335,
    346,
    335,
    335,
    346,
    335,
    347,
    347,
    335,
    346,
    346,
    346,
    346,
    335,
    347,
    347,
    335,
    347,
    347,
    347,
    308,
    307,
    307,
    304,
    293,
    293,
    293,
    293,
    293,
    293,
    293,
    305,
    307,
    307,
    308,
    307,
    308,
    307,
    307,
    307,
    307,
    296,
    307,
    308,
    271,
    271,
    271,
    271,
    271,
    271,
    275,
    248,
    248,
    248,
    248,
    248,
    248,
    248,
    247,
    247,
    248,
    247,
    236,
    248,
    244,
    245,
    236,
    247,
    347,
    347,
    347,
    347,
    346,
    347,
    347,
    347,
    335,
    346,
    347,
    335,
    346,
    343,
    332,
    332,
    332,
    332,
    344,
    347,
    347,
    335,
    347,
    346,
    346,
    347,
    347,
    346,
    346,
    335,
    335,
    346,
    335,
    346,
    335,
    335,
    346,
    347,
    346,
    335,
    346,
    347,
    347,
    335,
    346,
    346,
    346,
    347,
    308,
    307,
    308,
    307,
    308,
    296,
    308,
    307,
    308,
    307,
    296,
    307,
    308,
    296,
    307,
    308,
    307,
    308,
    308,
    296,
    308,
    307,
    296,
    296,
    271,
    271,
    271,
    271,
    271,
    271,
    278,
    282,
    247,
    247,
    247,
    236,
    248,
    248,
    248,
    236,
    247,
    236,
    247,
    247,
    247,
    248,
    236,
    247,
    347,
    346,
    346,
    346,
    346,
    347,
    347,
    346,
    335,
    347,
    335,
    346,
    347,
    346,
    347,
    347,
    347,
    346,
    347,
    335,
    347,
    347,
    346,
    335,
    346,
    346,
    346,
    335,
    346,
    335,
    346,
    347,
    335,
    346,
    347,
    347,
    347,
    347,
    335,
    347,
    335,
    347,
    346,
    335,
    335,
    346,
    346,
    335,
    296,
    308,
    307,
    296,
    308,
    307,
    307,
    296,
    296,
    307,
    307,
    296,
    307,
    296,
    308,
    307,
    307,
    308,
    296,
    308,
    307,
    307,
    307,
    296,
    271,
    271,
    271,
    271,
    271,
    271,
    271,
    275,
    247,
    236,
    236,
    248,
    236,
    248,
    247,
    236,
    248,
    236,
    236,
    247,
    236,
    236,
    248,
    247,
    346,
    335,
    347,
    346,
    346,
    346,
    335,
    346,
    335,
    346,
    335,
    346,
    347,
    347,
    347,
    347,
    347,
    346,
    346,
    347,
    347,
    335,
    347,
    347,
    347,
    335,
    347,
    347,
    346,
    335,
    346,
    335,
    335,
    346,
    347,
    347,
    335,
    347,
    346,
    335,
    335,
    347,
    335,
    346,
    335,
    346,
    347,
    347
   ]
  },
  {
   "id": 2,
   "type": "tilelayer",
   "name": "detail",
   "width": 96,
   "height": 72,
   "x": 0,
   "y": 0,
   "opacity": 1,
   "visible": true,
   "data": [
    0,
    0,
    0,
    0,
    0,
    0,
    0,
    0,
    0,
    0,
    0,
    0,
    0,
    0,
    0,
    0,
    0,
    0,
    0,
    0,
    0,
    0,
    0,
    0,
    0,
    0,
    0,
    0,
    0,
    0,
    0,
    0,
    0,
    0,
    0,
    0,
    0,
    0,
    0,
    0,
    0,
    0,
    0,
    0,
    0,
    0,
    0,
    0,
    0,
    0,
    0,
    0,
    0,
    0,
    0,
    0,
    0,
    0,
    0,
    0,
    0,
    0,
    0,
    0,
    0,
    0,
    0,
    0,
    0,
    0,
    0,
    0,
    0,
    0,
    0,
    0,
    0,
    0,
    0,
    0,
    0,
    0,
    0,
    0,
    0,
    0,
    0,
    0,
    0,
    0,
    0,
    0,
    0,
    0,
    0,
    0,
    0,
    0,
    0,
    0,
    0,
    0,
    0,
    0,
    0,
    0,
    0,
    0,
    0,
    0,
    0,
    0,
    430,
    0,
    0,
    0,
    0,
    0,
    0,
    0,
    0,
    0,
    0,
    0,
    0,
    0,
    0,
    0,
    0,
    0,
    0,
    0,
    0,
    0,
    0,
    0,
    0,
    0,
    0,
    0,
    0,
    0,
    0,
    0,
    0,
    0,
    0,
    0,
    0,
    0,
    0,
    0,
    0,
    0,
    0,
    0,
    0,
    0,
    0,
    0,
    0,
    0,
    0,
    0,
    0,
    0,
    0,
    0,
    0,
    0,
    0,
    430,
    0,
    0,
    0,
    0,
    0,
    0,
    0,
    0,
    0,
    0,
    0,
    0,
    0,
    0,
    0,
    427,
    0,
    0,
    0,
    0,
    0,
    0,
    0,
    0,
    0,
    0,
    0,
    0,
    0,
    0,
    0,
    0,
    0,
    0,
    0,
    0,
    0,
    427,
    0,
    0,
    0,
    0,
    427,
    0,
    0,
    0,
    0,
    0,
    0,
    0,
    0,
    0,
    0,
    0,
    0,
    0,
    0,
    0,
    0,
    0,
    0,
    0,
    0,
    0,
    0,
    0,
    0,
    0,
    0,
    0,
    0,
    0,
    0,
    0,
    0,
    0,
    0,
    0,
    0,
    0,
    0,
    0,
    0,
    0,
    0,
    0,
    0,
    0,
    0,
    0,
    0,
    0,
    0,
    0,
    0,
    0,
    0,
    0,
    0,
    0,
    0,
    0,
    0,
    0,
    0,
    0,
    0,
    0,
    0,
    0,
    0,
    0,
    0,
    0,
    0,
    0,
    0,
    0,
    0,
    0,
    0,
    0,
    0,
    0,
    0,
    0,
    0,
    0,
    424,
    0,
    0,
    0,
    0,
    0,
    433,
    0,
    0,
    0,
    0,
    0,
    0,
    0,
    0,
    0,
    0,
    0,
    0,
    0,
    0,
    0,
    0,
    0,
    0,
    0,
    0,
    0,
    0,
    0,
    0,
    0,
    0,
    0,
    0,
    0,
    0,
    0,
    0,
    0,
    0,
    0,
    0,
    0,
    0,
    0,
    0,
    0,
    0,
    0,
    0,
    0,
    0,
    0,
    0,
    0,
    0,
    0,
    0,
    0,
    0,
    0,
    0,
    0,
    0,
    0,
    0,
    0,
    0,
    0,
    0,
    0,
    0,
    0,
    0,
    0,
    0,
    0,
    0,
    0,
    0,
    0,
    0,
    0,
    0,
    0,
    0,
    0,
    0,
    0,
    0,
    0,
    0,
    450,
    451,
    452,
    0,
    0,
    0,
    0,
    424,
    0,
    0,
    0,
    0,
    0,
    0,
    0,
    0,
    0,
    0,
    450,
    451,
    452,
    0,
    0,
    0,
    0,
    0,
    0,
    0,
    0,
    0,
    0,
    0,
    0,
    0,
    0,
    0,
    0,
    0,
    0,
    0,
    0,
    0,
    0,
    0,
    0,
    0,
    0,
    0,
    0,
    0,
    0,
    0,
    431,
    0,
    0,
    428,
    0,
    0,
    0,
    0,
    409,
    410,
    0,
    0,
    0,
    0,
    0,
    0,
    0,
    0,
    0,
    0,
    0,
    0,
    0,
    0,
    0,
    0,
    0,
    0,
    0,
    0,
    0,
    0,
    0,
    0,
    0,
    0,
    0,
    0,
    0,
    0,
    0,
    0,
    0,
    427,
    0,
    427,
    0,
    427,
    0,
    0,
    0,
    0,
    0,
    0,
    0,
    0,
    0,
    0,
    0,
    0,
    433,
    0,
    0,
    0,
    0,
    0,
    0,
    0,
    0,
    0,
    0,
    0,
    0,
    0,
    0,
    0,
    0,
    0,
    0,
    0,
    0,
    0,
    0,
    0,
    0,
    0,
    0,
    0,
    0,
    0,
    0,
    0,
    0,
    0,
    0,
    0,
    0,
    0,
    0,
    0,
    0,
    0,
    0,
    0,
    0,
    0,
    0,
    0,
    0,
    0,
    0,
    0,
    0,
    0,
    0,
    0,
    0,
    0,
    0,
    0,
    0,
    0,
    0,
    0,
    0,
    0,
    0,
    0,
    0,
    0,
    0,
    0,
    0,
    0,
    0,
    0,
    0,
    0,
    0,
    0,
    0,
    0,
    0,
    0,
    0,
    0,
    0,
    427,
    0,
    427,
    0,
    0,
    0,
    0,
    0,
    0,
    0,
    0,
    0,
    0,
    0,
    0,
    0,
    0,
    0,
    0,
    0,
    0,
    0,
    0,
    0,
    0,
    0,
    0,
    0,
    0,
    0,
    0,
    0,
    0,
    0,
    0,
    0,
    0,
    0,
    0,
    0,
    0,
    0,
    0,
    0,
    0,
    0,
    0,
    0,
    0,
    0,
    0,
    0,
    0,
    0,
    0,
    0,
    0,
    0,
    0,
    0,
    0,
    0,
    0,
    0,
    0,
    0,
    0,
    0,
    0,
    0,
    0,
    0,
    0,
    0,
    433,
    0,
    0,
    0,
    0,
    0,
    0,
    0,
    0,
    424,
    0,
    0,
    0,
    0,
    0,
    0,
    0,
    0,
    0,
    0,
    0,
    0,
    0,
    0,
    0,
    0,
    0,
    0,
    0,
    0,
    0,
    0,
    0,
    0,
    0,
    0,
    0,
    0,
    0,
    0,
    0,
    0,
    0,
    0,
    0,
    0,
    0,
    0,
    0,
    0,
    0,
    0,
    0,
    0,
    0,
    0,
    0,
    0,
    0,
    0,
    0,
    0,
    0,
    0,
    0,
    0,
    0,
    0,
    0,
    0,
    0,
    0,
    0,
    0,
    0,
    0,
    0,
    0,
    0,
    0,
    0,
    0,
    0,
    0,
    0,
    0,
    0,
    0,
    0,
    0,
    0,
    0,
    0,
    0,
    0,
    0,
    0,
    0,
    0,
    0,
    0,
    0,
    0,
    0,
    0,
    0,
    0,
    0,
    0,
    0,
    0,
    0,
    0,
    0,
    0,
    0,
    0,
    0,
    0,
    0,
    0,
    0,
    0,
    0,
    0,
    0,
    0,
    0,
    0,
    0,
    0,
    0,
    0,
    0,
    0,
    0,
    0,
    0,
    0,
    0,
    0,
    0,
    0,
    0,
    0,
    0,
    0,
    0,
    0,
    0,
    0,
    0,
    0,
    0,
    0,
    0,
    0,
    0,
    0,
    0,
    0,
    0,
    0,
    0,
    0,
    0,
    0,
    0,
    0,
    0,
    0,
    0,
    0,
    0,
    0,
    0,
    0,
    0,
    0,
    0,
    0,
    0,
    0,
    0,
    0,
    0,
    0,
    0,
    0,
    0,
    0,
    430,
    0,
    0,
    0,
    0,
    0,
    0,
    0,
    0,
    0,
    0,
    0,
    0,
    0,
    0,
    427,
    0,
    0,
    0,
    0,
    0,
    0,
    424,
    0,
    433,
    0,
    0,
    0,
    0,
    0,
    0,
    0,
    0,
    0,
    0,
    0,
    0,
    0,
    0,
    0,
    0,
    0,
    0,
    433,
    0,
    0,
    0,
    0,
    0,
    0,
    0,
    0,
    0,
    0,
    0,
    0,
    0,
    0,
    0,
    0,
    0,
    0,
    0,
    0,
    0,
    0,
    0,
    0,
    0,
    0,
    0,
    0,
    0,
    0,
    0,
    0,
    0,
    0,
    0,
    0,
    0,
    0,
    0,
    0,
    0,
    0,
    0,
    0,
    0,
    0,
    0,
    0,
    0,
    0,
    0,
    0,
    0,
    0,
    0,
    0,
    0,
    0,
    0,
    0,
    0,
    0,
    0,
    0,
    0,
    0,
    0,
    0,
    0,
    0,
    0,
    0,
    0,
    0,
    0,
    427,
    0,
    0,
    430,
    0,
    0,
    0,
    0,
    0,
    0,
    0,
    0,
    0,
    0,
    0,
    0,
    0,
    424,
    0,
    0,
    0,
    0,
    0,
    0,
    0,
    0,
    0,
    0,
    0,
    433,
    0,
    0,
    0,
    0,
    0,
    0,
    0,
    0,
    0,
    0,
    0,
    0,
    0,
    0,
    0,
    0,
    0,
    425,
    0,
    0,
    0,
    0,
    0,
    0,
    0,
    0,
    0,
    0,
    0,
    0,
    0,
    0,
    0,
    0,
    0,
    0,
    0,
    0,
    0,
    0,
    0,
    0,
    0,
    0,
    0,
    0,
    0,
    0,
    430,
    0,
    0,
    0,
    0,
    0,
    0,
    0,
    0,
    0,
    0,
    0,
    0,
    0,
    0,
    0,
    0,
    0,
    0,
    0,
    0,
    0,
    0,
    0,
    0,
    0,
    0,
    0,
    0,
    0,
    0,
    0,
    0,
    0,
    0,
    0,
    0,
    0,
    0,
    0,
    0,
    0,
    0,
    0,
    0,
    0,
    0,
    0,
    0,
    0,
    0,
    0,
    0,
    0,
    0,
    0,
    0,
    0,
    0,
    0,
    0,
    0,
    0,
    0,
    0,
    0,
    0,
    0,
    0,
    0,
    0,
    0,
    0,
    0,
    0,
    0,
    0,
    0,
    0,
    0,
    0,
    429,
    0,
    0,
    429,
    0,
    0,
    0,
    0,
    0,
    0,
    0,
    0,
    0,
    0,
    0,
    0,
    0,
    0,
    0,
    0,
    0,
    0,
    0,
    0,
    0,
    0,
    0,
    0,
    0,
    0,
    0,
    0,
    0,
    0,
    0,
    0,
    0,
    0,
    0,
    0,
    0,
    0,
    0,
    0,
    0,
    0,
    0,
    0,
    0,
    0,
    0,
    0,
    0,
    0,
    0,
    0,
    0,
    0,
    0,
    0,
    0,
    0,
    0,
    0,
    0,
    0,
    0,
    0,
    0,
    0,
    0,
    0,
    0,
    0,
    0,
    0,
    0,
    0,
    0,
    434,
    0,
    0,
    0,
    0,
    0,
    0,
    428,
    0,
    0,
    0,
    0,
    0,
    0,
    0,
    0,
    0,
    0,
    0,
    0,
    0,
    0,
    0,
    0,
    0,
    0,
    0,
    0,
    0,
    0,
    0,
    0,
    0,
    0,
    0,
    0,
    0,
    0,
    0,
    0,
    0,
    0,
    0,
    0,
    0,
    0,
    0,
    0,
    0,
    0,
    0,
    0,
    0,
    0,
    0,
    0,
    0,
    0,
    0,
    0,
    427,
    0,
    0,
    0,
    0,
    0,
    0,
    0,
    0,
    0,
    0,
    0,
    0,
    0,
    0,
    0,
    0,
    0,
    0,
    0,
    0,
    0,
    0,
    0,
    0,
    0,
    0,
    0,
    0,
    0,
    0,
    0,
    0,
    0,
    0,
    0,
    0,
    0,
    0,
    0,
    0,
    0,
    428,
    0,
    0,
    0,
    0,
    0,
    0,
    0,
    0,
    0,
    0,
    0,
    0,
    0,
    0,
    0,
    0,
    0,
    0,
    0,
    0,
    0,
    0,
    0,
    0,
    0,
    0,
    0,
    0,
    0,
    0,
    0,
    0,
    0,
    0,
    0,
    0,
    0,
    0,
    0,
    0,
    0,
    0,
    0,
    0,
    427,
    0,
    0,
    0,
    0,
    0,
    0,
    0,
    0,
    0,
    0,
    0,
    0,
    0,
    430,
    0,
    0,
    0,
    0,
    0,
    0,
    0,
    0,
    0,
    0,
    0,
    0,
    0,
    0,
    0,
    0,
    0,
    0,
    0,
    0,
    0,
    0,
    0,
    0,
    0,
    0,
    0,
    0,
    0,
    0,
    0,
    0,
    0,
    0,
    0,
    0,
    0,
    0,
    0,
    0,
    0,
    0,
    427,
    0,
    0,
    0,
    0,
    0,
    0,
    0,
    0,
    0,
    0,
    0,
    0,
    0,
    0,
    0,
    0,
    0,
    0,
    0,
    0,
    0,
    0,
    0,
    0,
    0,
    0,
    0,
    0,
    0,
    0,
    0,
    424,
    0,
    0,
    0,
    0,
    0,
    0,
    0,
    0,
    0,
    0,
    0,
    0,
    0,
    0,
    0,
    0,
    0,
    0,
    0,
    0,
    0,
    0,
    0,
    0,
    0,
    0,
    0,
    0,
    0,
    0,
    0,
    0,
    0,
    0,
    0,
    0,
    0,
    0,
    0,
    0,
    0,
    0,
    0,
    0,
    0,
    0,
    0,
    0,
    0,
    0,
    0,
    0,
    0,
    0,
    0,
    0,
    0,
    0,
    0,
    0,
    0,
    0,
    0,
    0,
    0,
    0,
    0,
    0,
    0,
    0,
    0,
    0,
    0,
    0,
    0,
    0,
    0,
    0,
    0,
    0,
    0,
    0,
    0,
    0,
    0,
    0,
    0,
    0,
    0,
    0,
    0,
    0,
    0,
    0,
    0,
    0,
    0,
    0,
    0,
    0,
    0,
    0,
    0,
    0,
    0,
    0,
    0,
    0,
    0,
    0,
    0,
    0,
    0,
    0,
    0,
    0,
    0,
    0,
    0,
    0,
    0,
    0,
    0,
    0,
    0,
    0,
    0,
    0,
    0,
    0,
    0,
    0,
    0,
    0,
    0,
    0,
    0,
    0,
    0,
    0,
    0,
    0,
    0,
    0,
    0,
    0,
    0,
    0,
    0,
    0,
    0,
    0,
    0,
    0,
    0,
    0,
    0,
    0,
    0,
    0,
    0,
    0,
    433,
    0,
    0,
    0,
    0,
    0,
    0,
    0,
    0,
    0,
    0,
    0,
    0,
    0,
    0,
    0,
    0,
    0,
    0,
    0,
    0,
    0,
    0,
    0,
    0,
    0,
    0,
    0,
    0,
    0,
    0,
    0,
    0,
    0,
    427,
    0,
    0,
    0,
    0,
    0,
    0,
    0,
    0,
    0,
    0,
    433,
    0,
    0,
    0,
    0,
    0,
    0,
    0,
    0,
    0,
    0,
    0,
    0,
    0,
    0,
    0,
    0,
    0,
    0,
    0,
    0,
    0,
    0,
    0,
    0,
    0,
    0,
    0,
    0,
    0,
    0,
    0,
    0,
    0,
    0,
    0,
    0,
    0,
    0,
    0,
    0,
    0,
    0,
    0,
    0,
    0,
    0,
    0,
    424,
    0,
    0,
    0,
    0,
    0,
    0,
    0,
    0,
    0,
    0,
    0,
    0,
    0,
    0,
    0,
    0,
    0,
    0,
    0,
    0,
    0,
    0,
    0,
    0,
    0,
    0,
    0,
    0,
    0,
    0,
    0,
    0,
    0,
    0,
    0,
    0,
    0,
    0,
    0,
    0,
    0,
    0,
    0,
    0,
    0,
    0,
    427,
    427,
    0,
    0,
    0,
    0,
    0,
    0,
    0,
    0,
    0,
    0,
    0,
    0,
    0,
    0,
    0,
    0,
    0,
    0,
    0,
    0,
    0,
    0,
    0,
    0,
    0,
    0,
    0,
    0,
    0,
    0,
    0,
    0,
    0,
    0,
    0,
    429,
    0,
    401,
    402,
    434,
    0,
    0,
    0,
    0,
    0,
    0,
    0,
    0,
    0,
    0,
    430,
    0,
    0,
    0,
    0,
    0,
    0,
    0,
    0,
    0,
    0,
    0,
    424,
    0,
    0,
    0,
    0,
    0,
    0,
    0,
    0,
    0,
    0,
    0,
    0,
    0,
    0,
    0,
    0,
    0,
    0,
    0,
    0,
    0,
    0,
    0,
    0,
    0,
    0,
    0,
    0,
    0,
    0,
    0,
    430,
    0,
    0,
    0,
    0,
    0,
    0,
    0,
    0,
    0,
    0,
    0,
    0,
    0,
    0,
    0,
    0,
    0,
    0,
    0,
    0,
    0,
    0,
    0,
    0,
    0,
    0,
    0,
    0,
    0,
    0,
    0,
    0,
    0,
    0,
    0,
    0,
    0,
    0,
    0,
    0,
    0,
    0,
    0,
    0,
    0,
    0,
    0,
    0,
    0,
    0,
    424,
    427,
    0,
    0,
    0,
    0,
    0,
    0,
    0,
    0,
    0,
    0,
    0,
    0,
    0,
    0,
    0,
    0,
    0,
    0,
    0,
    0,
    0,
    0,
    0,
    0,
    0,
    0,
    0,
    0,
    0,
    0,
    0,
    0,
    0,
    0,
    0,
    0,
    0,
    0,
    0,
    0,
    0,
    0,
    0,
    0,
    0,
    0,
    0,
    0,
    0,
    0,
    0,
    0,
    0,
    0,
    0,
    0,
    0,
    0,
    0,
    0,
    0,
    0,
    0,
    0,
    0,
    0,
    0,
    0,
    0,
    0,
    0,
    0,
    0,
    0,
    401,
    402,
    0,
    0,
    0,
    0,
    0,
    0,
    0,
    0,
    0,
    0,
    0,
    0,
    426,
    0,
    0,
    0,
    0,
    0,
    0,
    0,
    0,
    0,
    0,
    0,
    0,
    0,
    0,
    0,
    0,
    0,
    0,
    0,
    0,
    0,
    0,
    0,
    0,
    0,
    0,
    0,
    0,
    0,
    0,
    0,
    0,
    0,
    0,
    0,
    0,
    0,
    0,
    0,
    0,
    0,
    0,
    0,
    0,
    0,
    0,
    0,
    0,
    0,
    0,
    0,
    430,
    0,
    0,
    0,
    0,
    0,
    0,
    0,
    0,
    0,
    0,
    0,
    0,
    0,
    0,
    430,
    0,
    0,
    0,
    0,
    0,
    0,
    0,
    0,
    0,
    0,
    0,
    0,
    0,
    0,
    0,
    0,
    0,
    0,
    0,
    0,
    0,
    0,
    0,
    426,
    0,
    0,
    0,
    0,
    0,
    0,
    0,
    0,
    0,
    430,
    0,
    0,
    0,
    0,
    0,
    0,
    0,
    0,
    0,
    0,
    426,
    0,
    0,
    0,
    424,
    0,
    0,
    0,
    0,
    0,
    0,
    0,
    0,
    0,
    0,
    0,
    0,
    0,
    0,
    0,
    0,
    0,
    0,
    0,
    0,
    0,
    0,
    0,
    0,
    0,
    0,
    0,
    0,
    0,
    0,
    0,
    0,
    0,
    0,
    0,
    0,
    424,
    0,
    0,
    0,
    0,
    0,
    0,
    0,
    0,
    0,
    0,
    0,
    0,
    0,
    0,
    0,
    0,
    0,
    0,
    0,
    0,
    0,
    0,
    0,
    0,
    0,
    0,
    428,
    0,
    0,
    0,
    0,
    0,
    429,
    428,
    0,
    0,
    0,
    0,
    0,
    0,
    0,
    0,
    0,
    0,
    0,
    0,
    0,
    0,
    0,
    0,
    0,
    0,
    0,
    0,
    0,
    0,
    0,
    0,
    0,
    0,
    0,
    0,
    0,
    0,
    0,
    0,
    0,
    0,
    0,
    0,
    0,
    0,
    0,
    0,
    0,
    0,
    0,
    0,
    0,
    0,
    0,
    0,
    0,
    0,
    0,
    0,
    0,
    0,
    0,
    0,
    0,
    0,
    0,
    0,
    433,
    0,
    0,
    424,
    0,
    0,
    0,
    0,
    0,
    0,
    0,
    0,
    0,
    0,
    0,
    0,
    0,
    0,
    0,
    0,
    0,
    0,
    0,
    0,
    0,
    0,
    0,
    0,
    0,
    431,
    0,
    0,
    0,
    0,
    0,
    0,
    0,
    0,
    0,
    0,
    0,
    0,
    0,
    0,
    0,
    433,
    426,
    0,
    0,
    0,
    0,
    0,
    0,
    0,
    0,
    0,
    0,
    0,
    0,
    0,
    427,
    0,
    0,
    0,
    0,
    0,
    0,
    0,
    0,
    0,
    0,
    0,
    0,
    0,
    0,
    0,
    0,
    0,
    0,
    0,
    0,
    0,
    0,
    0,
    0,
    0,
    0,
    0,
    0,
    0,
    0,
    0,
    0,
    0,
    0,
    0,
    0,
    0,
    0,
    430,
    0,
    0,
    0,
    0,
    0,
    0,
    0,
    0,
    0,
    0,
    0,
    0,
    0,
    0,
    0,
    0,
    0,
    0,
    0,
    0,
    0,
    0,
    0,
    426,
    0,
    0,
    0,
    0,
    0,
    0,
    0,
    0,
    0,
    0,
    0,
    0,
    0,
    0,
    0,
    0,
    0,
    0,
    0,
    0,
    0,
    0,
    0,
    0,
    0,
    0,
    0,
    0,
    0,
    0,
    0,
    0,
    0,
    0,
    0,
    0,
    0,
    0,
    0,
    427,
    0,
    0,
    0,
    0,
    0,
    0,
    0,
    0,
    0,
    0,
    0,
    0,
    0,
    0,
    0,
    0,
    0,
    0,
    0,
    0,
    0,
    0,
    0,
    0,
    0,
    0,
    0,
    0,
    0,
    0,
    0,
    0,
    0,
    0,
    0,
    0,
    0,
    0,
    0,
    0,
    0,
    0,
    0,
    0,
    0,
    0,
    0,
    0,
    0,
    0,
    0,
    0,
    0,
    0,
    0,
    0,
    0,
    0,
    0,
    0,
    0,
    0,
    0,
    0,
    426,
    0,
    0,
    0,
    0,
    0,
    0,
    0,
    0,
    0,
    0,
    0,
    0,
    0,
    0,
    0,
    0,
    0,
    0,
    0,
    0,
    0,
    0,
    0,
    0,
    0,
    0,
    0,
    0,
    0,
    0,
    0,
    0,
    0,
    0,
    0,
    0,
    0,
    0,
    0,
    0,
    0,
    0,
    0,
    0,
    0,
    0,
    0,
    0,
    0,
    0,
    0,
    0,
    0,
    0,
    0,
    0,
    0,
    0,
    0,
    0,
    0,
    430,
    0,
    0,
    0,
    0,
    0,
    0,
    0,
    0,
    0,
    0,
    0,
    0,
    0,
    0,
    0,
    0,
    0,
    0,
    0,
    0,
    0,
    0,
    0,
    0,
    0,
    0,
    0,
    0,
    0,
    0,
    0,
    0,
    0,
    431,
    0,
    0,
    0,
    0,
    0,
    0,
    0,
    0,
    0,
    0,
    0,
    0,
    0,
    0,
    0,
    0,
    0,
    0,
    0,
    0,
    0,
    0,
    0,
    0,
    0,
    0,
    0,
    0,
    0,
    0,
    0,
    0,
    0,
    0,
    0,
    0,
    0,
    0,
    0,
    0,
    0,
    0,
    0,
    0,
    0,
    0,
    0,
    0,
    0,
    0,
    0,
    0,
    0,
    0,
    0,
    0,
    0,
    0,
    0,
    0,
    0,
    0,
    0,
    0,
    0,
    0,
    0,
    0,
    0,
    0,
    0,
    0,
    0,
    0,
    0,
    0,
    0,
    0,
    0,
    0,
    0,
    0,
    0,
    0,
    0,
    0,
    0,
    0,
    0,
    0,
    0,
    0,
    0,
    0,
    0,
    0,
    0,
    0,
    0,
    0,
    0,
    0,
    0,
    0,
    0,
    0,
    0,
    0,
    432,
    0,
    0,
    0,
    0,
    0,
    0,
    0,
    0,
    0,
    427,
    0,
    0,
    0,
    0,
    0,
    0,
    0,
    0,
    0,
    0,
    0,
    0,
    0,
    0,
    0,
    0,
    0,
    0,
    0,
    0,
    0,
    0,
    0,
    0,
    0,
    0,
    0,
    0,
    0,
    0,
    0,
    0,
    0,
    0,
    0,
    0,
    0,
    0,
    0,
    424,
    0,
    0,
    427,
    0,
    0,
    0,
    0,
    0,
    0,
    0,
    0,
    0,
    0,
    0,
    0,
    0,
    0,
    0,
    0,
    0,
    0,
    423,
    0,
    0,
    0,
    0,
    0,
    0,
    0,
    0,
    0,
    0,
    425,
    0,
    0,
    0,
    0,
    0,
    0,
    0,
    0,
    0,
    0,
    0,
    0,
    0,
    0,
    0,
    0,
    0,
    0,
    0,
    0,
    0,
    0,
    0,
    0,
    0,
    0,
    0,
    0,
    0,
    0,
    0,
    0,
    0,
    0,
    0,
    0,
    0,
    0,
    0,
    0,
    0,
    0,
    0,
    0,
    0,
    0,
    0,
    0,
    0,
    0,
    0,
    0,
    0,
    0,
    0,
    0,
    0,
    0,
    0,
    0,
    0,
    0,
    0,
    0,
    0,
    0,
    0,
    0,
    0,
    0,
    0,
    0,
    0,
    0,
    0,
    0,
    0,
    0,
    0,
    0,
    0,
    0,
    0,
    0,
    0,
    0,
    0,
    0,
    0,
    434,
    0,
    0,
    0,
    0,
    0,
    0,
    0,
    0,
    0,
    0,
    0,
    0,
    0,
    0,
    0,
    426,
    0,
    0,
    0,
    0,
    0,
    423,
    0,
    0,
    0,
    0,
    0,
    0,
    0,
    0,
    0,
    0,
    0,
    0,
    0,
    0,
    0,
    0,
    0,
    0,
    0,
    0,
    0,
    0,
    0,
    0,
    0,
    0,
    0,
    0,
    0,
    0,
    0,
    0,
    0,
    0,
    0,
    0,
    0,
    0,
    0,
    0,
    0,
    0,
    0,
    0,
    0,
    0,
    424,
    433,
    0,
    0,
    0,
    0,
    0,
    0,
    0,
    0,
    0,
    0,
    0,
    0,
    0,
    0,
    0,
    0,
    0,
    0,
    0,
    0,
    0,
    0,
    0,
    0,
    0,
    0,
    0,
    0,
    0,
    0,
    0,
    0,
    0,
    0,
    0,
    0,
    0,
    0,
    0,
    0,
    0,
    0,
    0,
    429,
    0,
    0,
    423,
    0,
    0,
    0,
    0,
    0,
    0,
    0,
    0,
    0,
    0,
    0,
    0,
    0,
    0,
    0,
    0,
    0,
    0,
    0,
    0,
    0,
    0,
    0,
    0,
    0,
    0,
    0,
    0,
    0,
    0,
    0,
    0,
    0,
    0,
    0,
    0,
    0,
    0,
    0,
    0,
    0,
    0,
    0,
    0,
    0,
    0,
    0,
    427,
    0,
    430,
    0,
    0,
    427,
    0,
    0,
    0,
    0,
    0,
    0,
    0,
    0,
    0,
    0,
    0,
    0,
    0,
    0,
    0,
    0,
    432,
    0,
    0,
    0,
    425,
    0,
    0,
    0,
    0,
    0,
    0,
    0,
    0,
    0,
    0,
    0,
    0,
    0,
    0,
    0,
    0,
    0,
    0,
    0,
    0,
    0,
    0,
    0,
    0,
    0,
    0,
    0,
    0,
    0,
    430,
    0,
    0,
    0,
    0,
    0,
    0,
    0,
    0,
    0,
    0,
    0,
    0,
    0,
    0,
    0,
    0,
    0,
    0,
    0,
    0,
    0,
    0,
    0,
    0,
    0,
    0,
    441,
    442,
    443,
    0,
    0,
    0,
    0,
    0,
    0,
    0,
    0,
    0,
    0,
    0,
    433,
    0,
    0,
    0,
    0,
    0,
    427,
    0,
    441,
    442,
    443,
    0,
    0,
    0,
    0,
    0,
    0,
    0,
    0,
    0,
    0,
    0,
    0,
    0,
    426,
    0,
    423,
    0,
    0,
    0,
    0,
    0,
    423,
    428,
    441,
    442,
    443,
    0,
    0,
    423,
    0,
    0,
    0,
    0,
    0,
    0,
    0,
    0,
    0,
    0,
    0,
    0,
    0,
    0,
    0,
    0,
    0,
    0,
    441,
    442,
    443,
    0,
    0,
    0,
    433,
    0,
    0,
    0,
    0,
    0,
    0,
    0,
    0,
    0,
    0,
    0,
    0,
    0,
    0,
    0,
    0,
    0,
    0,
    0,
    0,
    0,
    0,
    0,
    0,
    0,
    0,
    0,
    0,
    0,
    0,
    0,
    430,
    430,
    0,
    0,
    0,
    0,
    0,
    0,
    0,
    0,
    0,
    0,
    0,
    0,
    0,
    0,
    0,
    0,
    0,
    0,
    0,
    0,
    0,
    0,
    0,
    0,
    0,
    0,
    0,
    0,
    0,
    0,
    0,
    0,
    0,
    0,
    0,
    0,
    0,
    0,
    0,
    0,
    0,
    0,
    0,
    0,
    0,
    0,
    0,
    0,
    0,
    0,
    0,
    0,
    0,
    0,
    0,
    0,
    0,
    0,
    0,
    0,
    0,
    0,
    0,
    0,
    0,
    0,
    0,
    0,
    0,
    0,
    0,
    0,
    0,
    0,
    0,
    0,
    0,
    0,
    0,
    0,
    0,
    0,
    0,
    0,
    0,
    0,
    0,
    0,
    0,
    0,
    0,
    0,
    0,
    0,
    0,
    0,
    0,
    433,
    0,
    0,
    0,
    0,
    0,
    0,
    0,
    0,
    0,
    0,
    0,
    0,
    0,
    0,
    0,
    0,
    429,
    0,
    0,
    417,
    418,
    0,
    432,
    0,
    0,
    0,
    0,
    429,
    0,
    0,
    0,
    0,
    431,
    0,
    0,
    0,
    0,
    0,
    0,
    0,
    0,
    0,
    0,
    0,
    0,
    0,
    0,
    0,
    0,
    0,
    0,
    0,
    0,
    0,
    0,
    0,
    0,
    0,
    0,
    0,
    0,
    0,
    0,
    0,
    0,
    0,
    0,
    0,
    0,
    0,
    0,
    0,
    0,
    0,
    0,
    0,
    0,
    0,
    0,
    0,
    0,
    0,
    0,
    0,
    0,
    0,
    0,
    0,
    0,
    0,
    0,
    0,
    0,
    0,
    0,
    0,
    0,
    0,
    0,
    0,
    0,
    0,
    0,
    0,
    0,
    0,
    0,
    0,
    0,
    0,
    0,
    0,
    0,
    0,
    0,
    0,
    0,
    0,
    0,
    0,
    0,
    0,
    0,
    0,
    0,
    0,
    0,
    0,
    0,
    0,
    0,
    0,
    0,
    0,
    0,
    0,
    0,
    0,
    0,
    0,
    0,
    0,
    0,
    0,
    0,
    0,
    0,
    0,
    0,
    0,
    0,
    0,
    0,
    0,
    0,
    0,
    0,
    0,
    0,
    0,
    0,
    0,
    0,
    0,
    0,
    0,
    0,
    0,
    0,
    0,
    0,
    0,
    0,
    0,
    0,
    0,
    0,
    0,
    0,
    0,
    0,
    0,
    0,
    0,
    0,
    0,
    0,
    0,
    0,
    0,
    0,
    0,
    0,
    0,
    0,
    0,
    0,
    0,
    0,
    0,
    0,
    0,
    0,
    0,
    0,
    0,
    0,
    0,
    0,
    0,
    0,
    0,
    0,
    0,
    0,
    0,
    0,
    0,
    0,
    0,
    0,
    0,
    0,
    0,
    0,
    0,
    0,
    0,
    0,
    0,
    0,
    0,
    0,
    0,
    0,
    0,
    0,
    0,
    0,
    0,
    0,
    0,
    0,
    0,
    0,
    0,
    0,
    0,
    0,
    0,
    0,
    0,
    0,
    0,
    0,
    0,
    0,
    0,
    0,
    0,
    0,
    0,
    0,
    0,
    0,
    0,
    0,
    0,
    0,
    0,
    0,
    0,
    0,
    0,
    0,
    0,
    0,
    0,
    0,
    0,
    0,
    0,
    0,
    0,
    0,
    0,
    0,
    0,
    0,
    0,
    0,
    0,
    0,
    0,
    0,
    0,
    0,
    0,
    0,
    0,
    0,
    0,
    0,
    0,
    0,
    0,
    0,
    0,
    0,
    0,
    0,
    0,
    0,
    0,
    0,
    0,
    0,
    0,
    0,
    0,
    0,
    0,
    0,
    0,
    0,
    0,
    0,
    0,
    0,
    0,
    424,
    0,
    0,
    0,
    0,
    0,
    0,
    0,
    0,
    0,
    0,
    0,
    0,
    0,
    0,
    0,
    0,
    0,
    0,
    0,
    0,
    0,
    0,
    0,
    0,
    0,
    0,
    0,
    0,
    0,
    0,
    0,
    0,
    0,
    0,
    0,
    0,
    0,
    0,
    0,
    0,
    0,
    0,
    0,
    0,
    0,
    0,
    0,
    0,
    0,
    0,
    0,
    0,
    0,
    0,
    0,
    0,
    0,
    0,
    0,
    0,
    0,
    0,
    0,
    0,
    0,
    0,
    0,
    0,
    0,
    0,
    0,
    0,
    0,
    0,
    0,
    0,
    0,
    0,
    0,
    0,
    0,
    0,
    0,
    0,
    0,
    0,
    0,
    0,
    430,
    0,
    0,
    0,
    0,
    0,
    0,
    0,
    0,
    0,
    0,
    0,
    0,
    0,
    0,
    0,
    0,
    0,
    0,
    0,
    0,
    0,
    0,
    0,
    0,
    0,
    0,
    0,
    0,
    0,
    0,
    0,
    0,
    0,
    0,
    0,
    0,
    0,
    0,
    0,
    0,
    0,
    0,
    0,
    0,
    0,
    0,
    0,
    0,
    0,
    0,
    0,
    0,
    0,
    0,
    0,
    0,
    0,
    0,
    0,
    0,
    0,
    0,
    0,
    0,
    0,
    0,
    0,
    0,
    0,
    0,
    0,
    0,
    0,
    0,
    0,
    0,
    0,
    0,
    0,
    0,
    0,
    424,
    0,
    0,
    0,
    0,
    0,
    0,
    0,
    0,
    0,
    0,
    0,
    0,
    0,
    0,
    0,
    0,
    0,
    0,
    0,
    0,
    0,
    0,
    0,
    0,
    0,
    0,
    0,
    0,
    0,
    0,
    0,
    0,
    0,
    0,
    0,
    0,
    0,
    0,
    0,
    0,
    0,
    0,
    0,
    0,
    0,
    0,
    0,
    0,
    0,
    0,
    0,
    0,
    0,
    0,
    0,
    0,
    0,
    0,
    0,
    0,
    0,
    0,
    0,
    0,
    0,
    0,
    0,
    0,
    0,
    0,
    0,
    0,
    0,
    0,
    0,
    0,
    0,
    0,
    0,
    0,
    0,
    0,
    0,
    0,
    0,
    0,
    0,
    468,
    469,
    470,
    0,
    0,
    0,
    0,
    0,
    0,
    0,
    0,
    0,
    0,
    0,
    0,
    0,
    0,
    0,
    0,
    0,
    0,
    0,
    0,
    468,
    469,
    470,
    0,
    0,
    0,
    0,
    0,
    0,
    0,
    0,
    0,
    0,
    0,
    0,
    0,
    0,
    0,
    0,
    0,
    0,
    0,
    0,
    0,
    0,
    0,
    0,
    0,
    0,
    0,
    0,
    0,
    0,
    0,
    0,
    0,
    0,
    0,
    0,
    0,
    0,
    0,
    0,
    0,
    0,
    0,
    0,
    0,
    0,
    0,
    0,
    0,
    0,
    0,
    0,
    0,
    0,
    0,
    0,
    0,
    0,
    0,
    0,
    0,
    0,
    0,
    0,
    0,
    0,
    0,
    0,
    0,
    0,
    0,
    0,
    0,
    0,
    0,
    0,
    0,
    0,
    0,
    0,
    0,
    0,
    0,
    0,
    0,
    0,
    0,
    427,
    0,
    0,
    0,
    0,
    0,
    0,
    0,
    0,
    0,
    0,
    0,
    0,
    0,
    0,
    0,
    0,
    0,
    0,
    0,
    0,
    0,
    0,
    0,
    0,
    0,
    0,
    0,
    0,
    433,
    0,
    0,
    0,
    0,
    0,
    0,
    0,
    0,
    0,
    0,
    0,
    0,
    0,
    0,
    0,
    0,
    0,
    0,
    0,
    0,
    0,
    0,
    0,
    0,
    0,
    0,
    0,
    0,
    0,
    0,
    0,
    0,
    0,
    0,
    0,
    0,
    0,
    0,
    0,
    0,
    0,
    0,
    0,
    0,
    0,
    0,
    0,
    0,
    0,
    0,
    0,
    0,
    0,
    0,
    0,
    0,
    0,
    0,
    0,
    0,
    0,
    0,
    0,
    0,
    0,
    0,
    0,
    0,
    0,
    0,
    0,
    0,
    0,
    0,
    0,
    0,
    0,
    0,
    0,
    0,
    0,
    0,
    0,
    0,
    0,
    0,
    0,
    0,
    0,
    0,
    0,
    0,
    0,
    0,
    0,
    0,
    0,
    0,
    0,
    0,
    0,
    0,
    0,
    0,
    0,
    0,
    0,
    0,
    0,
    0,
    0,
    427,
    0,
    0,
    0,
    0,
    0,
    0,
    0,
    0,
    0,
    0,
    0,
    0,
    0,
    0,
    0,
    0,
    0,
    0,
    0,
    0,
    0,
    0,
    0,
    0,
    0,
    0,
    0,
    0,
    0,
    0,
    0,
    0,
    0,
    0,
    0,
    0,
    0,
    0,
    0,
    0,
    0,
    0,
    0,
    0,
    0,
    0,
    0,
    427,
    0,
    0,
    0,
    0,
    0,
    0,
    0,
    0,
    0,
    0,
    0,
    0,
    0,
    0,
    0,
    0,
    0,
    0,
    0,
    0,
    0,
    0,
    0,
    0,
    0,
    0,
    0,
    0,
    0,
    0,
    0,
    0,
    0,
    0,
    0,
    0,
    0,
    0,
    0,
    0,
    0,
    0,
    0,
    0,
    0,
    0,
    0,
    0,
    459,
    460,
    461,
    0,
    0,
    0,
    0,
    0,
    0,
    0,
    0,
    0,
    0,
    0,
    0,
    0,
    0,
    0,
    0,
    0,
    0,
    0,
    0,
    0,
    0,
    0,
    0,
    0,
    0,
    0,
    0,
    0,
    0,
    0,
    0,
    0,
    0,
    0,
    0,
    0,
    0,
    0,
    0,
    430,
    0,
    0,
    0,
    0,
    0,
    424,
    0,
    0,
    0,
    0,
    0,
    427,
    0,
    0,
    0,
    0,
    0,
    0,
    0,
    0,
    0,
    0,
    0,
    0,
    0,
    0,
    0,
    0,
    0,
    0,
    0,
    0,
    0,
    0,
    0,
    0,
    0,
    0,
    0,
    0,
    0,
    0,
    0,
    0,
    0,
    0,
    0,
    0,
    0,
    0,
    0,
    0,
    0,
    0,
    0,
    0,
    0,
    0,
    0,
    0,
    0,
    0,
    0,
    0,
    0,
    0,
    0,
    0,
    0,
    0,
    0,
    0,
    0,
    0,
    0,
    0,
    0,
    0,
    0,
    0,
    0,
    0,
    0,
    0,
    0,
    0,
    0,
    0,
    0,
    0,
    0,
    0,
    0,
    427,
    0,
    0,
    0,
    0,
    0,
    0,
    0,
    0,
    0,
    0,
    0,
    0,
    0,
    0,
    0,
    0,
    0,
    0,
    0,
    0,
    0,
    0,
    0,
    0,
    0,
    0,
    0,
    0,
    0,
    0,
    0,
    0,
    0,
    0,
    0,
    0,
    0,
    0,
    0,
    424,
    0,
    0,
    0,
    430,
    0,
    0,
    0,
    0,
    0,
    0,
    433,
    0,
    0,
    0,
    0,
    0,
    0,
    0,
    0,
    0,
    0,
    0,
    0,
    0,
    0,
    0,
    0,
    0,
    0,
    0,
    0,
    0,
    0,
    0,
    0,
    393,
    394,
    0,
    0,
    0,
    0,
    0,
    0,
    0,
    0,
    0,
    0,
    0,
    0,
    0,
    0,
    424,
    0,
    0,
    0,
    0,
    0,
    0,
    0,
    0,
    0,
    0,
    0,
    0,
    0,
    0,
    0,
    0,
    0,
    0,
    0,
    0,
    0,
    0,
    0,
    0,
    0,
    0,
    0,
    0,
    0,
    0,
    0,
    0,
    0,
    0,
    0,
    0,
    0,
    0,
    0,
    0,
    0,
    0,
    0,
    0,
    0,
    430,
    0,
    0,
    0,
    0,
    0,
    0,
    0,
    0,
    0,
    0,
    0,
    0,
    0,
    0,
    0,
    0,
    0,
    0,
    0,
    0,
    0,
    0,
    0,
    0,
    0,
    0,
    0,
    0,
    0,
    0,
    0,
    405,
    406,
    0,
    0,
    0,
    0,
    0,
    0,
    0,
    0,
    0,
    0,
    427,
    0,
    0,
    0,
    0,
    0,
    0,
    0,
    0,
    0,
    0,
    0,
    0,
    0,
    0,
    0,
    0,
    0,
    0,
    0,
    0,
    0,
    0,
    0,
    427,
    0,
    0,
    0,
    0,
    0,
    0,
    0,
    0,
    0,
    0,
    0,
    0,
    0,
    0,
    0,
    0,
    0,
    0,
    0,
    0,
    0,
    0,
    0,
    0,
    0,
    0,
    0,
    0,
    0,
    0,
    0,
    0,
    0,
    0,
    0,
    0,
    0,
    0,
    0,
    0,
    0,
    0,
    0,
    0,
    0,
    0,
    0,
    0,
    0,
    0,
    0,
    0,
    0,
    0,
    393,
    394,
    0,
    0,
    0,
    0,
    0,
    0,
    0,
    0,
    0,
    0,
    0,
    0,
    0,
    0,
    0,
    0,
    0,
    0,
    0,
    0,
    0,
    0,
    0,
    0,
    0,
    0,
    0,
    0,
    0,
    0,
    0,
    0,
    0,
    0,
    427,
    0,
    0,
    0,
    0,
    0,
    0,
    0,
    0,
    0,
    0,
    0,
    0,
    0,
    0,
    0,
    0,
    0,
    0,
    0,
    0,
    0,
    0,
    0,
    0,
    0,
    0,
    0,
    0,
    0,
    0,
    0,
    0,
    0,
    0,
    0,
    0,
    0,
    0,
    0,
    0,
    0,
    0,
    0,
    0,
    0,
    0,
    427,
    0,
    0,
    0,
    0,
    0,
    0,
    0,
    0,
    0,
    0,
    0,
    0,
    0,
    0,
    0,
    0,
    0,
    0,
    0,
    0,
    0,
    0,
    0,
    0,
    0,
    0,
    0,
    0,
    0,
    0,
    0,
    0,
    0,
    0,
    0,
    0,
    0,
    0,
    0,
    0,
    0,
    0,
    0,
    0,
    0,
    0,
    0,
    0,
    0,
    0,
    0,
    0,
    0,
    0,
    0,
    0,
    0,
    0,
    0,
    0,
    0,
    0,
    0,
    0,
    0,
    0,
    0,
    0,
    0,
    0,
    0,
    0,
    0,
    0,
    0,
    0,
    0,
    0,
    0,
    0,
    0,
    0,
    0,
    0,
    0,
    0,
    0,
    0,
    433,
    0,
    0,
    0,
    0,
    0,
    0,
    0,
    0,
    0,
    0,
    0,
    0,
    0,
    0,
    0,
    0,
    0,
    0,
    0,
    0,
    0,
    0,
    0,
    0,
    0,
    0,
    0,
    0,
    0,
    0,
    0,
    0,
    0,
    0,
    0,
    0,
    0,
    0,
    0,
    0,
    0,
    0,
    0,
    0,
    0,
    0,
    0,
    0,
    0,
    0,
    0,
    0,
    0,
    0,
    0,
    0,
    0,
    0,
    0,
    0,
    0,
    0,
    0,
    0,
    0,
    0,
    0,
    0,
    0,
    0,
    0,
    0,
    0,
    0,
    0,
    0,
    0,
    0,
    0,
    0,
    0,
    0,
    0,
    0,
    0,
    0,
    0,
    0,
    0,
    0,
    0,
    0,
    0,
    0,
    0,
    0,
    0,
    0,
    0,
    0,
    0,
    0,
    0,
    0,
    0,
    0,
    0,
    0,
    0,
    0,
    0,
    0,
    0,
    0,
    432,
    0,
    0,
    0,
    0,
    0,
    0,
    0,
    0,
    0,
    0,
    0,
    0,
    0,
    0,
    0,
    0,
    0,
    0,
    0,
    0,
    0,
    0,
    0,
    0,
    0,
    0,
    0,
    0,
    0,
    0,
    0,
    0,
    0,
    0,
    0,
    0,
    0,
    0,
    0,
    0,
    0,
    0,
    0,
    0,
    0,
    0,
    0,
    0,
    0,
    0,
    0,
    0,
    0,
    0,
    0,
    0,
    0,
    0,
    0,
    0,
    0,
    0,
    0,
    0,
    0,
    0,
    0,
    0,
    0,
    0,
    0,
    0,
    0,
    0,
    0,
    0,
    0,
    0,
    0,
    0,
    0,
    0,
    0,
    0,
    0,
    0,
    0,
    0,
    0,
    0,
    0,
    0,
    0,
    0,
    0,
    0,
    0,
    0,
    0,
    0,
    0,
    0,
    0,
    0,
    0,
    0,
    0,
    0,
    0,
    0,
    0,
    0,
    0,
    0,
    0,
    0,
    0,
    0,
    0,
    0,
    0,
    0,
    0,
    0,
    0,
    0,
    0,
    0,
    0,
    0,
    0,
    0,
    0,
    0,
    0,
    0,
    0,
    0,
    0,
    0,
    0,
    0,
    0,
    0,
    0,
    0,
    0,
    0,
    0,
    0,
    0,
    0,
    0,
    0,
    0,
    0,
    0,
    0,
    0,
    0,
    0,
    0,
    0,
    0,
    0,
    0,
    0,
    0,
    0,
    0,
    0,
    0,
    0,
    0,
    0,
    0,
    0,
    0,
    0,
    0,
    0,
    0,
    0,
    0,
    0,
    0,
    0,
    0,
    0,
    0,
    0,
    0,
    0,
    0,
    0,
    0,
    0,
    0,
    0,
    0,
    0,
    0,
    0,
    0,
    0,
    0,
    0,
    0,
    0,
    0,
    0,
    0,
    0,
    0,
    0,
    0,
    0,
    0,
    0,
    0,
    0,
    0,
    0,
    0,
    0,
    0,
    0,
    0,
    0,
    0,
    0,
    0,
    0,
    0,
    0,
    0,
    0,
    0,
    0,
    0,
    0,
    0,
    0,
    0,
    0,
    0,
    0,
    0,
    0,
    0,
    0,
    0,
    0,
    0,
    0,
    0,
    0,
    0,
    0,
    0,
    0,
    0,
    0,
    0,
    0,
    0,
    0,
    0,
    424,
    0,
    0,
    0,
    0,
    0,
    0,
    0,
    0,
    0,
    0,
    0,
    0,
    0,
    0,
    0,
    0,
    0,
    0,
    0,
    0,
    0,
    0,
    0,
    0,
    0,
    0,
    0,
    0,
    0,
    0,
    0,
    0,
    0,
    0,
    0,
    0,
    0,
    0,
    0,
    0,
    0,
    0,
    0,
    0,
    0,
    0,
    0,
    0,
    0,
    0,
    0,
    0,
    0,
    0,
    0,
    0,
    0,
    0,
    0,
    0,
    0,
    0,
    0,
    0,
    0,
    0,
    0,
    0,
    0,
    0,
    0,
    0,
    0,
    0,
    0,
    0,
    0,
    0,
    0,
    0,
    0,
    0,
    0,
    0,
    0,
    0,
    0,
    0,
    0,
    0,
    0,
    0,
    0,
    0,
    0,
    0,
    0,
    0,
    0,
    0,
    0,
    0,
    0,
    0,
    0,
    0,
    0,
    0,
    0,
    0,
    0,
    0,
    0,
    0,
    0,
    0,
    0,
    0,
    0,
    0,
    0,
    0,
    0,
    0,
    0,
    0,
    0,
    0,
    0,
    0,
    0,
    0,
    0,
    0,
    0,
    0,
    0,
    0,
    0,
    0,
    0,
    0,
    0,
    0,
    0,
    0,
    0,
    0,
    0,
    0,
    0,
    0,
    0,
    0,
    0,
    0,
    433,
    0,
    0,
    0,
    0,
    0,
    0,
    0,
    0,
    0,
    0,
    0,
    0,
    0,
    0,
    0,
    0,
    0,
    0,
    0,
    0,
    0,
    0,
    0,
    0,
    0,
    0,
    0,
    0,
    0,
    0,
    0,
    0,
    0,
    0,
    0,
    0,
    0,
    0,
    0,
    0,
    0,
    0,
    0,
    0,
    0,
    0,
    0,
    0,
    0,
    0,
    0,
    0,
    0,
    0,
    0,
    0,
    0,
    0,
    0,
    0,
    0,
    0,
    0,
    0,
    0,
    0,
    0,
    0,
    0,
    0,
    0,
    0,
    0,
    0,
    0,
    0,
    0,
    0,
    0,
    0,
    0,
    0,
    0,
    0,
    0,
    0,
    0,
    0,
    0,
    0,
    0,
    0,
    0,
    0,
    0,
    0,
    0,
    0,
    0,
    0,
    0,
    0,
    0,
    0,
    0,
    0,
    0,
    0,
    0,
    0,
    0,
    0,
    0,
    0,
    0,
    0,
    0,
    0,
    0,
    0,
    0,
    0,
    0,
    0,
    0,
    0,
    0,
    0,
    0,
    0,
    0,
    0,
    0,
    0,
    0,
    0,
    0,
    0,
    0,
    0,
    0,
    0,
    0,
    0,
    0,
    0,
    0,
    0,
    0,
    0,
    0,
    0,
    0,
    0,
    0,
    0,
    0,
    0,
    0,
    0,
    0,
    0,
    0,
    0,
    0,
    0,
    0,
    0,
    0,
    0,
    0,
    0,
    0,
    0,
    0,
    0,
    0,
    0,
    0,
    0,
    0,
    0,
    0,
    0,
    0,
    0,
    0,
    0,
    0,
    0,
    0,
    0,
    0,
    0,
    0,
    0,
    0,
    0,
    0,
    0,
    0,
    0,
    0,
    0,
    0,
    0,
    0,
    0,
    0,
    0,
    0,
    0,
    0,
    0,
    0,
    0,
    0,
    0,
    0,
    0,
    0,
    0,
    0,
    0,
    0,
    0,
    0,
    0,
    0,
    0,
    0,
    0,
    0,
    0,
    0,
    0,
    0,
    0,
    0,
    0,
    0,
    0,
    0,
    0,
    0,
    0,
    0,
    0,
    0,
    0,
    0,
    0,
    0,
    0,
    0,
    0,
    0,
    0,
    0,
    0,
    0,
    0,
    0,
    0,
    0,
    0,
    0,
    0,
    0,
    0,
    0,
    0,
    0,
    0,
    0,
    0,
    0,
    0,
    0,
    0,
    0,
    0,
    0,
    0,
    0,
    0,
    0,
    427,
    0,
    0,
    0,
    0,
    0,
    0,
    0,
    0,
    0,
    0,
    0,
    0,
    0,
    0,
    0,
    0,
    0,
    0,
    0,
    0,
    0,
    0,
    0,
    0,
    0,
    0,
    0,
    0,
    0,
    0,
    0,
    0,
    0,
    0,
    0,
    0,
    0,
    0,
    0,
    0,
    0,
    0,
    0,
    0,
    0,
    0,
    0,
    0,
    0,
    0,
    0,
    0,
    0,
    0,
    0,
    0,
    0,
    0,
    0,
    0,
    0,
    0,
    0,
    0,
    0,
    0,
    0,
    0,
    0,
    0,
    0,
    0,
    0,
    0,
    0,
    0,
    0,
    0,
    0,
    0,
    0,
    0,
    0,
    0,
    0,
    0,
    0,
    0,
    0,
    0,
    0,
    0,
    0,
    0,
    0,
    0,
    0,
    0,
    0,
    0,
    0,
    0,
    0,
    0,
    0,
    0,
    0,
    0,
    0,
    0,
    0,
    0,
    0,
    0,
    0,
    0,
    0,
    0,
    0,
    0,
    0,
    0,
    0,
    0,
    0,
    0,
    0,
    0,
    0,
    0,
    0,
    0,
    0,
    0,
    0,
    0,
    0,
    0,
    0,
    0,
    0,
    0,
    0,
    0,
    0,
    0,
    0,
    0,
    0,
    0,
    0,
    0,
    0,
    0,
    0,
    0,
    0,
    0,
    0,
    0,
    0,
    426,
    0,
    0,
    0,
    0,
    0,
    0,
    0,
    0,
    0,
    0,
    0,
    0,
    0,
    0,
    0,
    0,
    0,
    0,
    0,
    0,
    0,
    0,
    0,
    0,
    0,
    0,
    0,
    0,
    0,
    0,
    0,
    0,
    0,
    0,
    0,
    0,
    0,
    0,
    0,
    0,
    0,
    0,
    0,
    0,
    0,
    0,
    0,
    0,
    0,
    0,
    0,
    0,
    0,
    0,
    0,
    0,
    0,
    0,
    0,
    0,
    0,
    0,
    0,
    0,
    0,
    0,
    0,
    0,
    0,
    0,
    0,
    0,
    0,
    0,
    0,
    0,
    0,
    0,
    0,
    0,
    0,
    0,
    0,
    0,
    0,
    0,
    0,
    0,
    0,
    0,
    0,
    0,
    0,
    0,
    0,
    0,
    0,
    0,
    0,
    0,
    0,
    0,
    0,
    0,
    0,
    0,
    0,
    0,
    0,
    0,
    0,
    0,
    0,
    0,
    0,
    0,
    0,
    0,
    0,
    0,
    0,
    0,
    0,
    0,
    0,
    0,
    0,
    0,
    0,
    0,
    0,
    0,
    0,
    0,
    0,
    0,
    0,
    0,
    0,
    0,
    0,
    0,
    0,
    0,
    0,
    0,
    0,
    0,
    0,
    0,
    0,
    0,
    0,
    0,
    0,
    0,
    0,
    0,
    0,
    0,
    0,
    0,
    0,
    0,
    0,
    0,
    0,
    0,
    0,
    0,
    0,
    0,
    0,
    0,
    0,
    0,
    0,
    0,
    0,
    0,
    0,
    0,
    0,
    0,
    0,
    0,
    0,
    0,
    0,
    393,
    394,
    0,
    0,
    0,
    0,
    0,
    0,
    0,
    0,
    0,
    0,
    0,
    0,
    0,
    0,
    0,
    0,
    0,
    0,
    0,
    0,
    0,
    0,
    0,
    0,
    0,
    0,
    0,
    0,
    0,
    0,
    0,
    0,
    0,
    0,
    0,
    427,
    0,
    433,
    0,
    0,
    0,
    0,
    0,
    0,
    0,
    0,
    0,
    0,
    0,
    0,
    0,
    0,
    0,
    0,
    0,
    0,
    0,
    0,
    0,
    0,
    0,
    0,
    0,
    0,
    0,
    0,
    0,
    0,
    0,
    0,
    0,
    0,
    0,
    0,
    0,
    0,
    0,
    0,
    0,
    0,
    0,
    0,
    0,
    0,
    0,
    0,
    0,
    0,
    0,
    0,
    0,
    0,
    0,
    0,
    0,
    0,
    0,
    0,
    0,
    0,
    0,
    0,
    0,
    0,
    0,
    0,
    0,
    0,
    0,
    0,
    0,
    0,
    0,
    0,
    0,
    0,
    0,
    0,
    0,
    0,
    0,
    0,
    0,
    0,
    0,
    0,
    0,
    0,
    0,
    0,
    0,
    0,
    0,
    0,
    0,
    433,
    0,
    0,
    0,
    0,
    0,
    0,
    0,
    0,
    0,
    0,
    0,
    0,
    0,
    0,
    0,
    0,
    0,
    0,
    0,
    0,
    0,
    0,
    0,
    0,
    0,
    0,
    0,
    0,
    0,
    0,
    427,
    0,
    0,
    0,
    0,
    0,
    0,
    0,
    0,
    0,
    0,
    0,
    0,
    0,
    0,
    0,
    0,
    0,
    0,
    0,
    0,
    0,
    0,
    0,
    0,
    0,
    0,
    0,
    0,
    0,
    0,
    0,
    0,
    0,
    0,
    0,
    0,
    0,
    0,
    0,
    0,
    0,
    0,
    0,
    0,
    0,
    0,
    0,
    0,
    0,
    0,
    0,
    0,
    0,
    0,
    0,
    0,
    0,
    0,
    0,
    0,
    0,
    0,
    0,
    0,
    0,
    0,
    0,
    0,
    0,
    0,
    0,
    0,
    0,
    0,
    0,
    0,
    0,
    0,
    0,
    0,
    0,
    0,
    0,
    0,
    0,
    0,
    0,
    0,
    0,
    0,
    0,
    0,
    0,
    0,
    0,
    0,
    0,
    0,
    0,
    0,
    0,
    0,
    0,
    0,
    0,
    0,
    0,
    0,
    0,
    0,
    0,
    0,
    0,
    0,
    0,
    0,
    0,
    0,
    0,
    0,
    429,
    0,
    0,
    0,
    0,
    0,
    0,
    0,
    0,
    0,
    0,
    0,
    0,
    0,
    0,
    0,
    0,
    0,
    0,
    0,
    0,
    0,
    0,
    0,
    0,
    0,
    0,
    0,
    0,
    0,
    0,
    0,
    0,
    0,
    0,
    0,
    0,
    0,
    0,
    0,
    0,
    0,
    0,
    0,
    0,
    0,
    0,
    0,
    0,
    0,
    0,
    0,
    0,
    0,
    0,
    0,
    0,
    0,
    0,
    0,
    0,
    0,
    0,
    0,
    0,
    0,
    0,
    0,
    0,
    0,
    0,
    0,
    0,
    0,
    0,
    0,
    0,
    0,
    0,
    0,
    0,
    0,
    0,
    0,
    0,
    0,
    0,
    0,
    0,
    426,
    0,
    0,
    0,
    0,
    0,
    0,
    0,
    0,
    0,
    0,
    0,
    0,
    0,
    0,
    0,
    0,
    0,
    0,
    0,
    0,
    0,
    0,
    0,
    0,
    0,
    0,
    0,
    0,
    0,
    0,
    0,
    0,
    0,
    0,
    0,
    0,
    0,
    0,
    0,
    0,
    0,
    0,
    0,
    0,
    0,
    424,
    0,
    0,
    0,
    0,
    0,
    0,
    0,
    0,
    0,
    0,
    0,
    0,
    0,
    0,
    0,
    0,
    0,
    0,
    0,
    0,
    0,
    0,
    0,
    0,
    0,
    0,
    0,
    0,
    0,
    0,
    0,
    0,
    0,
    0,
    0,
    0,
    0,
    0,
    0,
    0,
    0,
    0,
    0,
    0,
    0,
    0,
    0,
    0,
    0,
    0,
    397,
    398,
    0,
    0,
    405,
    406,
    0,
    0,
    0,
    0,
    0,
    0,
    0,
    0,
    0,
    0,
    0,
    0,
    430,
    0,
    0,
    0,
    0,
    0,
    0,
    0,
    0,
    0,
    0,
    0,
    0,
    0,
    0,
    0,
    0,
    0,
    0,
    0,
    0,
    0,
    0,
    0,
    427,
    0,
    0,
    0,
    0,
    0,
    0,
    0,
    0,
    0,
    0,
    0,
    0,
    0,
    0,
    0,
    0,
    0,
    0,
    0,
    0,
    0,
    0,
    0,
    0,
    0,
    0,
    0,
    0,
    0,
    0,
    0,
    0,
    0,
    0,
    0,
    0,
    0,
    441,
    442,
    443,
    0,
    0,
    0,
    0,
    0,
    0,
    0,
    0,
    0,
    0,
    0,
    0,
    0,
    0,
    0,
    0,
    429,
    0,
    0,
    0,
    0,
    441,
    442,
    443,
    0,
    0,
    0,
    0,
    441,
    442,
    443,
    0,
    0,
    0,
    0,
    0,
    0,
    0,
    0,
    0,
    0,
    0,
    0,
    0,
    0,
    0,
    0,
    0,
    0,
    0,
    0,
    0,
    0,
    0,
    0,
    0,
    0,
    0,
    0,
    0,
    0,
    0,
    0,
    430,
    0,
    0,
    0,
    0,
    0,
    441,
    442,
    443,
    0,
    0,
    0,
    0,
    0,
    0,
    0,
    0,
    0,
    0,
    0,
    0,
    0,
    0,
    0,
    0,
    0,
    0,
    0,
    0,
    0,
    0,
    0,
    0,
    0,
    0,
    0,
    0,
    0,
    0,
    0,
    0,
    0,
    0,
    426,
    0,
    426,
    0,
    0,
    0,
    429,
    0,
    0,
    0,
    0,
    0,
    0,
    426,
    0,
    0,
    0,
    0,
    0,
    0,
    0,
    0,
    0,
    427,
    0,
    0,
    0,
    0,
    0,
    0,
    0,
    0,
    0,
    0,
    0,
    0,
    0,
    0,
    0,
    0,
    0,
    0,
    0,
    0,
    0,
    0,
    0,
    0,
    0,
    0,
    0,
    0,
    0,
    0,
    0,
    0,
    0,
    0,
    0,
    0,
    0,
    0,
    0,
    0,
    0,
    0,
    0,
    0,
    0,
    0,
    0,
    0,
    0,
    0,
    0,
    0,
    0,
    0,
    0,
    0,
    0,
    0,
    0,
    0,
    0,
    0,
    0,
    0,
    0,
    0,
    0,
    0,
    0,
    0,
    0,
    0,
    0,
    0,
    0,
    0,
    0,
    0,
    0,
    0,
    0,
    0,
    0,
    0,
    0,
    0,
    0,
    0,
    424,
    0,
    0,
    0,
    0,
    0,
    0,
    0,
    0,
    0,
    0,
    0,
    0,
    0,
    0,
    0,
    0,
    0,
    0,
    0,
    0,
    0,
    0,
    0,
    0,
    0,
    0,
    0,
    0,
    0,
    0,
    0,
    0,
    0,
    0,
    0,
    0,
    0,
    0,
    0,
    0,
    427,
    0,
    0,
    0,
    0,
    0,
    0,
    0,
    0,
    0,
    0,
    0,
    0,
    0,
    0,
    0,
    0,
    0,
    0,
    0,
    0,
    0,
    0,
    0,
    0,
    0,
    0,
    0,
    0,
    0,
    0,
    0,
    0,
    0,
    0,
    0,
    0,
    0,
    0,
    0,
    0,
    0,
    0,
    0,
    0,
    0,
    0,
    0,
    0,
    0,
    0,
    0,
    0,
    0,
    0,
    0,
    0,
    0,
    0,
    0,
    0,
    0,
    0,
    0,
    0,
    0,
    0,
    0,
    0,
    0,
    0,
    0,
    0,
    0,
    0,
    0,
    0,
    0,
    0,
    0,
    0,
    0,
    0,
    0,
    0,
    0,
    0,
    0,
    0,
    0,
    0,
    0,
    0,
    0,
    0,
    0,
    0,
    0,
    0,
    0,
    0,
    0
   ]
  },
  {
   "id": 3,
   "type": "tilelayer",
   "name": "blocking",
   "width": 96,
   "height": 72,
   "x": 0,
   "y": 0,
   "opacity": 1,
   "visible": true,
   "data": [
    0,
    0,
    0,
    0,
    0,
    0,
    0,
    0,
    0,
    0,
    0,
    0,
    0,
    0,
    0,
    0,
    0,
    0,
    0,
    0,
    0,
    0,
    0,
    0,
    0,
    0,
    0,
    0,
    0,
    0,
    0,
    0,
    0,
    0,
    0,
    0,
    0,
    0,
    0,
    0,
    0,
    0,
    0,
    0,
    0,
    0,
    0,
    0,
    0,
    0,
    0,
    0,
    0,
    0,
    0,
    0,
    0,
    0,
    0,
    0,
    0,
    0,
    0,
    0,
    0,
    0,
    0,
    0,
    0,
    0,
    0,
    0,
    0,
    0,
    0,
    0,
    0,
    0,
    0,
    0,
    0,
    0,
    0,
    0,
    0,
    0,
    0,
    0,
    0,
    0,
    0,
    0,
    0,
    0,
    0,
    0,
    0,
    0,
    0,
    0,
    0,
    0,
    0,
    0,
    0,
    0,
    0,
    0,
    0,
    0,
    0,
    0,
    330,
    0,
    0,
    0,
    0,
    0,
    0,
    0,
    0,
    0,
    0,
    0,
    0,
    0,
    0,
    0,
    0,
    0,
    0,
    0,
    0,
    0,
    0,
    0,
    0,
    0,
    0,
    0,
    0,
    0,
    0,
    0,
    0,
    0,
    0,
    0,
    0,
    0,
    0,
    0,
    0,
    0,
    0,
    0,
    0,
    0,
    0,
    0,
    0,
    0,
    0,
    0,
    0,
    0,
    0,
    0,
    0,
    0,
    0,
    330,
    0,
    0,
    0,
    0,
    0,
    0,
    0,
    0,
    0,
    0,
    0,
    0,
    0,
    0,
    0,
    330,
    0,
    0,
    0,
    0,
    0,
    0,
    0,
    0,
    0,
    0,
    0,
    0,
    0,
    330,
    330,
    330,
    0,
    0,
    0,
    0,
    0,
    330,
    0,
    0,
    0,
    0,
    330,
    0,
    0,
    0,
    0,
    330,
    330,
    330,
    0,
    0,
    0,
    0,
    0,
    0,
    0,
    0,
    0,
    0,
    0,
    0,
    0,
    0,
    0,
    0,
    0,
    0,
    0,
    0,
    0,
    0,
    0,
    0,
    0,
    0,
    0,
    0,
    0,
    0,
    0,
    0,
    0,
    0,
    0,
    0,
    0,
    0,
    0,
    0,
    0,
    0,
    0,
    0,
    0,
    0,
    0,
    0,
    0,
    0,
    0,
    0,
    0,
    0,
    0,
    0,
    0,
    0,
    0,
    0,
    0,
    0,
    0,
    0,
    0,
    0,
    0,
    0,
    0,
    0,
    0,
    0,
    0,
    0,
    0,
    330,
    330,
    330,
    330,
    0,
    0,
    0,
    0,
    0,
    330,
    0,
    0,
    0,
    0,
    0,
    0,
    0,
    0,
    330,
    330,
    330,
    0,
    0,
    330,
    330,
    330,
    330,
    330,
    330,
    330,
    0,
    0,
    0,
    0,
    0,
    0,
    0,
    0,
    0,
    0,
    0,
    0,
    0,
    0,
    0,
    0,
    0,
    0,
    0,
    0,
    0,
    0,
    0,
    0,
    0,
    0,
    0,
    0,
    0,
    0,
    0,
    0,
    0,
    330,
    330,
    330,
    330,
    330,
    330,
    330,
    330,
    330,
    330,
    330,
    330,
    330,
    0,
    0,
    0,
    0,
    0,
    0,
    0,
    0,
    0,
    0,
    0,
    0,
    0,
    0,
    0,
    0,
    0,
    0,
    0,
    0,
    330,
    330,
    330,
    0,
    0,
    0,
    0,
    330,
    0,
    0,
    0,
    0,
    0,
    0,
    0,
    0,
    0,
    0,
    330,
    330,
    330,
    0,
    0,
    330,
    330,
    330,
    330,
    330,
    330,
    0,
    0,
    0,
    0,
    0,
    0,
    0,
    0,
    0,
    0,
    0,
    0,
    0,
    0,
    0,
    0,
    0,
    0,
    0,
    0,
    0,
    0,
    0,
    0,
    0,
    0,
    0,
    0,
    0,
    0,
    0,
    330,
    330,
    0,
    330,
    330,
    330,
    330,
    330,
    330,
    330,
    330,
    330,
    330,
    330,
    330,
    0,
    0,
    0,
    0,
    0,
    0,
    0,
    0,
    0,
    0,
    0,
    0,
    0,
    0,
    0,
    0,
    0,
    0,
    0,
    0,
    330,
    0,
    330,
    0,
    330,
    0,
    0,
    0,
    0,
    0,
    0,
    0,
    0,
    0,
    0,
    0,
    0,
    330,
    0,
    0,
    0,
    0,
    0,
    330,
    330,
    330,
    330,
    330,
    330,
    0,
    0,
    0,
    0,
    0,
    0,
    0,
    0,
    0,
    0,
    0,
    0,
    0,
    0,
    0,
    0,
    0,
    0,
    0,
    0,
    0,
    0,
    0,
    0,
    0,
    0,
    0,
    0,
    0,
    0,
    0,
    0,
    0,
    0,
    0,
    330,
    330,
    330,
    330,
    330,
    330,
    330,
    330,
    330,
    330,
    330,
    0,
    0,
    0,
    0,
    0,
    0,
    0,
    0,
    0,
    0,
    0,
    0,
    0,
    0,
    0,
    0,
    0,
    0,
    0,
    0,
    0,
    0,
    0,
    0,
    0,
    0,
    0,
    0,
    0,
    330,
    0,
    330,
    0,
    0,
    0,
    0,
    0,
    0,
    0,
    0,
    0,
    0,
    0,
    330,
    330,
    330,
    330,
    330,
    330,
    330,
    0,
    0,
    0,
    0,
    0,
    0,
    0,
    0,
    0,
    0,
    0,
    0,
    0,
    0,
    0,
    0,
    0,
    0,
    0,
    0,
    0,
    0,
    0,
    0,
    0,
    0,
    0,
    0,
    0,
    0,
    0,
    0,
    0,
    0,
    0,
    330,
    330,
    330,
    330,
    330,
    330,
    330,
    330,
    330,
    330,
    330,
    0,
    0,
    0,
    0,
    0,
    0,
    0,
    330,
    0,
    0,
    0,
    0,
    0,
    0,
    0,
    0,
    330,
    0,
    0,
    0,
    0,
    0,
    0,
    0,
    0,
    0,
    0,
    0,
    0,
    0,
    0,
    0,
    0,
    0,
    0,
    0,
    0,
    0,
    0,
    0,
    0,
    0,
    330,
    330,
    330,
    330,
    330,
    330,
    330,
    330,
    0,
    0,
    0,
    0,
    0,
    0,
    0,
    0,
    0,
    0,
    0,
    0,
    0,
    0,
    0,
    0,
    0,
    0,
    0,
    0,
    0,
    0,
    0,
    0,
    0,
    0,
    0,
    0,
    0,
    0,
    0,
    0,
    0,
    0,
    0,
    330,
    330,
    330,
    330,
    330,
    330,
    330,
    330,
    330,
    330,
    0,
    0,
    0,
    0,
    0,
    0,
    0,
    0,
    0,
    0,
    0,
    0,
    0,
    0,
    0,
    0,
    0,
    0,
    0,
    0,
    0,
    0,
    0,
    0,
    0,
    0,
    0,
    0,
    0,
    0,
    0,
    0,
    0,
    0,
    0,
    0,
    0,
    0,
    0,
    0,
    0,
    0,
    0,
    0,
    0,
    0,
    0,
    0,
    0,
    0,
    0,
    0,
    0,
    0,
    0,
    0,
    0,
    0,
    0,
    0,
    0,
    0,
    0,
    0,
    0,
    0,
    0,
    0,
    0,
    0,
    0,
    0,
    0,
    0,
    0,
    0,
    0,
    0,
    0,
    0,
    0,
    0,
    0,
    0,
    0,
    0,
    0,
    330,
    330,
    330,
    330,
    330,
    330,
    330,
    330,
    0,
    0,
    0,
    0,
    0,
    0,
    0,
    0,
    330,
    0,
    0,
    0,
    0,
    0,
    0,
    0,
    0,
    0,
    0,
    0,
    0,
    0,
    0,
    330,
    0,
    0,
    0,
    0,
    0,
    0,
    330,
    0,
    330,
    0,
    0,
    0,
    0,
    0,
    0,
    0,
    0,
    0,
    0,
    0,
    0,
    0,
    0,
    0,
    0,
    0,
    0,
    330,
    0,
    0,
    0,
    0,
    0,
    0,
    0,
    0,
    0,
    0,
    0,
    0,
    0,
    0,
    0,
    0,
    0,
    0,
    0,
    0,
    0,
    0,
    0,
    0,
    0,
    0,
    0,
    0,
    0,
    0,
    0,
    0,
    0,
    0,
    0,
    0,
    0,
    0,
    330,
    330,
    330,
    330,
    0,
    0,
    0,
    0,
    0,
    0,
    0,
    0,
    0,
    0,
    0,
    0,
    0,
    0,
    0,
    0,
    0,
    0,
    0,
    0,
    0,
    0,
    0,
    0,
    0,
    0,
    0,
    0,
    0,
    0,
    0,
    0,
    0,
    330,
    0,
    0,
    330,
    0,
    0,
    0,
    0,
    0,
    0,
    0,
    0,
    0,
    0,
    0,
    0,
    0,
    330,
    0,
    0,
    0,
    0,
    0,
    0,
    0,
    0,
    0,
    0,
    0,
    330,
    0,
    0,
    0,
    0,
    0,
    0,
    0,
    0,
    0,
    0,
    0,
    0,
    0,
    0,
    0,
    0,
    0,
    0,
    0,
    0,
    0,
    0,
    0,
    0,
    0,
    0,
    0,
    0,
    0,
    0,
    0,
    0,
    0,
    0,
    0,
    0,
    0,
    0,
    0,
    0,
    0,
    0,
    0,
    0,
    0,
    0,
    0,
    0,
    330,
    0,
    0,
    0,
    0,
    0,
    0,
    0,
    0,
    0,
    0,
    0,
    0,
    0,
    0,
    0,
    0,
    0,
    0,
    0,
    0,
    0,
    0,
    0,
    0,
    0,
    0,
    0,
    0,
    0,
    0,
    0,
    0,
    0,
    0,
    0,
    0,
    0,
    0,
    0,
    0,
    0,
    0,
    0,
    0,
    0,
    0,
    0,
    0,
    0,
    0,
    0,
    0,
    0,
    0,
    0,
    0,
    0,
    0,
    0,
    0,
    0,
    0,
    0,
    0,
    0,
    0,
    0,
    0,
    0,
    0,
    0,
    0,
    0,
    0,
    0,
    0,
    0,
    0,
    0,
    0,
    0,
    0,
    0,
    0,
    0,
    0,
    0,
    0,
    0,
    0,
    0,
    0,
    0,
    0,
    0,
    0,
    0,
    0,
    0,
    0,
    0,
    0,
    0,
    0,
    0,
    0,
    0,
    0,
    0,
    0,
    0,
    0,
    0,
    0,
    0,
    0,
    0,
    0,
    0,
    0,
    0,
    0,
    0,
    0,
    0,
    0,
    0,
    0,
    0,
    0,
    0,
    0,
    0,
    0,
    0,
    0,
    0,
    0,
    0,
    0,
    0,
    0,
    0,
    330,
    330,
    0,
    0,
    0,
    0,
    0,
    0,
    0,
    0,
    0,
    0,
    0,
    0,
    0,
    0,
    0,
    0,
    0,
    0,
    0,
    0,
    0,
    0,
    0,
    0,
    0,
    0,
    0,
    0,
    0,
    0,
    0,
    0,
    0,
    0,
    0,
    0,
    0,
    0,
    0,
    0,
    0,
    330,
    330,
    330,
    330,
    0,
    0,
    0,
    0,
    0,
    0,
    0,
    0,
    0,
    0,
    0,
    0,
    0,
    0,
    0,
    0,
    0,
    0,
    0,
    0,
    0,
    0,
    0,
    0,
    0,
    0,
    0,
    0,
    0,
    330,
    0,
    0,
    0,
    0,
    0,
    0,
    0,
    0,
    0,
    0,
    0,
    0,
    0,
    0,
    0,
    0,
    0,
    330,
    330,
    330,
    330,
    0,
    0,
    0,
    0,
    0,
    0,
    0,
    0,
    0,
    0,
    0,
    0,
    0,
    0,
    0,
    0,
    0,
    0,
    0,
    0,
    0,
    0,
    0,
    0,
    0,
    0,
    0,
    0,
    0,
    0,
    0,
    0,
    0,
    0,
    0,
    0,
    0,
    0,
    0,
    0,
    0,
    330,
    330,
    330,
    330,
    0,
    0,
    0,
    0,
    0,
    0,
    0,
    0,
    0,
    0,
    0,
    0,
    0,
    0,
    0,
    0,
    0,
    0,
    0,
    0,
    330,
    0,
    0,
    0,
    0,
    0,
    0,
    0,
    0,
    0,
    0,
    0,
    0,
    0,
    330,
    0,
    0,
    0,
    0,
    0,
    0,
    0,
    0,
    0,
    0,
    0,
    0,
    330,
    330,
    330,
    330,
    0,
    0,
    0,
    0,
    0,
    0,
    0,
    0,
    0,
    0,
    0,
    0,
    0,
    0,
    0,
    0,
    0,
    0,
    0,
    0,
    0,
    0,
    0,
    0,
    0,
    0,
    330,
    0,
    0,
    0,
    0,
    0,
    0,
    0,
    0,
    0,
    0,
    0,
    0,
    0,
    0,
    330,
    330,
    330,
    330,
    0,
    0,
    0,
    0,
    0,
    0,
    0,
    0,
    0,
    0,
    0,
    0,
    0,
    330,
    0,
    0,
    0,
    0,
    0,
    0,
    0,
    0,
    0,
    0,
    0,
    0,
    0,
    0,
    0,
    0,
    0,
    0,
    0,
    0,
    0,
    0,
    0,
    0,
    0,
    0,
    0,
    0,
    0,
    0,
    0,
    0,
    0,
    0,
    330,
    330,
    330,
    0,
    0,
    0,
    0,
    0,
    0,
    0,
    0,
    0,
    0,
    0,
    0,
    0,
    0,
    0,
    0,
    0,
    0,
    0,
    0,
    0,
    0,
    0,
    0,
    0,
    0,
    0,
    0,
    0,
    0,
    0,
    0,
    0,
    0,
    0,
    0,
    0,
    0,
    0,
    0,
    0,
    330,
    330,
    330,
    330,
    0,
    0,
    0,
    0,
    0,
    0,
    0,
    0,
    0,
    0,
    0,
    0,
    0,
    0,
    0,
    0,
    0,
    0,
    0,
    0,
    0,
    0,
    0,
    0,
    0,
    0,
    0,
    0,
    0,
    0,
    0,
    0,
    0,
    0,
    0,
    0,
    0,
    0,
    0,
    0,
    0,
    0,
    0,
    0,
    0,
    0,
    0,
    0,
    330,
    330,
    330,
    0,
    0,
    0,
    0,
    0,
    0,
    0,
    0,
    0,
    0,
    0,
    0,
    0,
    0,
    0,
    0,
    0,
    0,
    0,
    0,
    0,
    0,
    0,
    0,
    0,
    0,
    0,
    0,
    0,
    330,
    0,
    0,
    0,
    0,
    0,
    0,
    0,
    0,
    0,
    0,
    0,
    0,
    0,
    0,
    0,
    0,
    0,
    0,
    0,
    0,
    0,
    0,
    0,
    0,
    0,
    0,
    0,
    0,
    0,
    0,
    0,
    0,
    0,
    330,
    0,
    0,
    0,
    0,
    0,
    0,
    0,
    0,
    0,
    0,
    330,
    0,
    0,
    0,
    0,
    0,
    0,
    0,
    0,
    0,
    0,
    0,
    0,
    0,
    0,
    0,
    0,
    0,
    0,
    330,
    330,
    330,
    0,
    0,
    0,
    0,
    0,
    0,
    0,
    0,
    0,
    0,
    0,
    0,
    0,
    0,
    0,
    0,
    0,
    0,
    0,
    0,
    0,
    0,
    0,
    0,
    0,
    0,
    330,
    0,
    0,
    0,
    0,
    0,
    0,
    0,
    0,
    0,
    0,
    0,
    0,
    0,
    0,
    0,
    0,
    0,
    0,
    0,
    0,
    0,
    0,
    0,
    0,
    0,
    0,
    0,
    0,
    0,
    0,
    0,
    0,
    0,
    0,
    0,
    0,
    0,
    0,
    0,
    0,
    0,
    0,
    0,
    0,
    0,
    0,
    330,
    330,
    0,
    0,
    0,
    0,
    0,
    0,
    0,
    0,
    0,
    0,
    0,
    0,
    0,
    0,
    0,
    0,
    0,
    0,
    330,
    330,
    330,
    0,
    0,
    0,
    0,
    0,
    0,
    0,
    0,
    0,
    0,
    0,
    0,
    0,
    0,
    0,
    0,
    330,
    330,
    0,
    0,
    0,
    0,
    0,
    0,
    0,
    0,
    0,
    0,
    0,
    330,
    0,
    0,
    0,
    0,
    0,
    0,
    0,
    0,
    0,
    0,
    0,
    330,
    0,
    0,
    0,
    0,
    0,
    0,
    0,
    0,
    0,
    0,
    0,
    0,
    0,
    0,
    0,
    0,
    0,
    0,
    0,
    0,
    0,
    0,
    0,
    0,
    0,
    0,
    330,
    330,
    0,
    0,
    0,
    330,
    0,
    0,
    0,
    0,
    0,
    0,
    0,
    0,
    0,
    0,
    0,
    0,
    0,
    0,
    0,
    0,
    0,
    0,
    0,
    330,
    330,
    330,
    0,
    0,
    0,
    0,
    0,
    0,
    0,
    0,
    0,
    0,
    0,
    0,
    0,
    0,
    0,
    0,
    0,
    0,
    0,
    0,
    0,
    0,
    0,
    0,
    0,
    0,
    0,
    0,
    330,
    330,
    0,
    0,
    0,
    0,
    0,
    0,
    0,
    0,
    0,
    0,
    0,
    0,
    0,
    0,
    0,
    0,
    0,
    0,
    0,
    0,
    0,
    0,
    0,
    0,
    330,
    330,
    0,
    0,
    0,
    0,
    0,
    0,
    0,
    0,
    0,
    0,
    0,
    330,
    330,
    330,
    330,
    0,
    0,
    0,
    0,
    0,
    0,
    0,
    0,
    0,
    0,
    0,
    0,
    0,
    0,
    0,
    0,
    0,
    0,
    0,
    0,
    0,
    0,
    330,
    330,
    330,
    0,
    0,
    0,
    0,
    0,
    0,
    0,
    0,
    330,
    330,
    0,
    0,
    0,
    0,
    0,
    0,
    0,
    0,
    0,
    0,
    0,
    0,
    0,
    0,
    0,
    0,
    0,
    0,
    0,
    0,
    0,
    0,
    0,
    0,
    0,
    0,
    0,
    0,
    0,
    0,
    0,
    0,
    0,
    0,
    0,
    0,
    0,
    0,
    0,
    0,
    0,
    0,
    0,
    0,
    330,
    330,
    0,
    0,
    0,
    0,
    0,
    0,
    0,
    0,
    0,
    0,
    0,
    330,
    330,
    330,
    330,
    0,
    330,
    0,
    330,
    0,
    0,
    0,
    0,
    0,
    0,
    0,
    0,
    0,
    0,
    0,
    0,
    0,
    0,
    330,
    0,
    0,
    0,
    0,
    330,
    330,
    0,
    0,
    0,
    0,
    0,
    0,
    0,
    0,
    0,
    0,
    0,
    0,
    0,
    0,
    0,
    0,
    0,
    0,
    0,
    0,
    0,
    0,
    0,
    0,
    0,
    0,
    0,
    330,
    0,
    0,
    0,
    0,
    0,
    0,
    0,
    0,
    0,
    0,
    0,
    0,
    0,
    0,
    330,
    0,
    0,
    0,
    0,
    0,
    0,
    0,
    0,
    0,
    0,
    0,
    0,
    0,
    0,
    0,
    0,
    0,
    0,
    0,
    0,
    0,
    0,
    0,
    0,
    0,
    330,
    330,
    330,
    0,
    330,
    0,
    0,
    0,
    0,
    0,
    0,
    330,
    0,
    0,
    0,
    0,
    0,
    0,
    0,
    0,
    0,
    0,
    0,
    0,
    0,
    0,
    330,
    330,
    0,
    0,
    0,
    0,
    0,
    0,
    0,
    0,
    0,
    0,
    0,
    0,
    0,
    0,
    0,
    0,
    0,
    0,
    0,
    0,
    0,
    0,
    0,
    0,
    0,
    0,
    0,
    0,
    0,
    0,
    0,
    0,
    0,
    0,
    0,
    0,
    0,
    0,
    0,
    0,
    0,
    0,
    0,
    0,
    0,
    0,
    0,
    0,
    0,
    0,
    0,
    0,
    0,
    0,
    0,
    0,
    0,
    0,
    0,
    0,
    0,
    0,
    0,
    0,
    0,
    0,
    0,
    0,
    330,
    330,
    0,
    0,
    330,
    0,
    0,
    0,
    0,
    0,
    330,
    0,
    0,
    330,
    0,
    0,
    0,
    0,
    0,
    0,
    0,
    0,
    0,
    0,
    0,
    0,
    330,
    330,
    0,
    0,
    0,
    0,
    0,
    0,
    0,
    0,
    0,
    0,
    0,
    0,
    0,
    0,
    0,
    0,
    0,
    0,
    0,
    0,
    0,
    0,
    0,
    0,
    0,
    0,
    0,
    330,
    0,
    0,
    0,
    0,
    0,
    0,
    0,
    0,
    0,
    0,
    0,
    0,
    0,
    0,
    330,
    0,
    0,
    0,
    0,
    0,
    0,
    0,
    0,
    0,
    0,
    0,
    0,
    0,
    0,
    0,
    0,
    0,
    0,
    0,
    0,
    0,
    0,
    0,
    0,
    0,
    0,
    0,
    0,
    0,
    330,
    0,
    0,
    0,
    0,
    0,
    0,
    0,
    0,
    330,
    0,
    0,
    0,
    0,
    0,
    0,
    0,
    0,
    0,
    0,
    0,
    0,
    330,
    330,
    0,
    0,
    0,
    0,
    0,
    0,
    0,
    0,
    0,
    0,
    0,
    0,
    0,
    0,
    0,
    0,
    0,
    0,
    0,
    0,
    0,
    0,
    0,
    0,
    0,
    0,
    0,
    0,
    0,
    0,
    0,
    0,
    0,
    0,
    0,
    0,
    0,
    0,
    0,
    0,
    0,
    0,
    0,
    0,
    0,
    0,
    0,
    0,
    0,
    330,
    0,
    0,
    0,
    0,
    0,
    0,
    0,
    0,
    0,
    0,
    0,
    0,
    0,
    0,
    0,
    0,
    0,
    0,
    0,
    0,
    0,
    0,
    330,
    330,
    330,
    330,
    330,
    330,
    0,
    0,
    0,
    0,
    0,
    0,
    0,
    0,
    0,
    0,
    0,
    0,
    0,
    0,
    0,
    0,
    330,
    330,
    0,
    0,
    0,
    0,
    0,
    0,
    0,
    0,
    0,
    0,
    0,
    0,
    0,
    0,
    0,
    0,
    0,
    0,
    0,
    0,
    0,
    0,
    0,
    0,
    0,
    0,
    0,
    0,
    0,
    0,
    0,
    0,
    0,
    0,
    0,
    0,
    0,
    0,
    0,
    0,
    0,
    0,
    0,
    0,
    0,
    0,
    0,
    0,
    0,
    0,
    0,
    0,
    0,
    0,
    0,
    0,
    0,
    0,
    0,
    0,
    0,
    0,
    0,
    0,
    0,
    0,
    0,
    0,
    0,
    0,
    0,
    0,
    330,
    330,
    330,
    330,
    330,
    330,
    330,
    0,
    330,
    0,
    0,
    0,
    0,
    0,
    0,
    0,
    0,
    0,
    0,
    0,
    0,
    0,
    330,
    330,
    0,
    0,
    0,
    0,
    0,
    0,
    0,
    0,
    0,
    0,
    0,
    0,
    0,
    0,
    0,
    0,
    0,
    0,
    0,
    0,
    0,
    0,
    0,
    0,
    0,
    0,
    0,
    0,
    0,
    0,
    0,
    0,
    0,
    0,
    0,
    0,
    0,
    0,
    0,
    0,
    0,
    0,
    0,
    0,
    0,
    0,
    0,
    0,
    0,
    0,
    0,
    0,
    0,
    0,
    0,
    0,
    0,
    0,
    0,
    0,
    0,
    0,
    0,
    0,
    0,
    0,
    0,
    0,
    0,
    0,
    0,
    0,
    330,
    330,
    330,
    330,
    330,
    330,
    330,
    0,
    0,
    0,
    0,
    0,
    0,
    0,
    0,
    0,
    0,
    0,
    0,
    0,
    0,
    0,
    330,
    330,
    0,
    0,
    0,
    0,
    0,
    0,
    0,
    0,
    0,
    0,
    0,
    0,
    0,
    0,
    0,
    0,
    0,
    0,
    0,
    0,
    0,
    0,
    0,
    0,
    0,
    0,
    0,
    0,
    0,
    0,
    0,
    0,
    0,
    0,
    0,
    0,
    0,
    0,
    0,
    0,
    0,
    330,
    0,
    0,
    0,
    0,
    0,
    0,
    0,
    0,
    0,
    0,
    0,
    0,
    0,
    0,
    0,
    0,
    0,
    0,
    0,
    0,
    0,
    0,
    0,
    0,
    0,
    0,
    0,
    0,
    0,
    0,
    330,
    330,
    330,
    330,
    330,
    330,
    330,
    330,
    0,
    330,
    0,
    0,
    330,
    0,
    0,
    0,
    0,
    0,
    0,
    0,
    0,
    0,
    330,
    330,
    0,
    0,
    0,
    0,
    0,
    0,
    0,
    0,
    0,
    0,
    0,
    0,
    0,
    0,
    0,
    0,
    0,
    0,
    0,
    0,
    0,
    0,
    0,
    0,
    0,
    0,
    0,
    0,
    0,
    0,
    0,
    0,
    0,
    0,
    0,
    0,
    0,
    0,
    0,
    0,
    0,
    0,
    0,
    0,
    0,
    0,
    0,
    0,
    0,
    0,
    0,
    0,
    0,
    0,
    0,
    0,
    0,
    0,
    0,
    0,
    0,
    0,
    0,
    0,
    0,
    0,
    0,
    0,
    0,
    0,
    0,
    0,
    330,
    330,
    330,
    330,
    330,
    330,
    330,
    0,
    0,
    0,
    0,
    0,
    0,
    0,
    0,
    0,
    0,
    0,
    0,
    0,
    0,
    0,
    330,
    330,
    0,
    0,
    0,
    0,
    0,
    0,
    0,
    0,
    0,
    0,
    0,
    0,
    0,
    0,
    0,
    0,
    0,
    0,
    0,
    0,
    0,
    0,
    0,
    0,
    0,
    0,
    0,
    0,
    0,
    0,
    0,
    0,
    0,
    0,
    0,
    0,
    0,
    0,
    0,
    0,
    0,
    0,
    0,
    0,
    0,
    0,
    0,
    0,
    0,
    0,
    0,
    0,
    0,
    0,
    0,
    0,
    0,
    0,
    0,
    0,
    0,
    0,
    0,
    0,
    0,
    0,
    0,
    0,
    330,
    330,
    330,
    0,
    0,
    330,
    330,
    330,
    330,
    330,
    330,
    0,
    0,
    330,
    330,
    0,
    0,
    0,
    0,
    0,
    0,
    0,
    330,
    330,
    330,
    0,
    0,
    0,
    0,
    0,
    0,
    0,
    0,
    0,
    0,
    0,
    0,
    0,
    0,
    0,
    0,
    0,
    0,
    0,
    0,
    0,
    0,
    0,
    330,
    330,
    330,
    0,
    0,
    0,
    0,
    0,
    0,
    0,
    0,
    0,
    0,
    0,
    0,
    0,
    0,
    0,
    0,
    0,
    0,
    0,
    0,
    0,
    330,
    330,
    330,
    0,
    0,
    0,
    0,
    0,
    0,
    0,
    0,
    0,
    0,
    0,
    0,
    0,
    0,
    0,
    0,
    0,
    0,
    0,
    0,
    0,
    330,
    330,
    330,
    0,
    0,
    330,
    330,
    330,
    330,
    330,
    330,
    0,
    0,
    330,
    0,
    330,
    0,
    0,
    330,
    0,
    0,
    0,
    330,
    330,
    330,
    0,
    0,
    0,
    0,
    0,
    0,
    0,
    0,
    0,
    0,
    0,
    0,
    0,
    0,
    0,
    0,
    0,
    0,
    0,
    0,
    0,
    0,
    0,
    330,
    330,
    330,
    0,
    0,
    0,
    0,
    0,
    0,
    0,
    0,
    0,
    0,
    0,
    0,
    0,
    0,
    0,
    0,
    0,
    0,
    330,
    0,
    0,
    330,
    330,
    330,
    0,
    0,
    0,
    0,
    0,
    0,
    0,
    0,
    0,
    0,
    0,
    0,
    0,
    0,
    0,
    0,
    0,
    0,
    0,
    0,
    0,
    330,
    330,
    330,
    0,
    0,
    330,
    330,
    330,
    330,
    330,
    330,
    0,
    0,
    0,
    330,
    0,
    0,
    0,
    0,
    0,
    330,
    0,
    330,
    330,
    330,
    0,
    0,
    0,
    0,
    0,
    0,
    0,
    0,
    0,
    0,
    0,
    0,
    0,
    0,
    0,
    0,
    0,
    0,
    0,
    0,
    0,
    0,
    0,
    330,
    330,
    330,
    0,
    0,
    0,
    0,
    0,
    0,
    0,
    0,
    0,
    0,
    0,
    0,
    0,
    0,
    0,
    0,
    0,
    0,
    0,
    0,
    0,
    330,
    330,
    330,
    0,
    0,
    0,
    330,
    0,
    0,
    0,
    0,
    0,
    0,
    0,
    0,
    0,
    0,
    0,
    0,
    0,
    0,
    0,
    0,
    0,
    0,
    0,
    0,
    0,
    0,
    330,
    330,
    330,
    330,
    330,
    330,
    0,
    0,
    0,
    330,
    330,
    0,
    0,
    0,
    0,
    0,
    0,
    0,
    0,
    0,
    0,
    0,
    0,
    0,
    0,
    0,
    0,
    0,
    0,
    0,
    0,
    0,
    0,
    0,
    0,
    0,
    0,
    0,
    0,
    0,
    0,
    0,
    0,
    0,
    0,
    0,
    0,
    0,
    0,
    0,
    0,
    0,
    0,
    0,
    0,
    0,
    0,
    0,
    0,
    0,
    0,
    0,
    0,
    0,
    0,
    0,
    0,
    0,
    0,
    0,
    0,
    0,
    0,
    0,
    0,
    0,
    0,
    0,
    0,
    0,
    0,
    0,
    0,
    0,
    0,
    0,
    0,
    0,
    0,
    0,
    0,
    0,
    0,
    0,
    0,
    0,
    330,
    330,
    330,
    330,
    330,
    330,
    0,
    0,
    0,
    0,
    0,
    0,
    330,
    0,
    0,
    0,
    0,
    0,
    0,
    0,
    0,
    0,
    0,
    0,
    0,
    0,
    0,
    0,
    0,
    0,
    0,
    0,
    330,
    330,
    0,
    0,
    0,
    0,
    0,
    0,
    0,
    0,
    0,
    0,
    0,
    0,
    0,
    0,
    0,
    0,
    0,
    0,
    0,
    0,
    0,
    0,
    0,
    0,
    0,
    0,
    0,
    0,
    0,
    0,
    0,
    0,
    0,
    0,
    0,
    0,
    0,
    0,
    0,
    0,
    0,
    0,
    0,
    0,
    0,
    0,
    0,
    0,
    0,
    0,
    0,
    0,
    0,
    0,
    0,
    0,
    0,
    0,
    0,
    0,
    0,
    0,
    330,
    330,
    330,
    330,
    330,
    330,
    0,
    0,
    0,
    0,
    0,
    0,
    0,
    0,
    0,
    0,
    0,
    0,
    0,
    0,
    0,
    0,
    0,
    0,
    0,
    0,
    0,
    0,
    0,
    0,
    0,
    0,
    0,
    0,
    0,
    0,
    0,
    0,
    0,
    0,
    0,
    0,
    0,
    0,
    0,
    0,
    0,
    0,
    0,
    0,
    0,
    0,
    0,
    0,
    0,
    0,
    0,
    0,
    0,
    0,
    0,
    0,
    0,
    0,
    0,
    0,
    0,
    0,
    0,
    0,
    0,
    0,
    0,
    0,
    0,
    0,
    0,
    0,
    0,
    0,
    0,
    0,
    0,
    0,
    0,
    0,
    0,
    0,
    0,
    0,
    0,
    0,
    0,
    0,
    0,
    0,
    0,
    0,
    0,
    0,
    0,
    0,
    0,
    0,
    0,
    0,
    0,
    0,
    0,
    0,
    0,
    0,
    0,
    0,
    0,
    0,
    0,
    0,
    0,
    0,
    0,
    0,
    0,
    0,
    0,
    0,
    0,
    0,
    0,
    0,
    0,
    0,
    0,
    0,
    0,
    0,
    0,
    0,
    0,
    0,
    0,
    0,
    0,
    0,
    0,
    0,
    0,
    0,
    0,
    0,
    0,
    0,
    0,
    0,
    0,
    0,
    0,
    0,
    0,
    0,
    0,
    0,
    0,
    0,
    0,
    0,
    0,
    0,
    0,
    0,
    0,
    0,
    0,
    0,
    0,
    0,
    0,
    0,
    0,
    0,
    0,
    0,
    0,
    0,
    0,
    0,
    0,
    0,
    0,
    0,
    0,
    0,
    0,
    0,
    0,
    0,
    0,
    0,
    0,
    0,
    0,
    0,
    0,
    0,
    0,
    0,
    0,
    0,
    0,
    0,
    0,
    0,
    0,
    0,
    0,
    0,
    0,
    0,
    0,
    0,
    0,
    0,
    0,
    0,
    0,
    0,
    0,
    0,
    0,
    0,
    0,
    0,
    0,
    0,
    0,
    0,
    0,
    0,
    0,
    0,
    0,
    0,
    0,
    0,
    0,
    0,
    0,
    330,
    0,
    0,
    0,
    0,
    0,
    0,
    0,
    0,
    0,
    0,
    0,
    0,
    0,
    0,
    0,
    0,
    0,
    0,
    0,
    0,
    0,
    0,
    0,
    0,
    0,
    0,
    0,
    0,
    0,
    0,
    0,
    0,
    0,
    0,
    0,
    0,
    0,
    0,
    0,
    0,
    0,
    0,
    0,
    0,
    0,
    0,
    0,
    0,
    0,
    0,
    0,
    0,
    0,
    0,
    0,
    0,
    0,
    0,
    0,
    0,
    0,
    0,
    0,
    0,
    0,
    0,
    330,
    330,
    330,
    0,
    0,
    0,
    0,
    0,
    0,
    0,
    0,
    0,
    0,
    0,
    0,
    0,
    0,
    0,
    0,
    0,
    0,
    0,
    330,
    330,
    330,
    330,
    0,
    0,
    0,
    0,
    0,
    0,
    0,
    0,
    0,
    0,
    0,
    0,
    0,
    0,
    0,
    0,
    0,
    0,
    0,
    0,
    0,
    0,
    0,
    0,
    330,
    330,
    330,
    330,
    330,
    330,
    330,
    330,
    330,
    330,
    0,
    0,
    0,
    0,
    0,
    0,
    0,
    0,
    0,
    0,
    0,
    0,
    0,
    0,
    0,
    0,
    0,
    0,
    0,
    0,
    0,
    0,
    0,
    0,
    0,
    0,
    0,
    0,
    0,
    0,
    0,
    0,
    0,
    0,
    0,
    0,
    330,
    330,
    330,
    0,
    0,
    0,
    0,
    0,
    330,
    0,
    0,
    0,
    0,
    0,
    0,
    0,
    0,
    0,
    0,
    0,
    0,
    0,
    0,
    330,
    330,
    330,
    0,
    0,
    0,
    0,
    0,
    0,
    0,
    0,
    0,
    0,
    0,
    0,
    0,
    0,
    0,
    0,
    0,
    0,
    0,
    0,
    0,
    0,
    0,
    330,
    330,
    330,
    330,
    330,
    330,
    330,
    330,
    330,
    330,
    330,
    330,
    0,
    0,
    0,
    0,
    0,
    0,
    0,
    0,
    0,
    0,
    0,
    0,
    0,
    0,
    0,
    0,
    0,
    0,
    0,
    0,
    0,
    0,
    0,
    0,
    0,
    0,
    0,
    0,
    0,
    0,
    0,
    0,
    0,
    0,
    0,
    330,
    330,
    330,
    0,
    0,
    0,
    0,
    0,
    0,
    0,
    0,
    0,
    0,
    0,
    0,
    0,
    0,
    0,
    0,
    0,
    0,
    0,
    0,
    330,
    330,
    330,
    0,
    0,
    330,
    330,
    330,
    0,
    0,
    0,
    0,
    0,
    0,
    0,
    0,
    0,
    0,
    0,
    0,
    0,
    0,
    0,
    0,
    0,
    0,
    330,
    330,
    330,
    330,
    330,
    330,
    330,
    330,
    330,
    330,
    330,
    330,
    0,
    0,
    0,
    0,
    0,
    0,
    0,
    0,
    0,
    0,
    0,
    0,
    0,
    0,
    0,
    0,
    0,
    0,
    0,
    0,
    0,
    0,
    0,
    0,
    0,
    0,
    0,
    0,
    0,
    0,
    0,
    0,
    0,
    0,
    0,
    0,
    0,
    0,
    0,
    0,
    0,
    0,
    0,
    0,
    0,
    0,
    0,
    0,
    0,
    0,
    0,
    0,
    330,
    0,
    0,
    0,
    0,
    0,
    0,
    0,
    0,
    0,
    330,
    330,
    330,
    330,
    330,
    0,
    0,
    0,
    0,
    0,
    0,
    0,
    0,
    0,
    0,
    0,
    0,
    0,
    0,
    330,
    0,
    0,
    330,
    330,
    330,
    330,
    330,
    330,
    330,
    330,
    330,
    330,
    330,
    330,
    0,
    0,
    330,
    330,
    330,
    0,
    0,
    0,
    0,
    0,
    0,
    0,
    0,
    0,
    0,
    0,
    0,
    0,
    0,
    0,
    0,
    0,
    0,
    0,
    0,
    0,
    0,
    0,
    0,
    0,
    0,
    0,
    0,
    0,
    0,
    0,
    0,
    0,
    0,
    0,
    0,
    0,
    0,
    0,
    0,
    0,
    0,
    0,
    0,
    0,
    0,
    0,
    0,
    0,
    0,
    0,
    0,
    0,
    0,
    0,
    0,
    330,
    330,
    330,
    330,
    330,
    330,
    330,
    330,
    330,
    330,
    330,
    330,
    330,
    0,
    0,
    0,
    0,
    0,
    0,
    0,
    0,
    0,
    0,
    330,
    330,
    330,
    330,
    330,
    330,
    330,
    330,
    330,
    330,
    330,
    330,
    0,
    330,
    330,
    330,
    330,
    0,
    0,
    0,
    0,
    0,
    0,
    0,
    0,
    0,
    0,
    0,
    0,
    0,
    0,
    0,
    0,
    0,
    0,
    0,
    0,
    0,
    0,
    0,
    0,
    0,
    0,
    0,
    0,
    0,
    0,
    0,
    0,
    0,
    0,
    0,
    0,
    0,
    0,
    0,
    0,
    0,
    0,
    0,
    0,
    330,
    0,
    0,
    0,
    0,
    0,
    0,
    0,
    0,
    0,
    0,
    330,
    330,
    330,
    330,
    330,
    330,
    330,
    330,
    330,
    330,
    330,
    330,
    330,
    330,
    330,
    330,
    330,
    0,
    0,
    0,
    0,
    0,
    0,
    0,
    0,
    0,
    330,
    330,
    330,
    330,
    330,
    330,
    330,
    330,
    330,
    0,
    0,
    0,
    330,
    330,
    330,
    0,
    0,
    0,
    0,
    0,
    0,
    0,
    0,
    0,
    0,
    0,
    0,
    0,
    0,
    0,
    0,
    0,
    0,
    0,
    0,
    0,
    0,
    0,
    0,
    0,
    0,
    0,
    0,
    0,
    0,
    0,
    0,
    0,
    0,
    0,
    0,
    0,
    0,
    0,
    0,
    330,
    0,
    0,
    0,
    0,
    0,
    330,
    0,
    0,
    0,
    0,
    0,
    330,
    0,
    330,
    330,
    330,
    330,
    330,
    330,
    330,
    330,
    330,
    330,
    330,
    330,
    330,
    330,
    330,
    330,
    330,
    330,
    0,
    0,
    0,
    0,
    0,
    0,
    0,
    0,
    0,
    0,
    0,
    0,
    0,
    0,
    0,
    0,
    0,
    0,
    0,
    0,
    0,
    0,
    0,
    0,
    0,
    0,
    0,
    0,
    0,
    0,
    0,
    0,
    0,
    0,
    0,
    0,
    0,
    0,
    0,
    0,
    0,
    0,
    0,
    0,
    0,
    0,
    0,
    0,
    0,
    0,
    0,
    0,
    0,
    0,
    0,
    0,
    0,
    0,
    0,
    0,
    0,
    0,
    330,
    0,
    0,
    0,
    0,
    330,
    330,
    0,
    0,
    0,
    0,
    0,
    0,
    0,
    0,
    0,
    330,
    330,
    330,
    330,
    330,
    330,
    330,
    330,
    330,
    330,
    330,
    330,
    330,
    330,
    330,
    330,
    330,
    330,
    0,
    0,
    0,
    0,
    0,
    0,
    330,
    0,
    0,
    0,
    330,
    0,
    0,
    0,
    0,
    0,
    0,
    330,
    0,
    0,
    0,
    0,
    0,
    0,
    0,
    0,
    0,
    0,
    0,
    0,
    0,
    0,
    0,
    0,
    0,
    0,
    0,
    0,
    0,
    0,
    0,
    0,
    330,
    330,
    0,
    0,
    0,
    0,
    0,
    0,
    0,
    0,
    0,
    0,
    0,
    0,
    0,
    0,
    330,
    0,
    0,
    0,
    0,
    0,
    0,
    0,
    0,
    330,
    330,
    330,
    0,
    0,
    0,
    0,
    0,
    0,
    0,
    0,
    330,
    330,
    330,
    330,
    330,
    330,
    330,
    330,
    330,
    330,
    330,
    330,
    330,
    330,
    330,
    330,
    330,
    330,
    0,
    0,
    0,
    0,
    0,
    0,
    0,
    0,
    330,
    0,
    0,
    0,
    0,
    0,
    0,
    0,
    0,
    0,
    0,
    0,
    0,
    0,
    0,
    0,
    0,
    0,
    0,
    0,
    0,
    0,
    0,
    0,
    0,
    0,
    0,
    0,
    0,
    0,
    0,
    0,
    330,
    330,
    0,
    0,
    0,
    0,
    0,
    0,
    0,
    0,
    0,
    0,
    330,
    0,
    0,
    0,
    0,
    0,
    0,
    0,
    0,
    0,
    0,
    0,
    0,
    330,
    330,
    330,
    330,
    330,
    0,
    0,
    0,
    0,
    0,
    0,
    330,
    0,
    330,
    330,
    330,
    330,
    330,
    330,
    330,
    330,
    330,
    330,
    330,
    330,
    330,
    330,
    330,
    330,
    330,
    330,
    0,
    0,
    0,
    0,
    0,
    0,
    0,
    0,
    0,
    0,
    0,
    0,
    0,
    0,
    0,
    0,
    0,
    0,
    0,
    0,
    0,
    0,
    0,
    0,
    0,
    0,
    0,
    0,
    0,
    0,
    0,
    0,
    0,
    0,
    0,
    330,
    330,
    0,
    0,
    0,
    0,
    0,
    0,
    0,
    0,
    0,
    0,
    0,
    0,
    0,
    0,
    0,
    0,
    0,
    0,
    0,
    0,
    0,
    0,
    0,
    330,
    330,
    330,
    330,
    330,
    330,
    330,
    330,
    330,
    330,
    0,
    330,
    0,
    0,
    0,
    0,
    0,
    0,
    0,
    330,
    330,
    330,
    330,
    330,
    330,
    330,
    330,
    330,
    330,
    330,
    330,
    330,
    330,
    330,
    330,
    330,
    0,
    0,
    0,
    0,
    0,
    0,
    0,
    0,
    0,
    0,
    0,
    0,
    0,
    0,
    0,
    0,
    0,
    0,
    0,
    0,
    0,
    0,
    330,
    0,
    0,
    0,
    0,
    0,
    0,
    0,
    0,
    0,
    0,
    0,
    0,
    0,
    0,
    0,
    0,
    0,
    0,
    0,
    0,
    0,
    0,
    0,
    0,
    0,
    0,
    0,
    0,
    0,
    0,
    0,
    0,
    330,
    330,
    330,
    330,
    330,
    330,
    330,
    330,
    330,
    330,
    330,
    330,
    330,
    330,
    330,
    0,
    0,
    0,
    0,
    0,
    0,
    0,
    0,
    0,
    330,
    330,
    330,
    330,
    330,
    330,
    330,
    330,
    330,
    330,
    330,
    330,
    330,
    330,
    330,
    330,
    330,
    0,
    0,
    0,
    0,
    0,
    0,
    0,
    0,
    0,
    0,
    0,
    0,
    0,
    0,
    0,
    330,
    0,
    0,
    0,
    0,
    0,
    0,
    0,
    0,
    0,
    0,
    0,
    0,
    0,
    0,
    0,
    0,
    0,
    0,
    0,
    0,
    0,
    0,
    0,
    0,
    0,
    0,
    0,
    0,
    0,
    0,
    0,
    0,
    0,
    0,
    0,
    0,
    0,
    330,
    330,
    330,
    330,
    330,
    330,
    330,
    330,
    330,
    330,
    330,
    330,
    330,
    330,
    330,
    330,
    330,
    0,
    0,
    0,
    0,
    0,
    0,
    0,
    0,
    0,
    330,
    330,
    330,
    330,
    330,
    330,
    330,
    330,
    330,
    330,
    330,
    330,
    330,
    330,
    330,
    330,
    330,
    0,
    0,
    0,
    0,
    0,
    0,
    0,
    0,
    0,
    0,
    0,
    0,
    0,
    0,
    0,
    0,
    0,
    0,
    0,
    0,
    0,
    0,
    0,
    0,
    0,
    0,
    0,
    0,
    0,
    0,
    0,
    0,
    0,
    0,
    0,
    0,
    0,
    0,
    0,
    0,
    0,
    0,
    0,
    0,
    0,
    0,
    0,
    0,
    0,
    0,
    0,
    0,
    0,
    330,
    330,
    330,
    330,
    330,
    330,
    330,
    330,
    330,
    330,
    330,
    330,
    330,
    330,
    330,
    330,
    330,
    330,
    0,
    0,
    0,
    0,
    0,
    0,
    0,
    0,
    330,
    330,
    330,
    330,
    330,
    330,
    330,
    330,
    330,
    330,
    330,
    330,
    330,
    330,
    330,
    330,
    330,
    0,
    0,
    0,
    0,
    0,
    0,
    0,
    0,
    0,
    0,
    0,
    0,
    0,
    0,
    0,
    0,
    0,
    0,
    0,
    0,
    0,
    0,
    0,
    0,
    0,
    0,
    0,
    0,
    0,
    0,
    0,
    0,
    0,
    0,
    0,
    0,
    0,
    0,
    0,
    0,
    0,
    0,
    0,
    0,
    0,
    0,
    0,
    0,
    0,
    0,
    0,
    0,
    0,
    0,
    330,
    330,
    330,
    330,
    330,
    330,
    330,
    330,
    330,
    330,
    330,
    330,
    330,
    330,
    330,
    330,
    330,
    330,
    0,
    0,
    0,
    0,
    0,
    0,
    0,
    330,
    330,
    330,
    330,
    330,
    330,
    330,
    330,
    330,
    330,
    330,
    330,
    330,
    330,
    330,
    330,
    330,
    0,
    0,
    0,
    0,
    0,
    0,
    0,
    0,
    0,
    0,
    0,
    0,
    0,
    0,
    0,
    0,
    0,
    0,
    0,
    0,
    0,
    0,
    0,
    0,
    0,
    0,
    0,
    0,
    0,
    0,
    0,
    0,
    0,
    0,
    0,
    0,
    0,
    0,
    0,
    0,
    0,
    0,
    0,
    0,
    0,
    0,
    0,
    0,
    0,
    0,
    0,
    0,
    0,
    0,
    330,
    330,
    330,
    330,
    330,
    330,
    330,
    330,
    330,
    330,
    330,
    330,
    330,
    330,
    330,
    330,
    330,
    330,
    330,
    330,
    330,
    0,
    0,
    0,
    330,
    330,
    330,
    330,
    330,
    330,
    330,
    330,
    330,
    330,
    330,
    330,
    330,
    330,
    330,
    330,
    330,
    330,
    0,
    0,
    0,
    0,
    0,
    0,
    0,
    0,
    0,
    0,
    0,
    0,
    0,
    0,
    0,
    330,
    0,
    0,
    0,
    0,
    0,
    0,
    0,
    0,
    0,
    0,
    0,
    0,
    0,
    0,
    0,
    0,
    0,
    0,
    0,
    0,
    0,
    0,
    0,
    0,
    0,
    0,
    0,
    0,
    0,
    0,
    0,
    0,
    0,
    0,
    0,
    0,
    0,
    0,
    330,
    330,
    330,
    330,
    330,
    330,
    330,
    330,
    330,
    330,
    330,
    330,
    330,
    330,
    330,
    330,
    330,
    330,
    330,
    330,
    330,
    0,
    0,
    0,
    330,
    330,
    330,
    330,
    330,
    330,
    330,
    330,
    330,
    330,
    330,
    330,
    330,
    330,
    330,
    330,
    330,
    330,
    0,
    0,
    0,
    0,
    0,
    0,
    0,
    0,
    0,
    0,
    0,
    0,
    0,
    0,
    0,
    0,
    0,
    0,
    0,
    0,
    0,
    0,
    0,
    0,
    0,
    0,
    0,
    0,
    0,
    0,
    0,
    0,
    0,
    0,
    0,
    0,
    0,
    0,
    0,
    0,
    0,
    0,
    0,
    0,
    0,
    0,
    0,
    0,
    0,
    0,
    0,
    0,
    0,
    0,
    330,
    330,
    330,
    330,
    330,
    330,
    330,
    330,
    330,
    330,
    330,
    330,
    330,
    330,
    330,
    330,
    330,
    330,
    330,
    330,
    330,
    0,
    330,
    0,
    330,
    330,
    330,
    330,
    330,
    330,
    330,
    330,
    330,
    330,
    330,
    330,
    330,
    330,
    330,
    330,
    330,
    330,
    0,
    0,
    0,
    0,
    0,
    0,
    0,
    0,
    0,
    0,
    0,
    0,
    0,
    0,
    0,
    0,
    0,
    0,
    0,
    0,
    0,
    0,
    0,
    0,
    0,
    0,
    0,
    0,
    0,
    0,
    0,
    0,
    0,
    0,
    0,
    0,
    0,
    0,
    0,
    0,
    0,
    0,
    0,
    0,
    0,
    0,
    0,
    0,
    0,
    0,
    0,
    0,
    0,
    0,
    330,
    330,
    330,
    330,
    330,
    330,
    330,
    330,
    330,
    330,
    330,
    330,
    330,
    330,
    330,
    330,
    330,
    330,
    330,
    330,
    330,
    0,
    0,
    0,
    0,
    330,
    330,
    330,
    330,
    330,
    330,
    330,
    330,
    330,
    330,
    330,
    330,
    330,
    330,
    330,
    330,
    330,
    0,
    0,
    0,
    0,
    0,
    0,
    0,
    0,
    0,
    0,
    0,
    0,
    0,
    0,
    0,
    0,
    0,
    0,
    0,
    0,
    0,
    0,
    0,
    0,
    0,
    0,
    0,
    0,
    0,
    0,
    0,
    0,
    0,
    0,
    0,
    0,
    0,
    0,
    0,
    0,
    0,
    0,
    0,
    0,
    0,
    0,
    0,
    0,
    0,
    0,
    0,
    0,
    0,
    330,
    330,
    330,
    330,
    330,
    330,
    330,
    330,
    330,
    330,
    330,
    330,
    330,
    330,
    330,
    330,
    330,
    330,
    330,
    330,
    330,
    330,
    0,
    0,
    0,
    0,
    0,
    0,
    0,
    0,
    0,
    330,
    330,
    330,
    330,
    330,
    330,
    330,
    330,
    330,
    330,
    330,
    330,
    0,
    0,
    0,
    0,
    0,
    0,
    0,
    0,
    0,
    0,
    0,
    0,
    0,
    0,
    0,
    0,
    0,
    0,
    0,
    0,
    0,
    0,
    0,
    0,
    0,
    0,
    0,
    0,
    0,
    0,
    0,
    0,
    0,
    0,
    0,
    0,
    0,
    0,
    0,
    0,
    0,
    0,
    0,
    0,
    0,
    0,
    0,
    0,
    0,
    0,
    0,
    0,
    0,
    330,
    330,
    330,
    330,
    330,
    330,
    330,
    330,
    330,
    330,
    330,
    330,
    330,
    330,
    330,
    330,
    330,
    330,
    330,
    330,
    0,
    0,
    0,
    330,
    0,
    0,
    0,
    0,
    0,
    0,
    0,
    0,
    330,
    330,
    330,
    330,
    330,
    330,
    330,
    330,
    330,
    330,
    330,
    0,
    0,
    0,
    0,
    0,
    0,
    0,
    0,
    0,
    0,
    0,
    0,
    0,
    0,
    0,
    0,
    0,
    0,
    0,
    0,
    0,
    0,
    0,
    0,
    0,
    0,
    0,
    0,
    0,
    0,
    0,
    0,
    0,
    0,
    0,
    0,
    0,
    0,
    0,
    0,
    0,
    0,
    0,
    0,
    0,
    0,
    0,
    0,
    0,
    0,
    0,
    0,
    0,
    330,
    330,
    330,
    330,
    330,
    330,
    330,
    330,
    330,
    330,
    330,
    330,
    330,
    330,
    330,
    330,
    330,
    330,
    330,
    0,
    0,
    0,
    0,
    0,
    0,
    0,
    0,
    0,
    0,
    0,
    0,
    0,
    330,
    330,
    330,
    330,
    330,
    330,
    0,
    0,
    0,
    0,
    330,
    0,
    0,
    0,
    0,
    0,
    0,
    0,
    0,
    0,
    0,
    0,
    0,
    0,
    0,
    0,
    0,
    0,
    0,
    0,
    0,
    0,
    0,
    0,
    0,
    0,
    0,
    0,
    0,
    0,
    0,
    0,
    0,
    0,
    0,
    0,
    0,
    0,
    0,
    0,
    0,
    0,
    0,
    0,
    0,
    0,
    0,
    0,
    0,
    0,
    0,
    0,
    0,
    0,
    0,
    330,
    330,
    330,
    330,
    330,
    330,
    330,
    330,
    330,
    330,
    330,
    330,
    330,
    330,
    330,
    330,
    330,
    330,
    0,
    0,
    0,
    0,
    0,
    0,
    0,
    0,
    0,
    0,
    0,
    0,
    0,
    0,
    330,
    330,
    330,
    330,
    330,
    0,
    0,
    0,
    0,
    0,
    0,
    0,
    0,
    0,
    0,
    0,
    0,
    0,
    0,
    0,
    0,
    0,
    0,
    0,
    0,
    330,
    330,
    330,
    0,
    0,
    0,
    0,
    0,
    0,
    0,
    0,
    0,
    0,
    0,
    0,
    0,
    0,
    0,
    0,
    0,
    0,
    0,
    0,
    0,
    0,
    0,
    0,
    0,
    0,
    0,
    0,
    0,
    0,
    0,
    0,
    0,
    0,
    0,
    0,
    0,
    330,
    330,
    330,
    330,
    330,
    330,
    330,
    330,
    330,
    330,
    330,
    330,
    330,
    330,
    330,
    330,
    330,
    0,
    0,
    0,
    0,
    0,
    0,
    0,
    0,
    0,
    0,
    0,
    0,
    0,
    0,
    330,
    330,
    330,
    330,
    0,
    0,
    0,
    0,
    0,
    0,
    0,
    0,
    0,
    0,
    0,
    0,
    0,
    0,
    0,
    0,
    0,
    0,
    0,
    0,
    330,
    330,
    330,
    330,
    330,
    0,
    0,
    0,
    0,
    0,
    0,
    0,
    0,
    0,
    0,
    0,
    0,
    0,
    0,
    0,
    0,
    0,
    0,
    0,
    0,
    0,
    0,
    0,
    0,
    0,
    330,
    330,
    0,
    0,
    0,
    0,
    0,
    0,
    0,
    0,
    0,
    0,
    330,
    330,
    330,
    330,
    330,
    330,
    330,
    330,
    330,
    330,
    330,
    330,
    330,
    330,
    330,
    330,
    330,
    0,
    0,
    0,
    0,
    0,
    0,
    0,
    0,
    330,
    0,
    330,
    0,
    0,
    0,
    330,
    330,
    330,
    0,
    0,
    0,
    0,
    0,
    0,
    0,
    0,
    0,
    0,
    0,
    0,
    0,
    0,
    0,
    0,
    0,
    0,
    0,
    0,
    330,
    330,
    330,
    330,
    330,
    0,
    0,
    0,
    0,
    0,
    0,
    0,
    0,
    0,
    0,
    0,
    0,
    0,
    0,
    0,
    0,
    0,
    0,
    0,
    0,
    0,
    0,
    0,
    0,
    0,
    0,
    0,
    0,
    0,
    0,
    0,
    0,
    0,
    0,
    0,
    0,
    0,
    0,
    330,
    330,
    330,
    330,
    330,
    330,
    330,
    330,
    330,
    330,
    330,
    330,
    330,
    330,
    330,
    330,
    330,
    0,
    0,
    0,
    0,
    0,
    0,
    0,
    0,
    0,
    0,
    0,
    330,
    0,
    0,
    0,
    0,
    0,
    0,
    0,
    0,
    0,
    0,
    0,
    0,
    0,
    0,
    0,
    0,
    0,
    0,
    0,
    0,
    0,
    0,
    0,
    0,
    330,
    330,
    330,
    330,
    0,
    0,
    330,
    0,
    0,
    0,
    0,
    0,
    0,
    0,
    0,
    0,
    0,
    0,
    0,
    0,
    0,
    0,
    0,
    0,
    0,
    0,
    0,
    0,
    0,
    0,
    0,
    0,
    0,
    0,
    0,
    0,
    0,
    0,
    0,
    0,
    0,
    0,
    0,
    0,
    330,
    330,
    330,
    330,
    330,
    330,
    330,
    330,
    330,
    330,
    330,
    330,
    330,
    330,
    330,
    330,
    0,
    0,
    0,
    0,
    0,
    0,
    0,
    0,
    0,
    0,
    0,
    0,
    0,
    0,
    0,
    0,
    0,
    0,
    0,
    0,
    0,
    0,
    0,
    0,
    0,
    0,
    0,
    0,
    0,
    0,
    0,
    0,
    0,
    0,
    0,
    330,
    330,
    330,
    330,
    0,
    0,
    0,
    0,
    0,
    0,
    0,
    0,
    0,
    0,
    0,
    0,
    0,
    0,
    0,
    0,
    0,
    0,
    0,
    0,
    0,
    0,
    0,
    0,
    0,
    0,
    0,
    0,
    0,
    0,
    0,
    0,
    0,
    0,
    0,
    0,
    0,
    0,
    0,
    0,
    0,
    330,
    330,
    330,
    330,
    330,
    330,
    330,
    330,
    330,
    330,
    330,
    330,
    330,
    330,
    330,
    0,
    0,
    0,
    0,
    0,
    0,
    0,
    0,
    0,
    0,
    0,
    0,
    0,
    0,
    0,
    0,
    0,
    0,
    0,
    0,
    0,
    0,
    0,
    0,
    0,
    0,
    0,
    0,
    0,
    0,
    330,
    330,
    330,
    330,
    330,
    330,
    330,
    0,
    0,
    0,
    0,
    0,
    0,
    0,
    0,
    0,
    330,
    330,
    330,
    0,
    0,
    0,
    0,
    0,
    0,
    0,
    0,
    0,
    0,
    0,
    0,
    0,
    0,
    0,
    0,
    0,
    0,
    0,
    0,
    0,
    330,
    330,
    330,
    0,
    0,
    0,
    0,
    330,
    330,
    330,
    0,
    0,
    330,
    330,
    330,
    330,
    330,
    330,
    330,
    330,
    330,
    330,
    330,
    330,
    0,
    0,
    0,
    0,
    0,
    0,
    0,
    0,
    0,
    0,
    0,
    0,
    0,
    330,
    0,
    0,
    0,
    0,
    0,
    0,
    0,
    0,
    0,
    0,
    330,
    330,
    330,
    0,
    0,
    0,
    0,
    0,
    330,
    330,
    330,
    330,
    330,
    330,
    330,
    0,
    0,
    0,
    0,
    0,
    0,
    0,
    0,
    0,
    330,
    330,
    330,
    0,
    0,
    0,
    0,
    0,
    0,
    0,
    0,
    0,
    0,
    0,
    0,
    0,
    330,
    330,
    0,
    0,
    330,
    330,
    0,
    0,
    330,
    330,
    330,
    0,
    0,
    0,
    0,
    330,
    330,
    330,
    330,
    0,
    0,
    0,
    330,
    330,
    330,
    330,
    330,
    330,
    330,
    330,
    330,
    0,
    0,
    0,
    0,
    0,
    0,
    0,
    0,
    0,
    0,
    0,
    330,
    0,
    0,
    0,
    0,
    0,
    0,
    0,
    0,
    0,
    0,
    0,
    0,
    0,
    330,
    330,
    330,
    0,
    0,
    0,
    0,
    0,
    330,
    330,
    330,
    330,
    330,
    330,
    330,
    0,
    0,
    0,
    0,
    0,
    0,
    0,
    0,
    0,
    330,
    330,
    330,
    0,
    0,
    0,
    0,
    0,
    0,
    0,
    0,
    0,
    0,
    0,
    0,
    0,
    0,
    0,
    0,
    0,
    0,
    0,
    0,
    0,
    330,
    330,
    330,
    0,
    0,
    0,
    0,
    330,
    330,
    330,
    0,
    0,
    0,
    0,
    0,
    0,
    0,
    0,
    330,
    330,
    330,
    330,
    0,
    0,
    0,
    0,
    0,
    0,
    0,
    0,
    0,
    0,
    0,
    0,
    0,
    0,
    0,
    0,
    0,
    0,
    0,
    0,
    330,
    0,
    0,
    0,
    0,
    0,
    330,
    330,
    330,
    0,
    0,
    0,
    0,
    0,
    0,
    0,
    0,
    0,
    0,
    0,
    0,
    0,
    0,
    0,
    0,
    0,
    0,
    0,
    0,
    0,
    0,
    0,
    0,
    0,
    0,
    0,
    0,
    0,
    0,
    0,
    0,
    0,
    0,
    0,
    0,
    0,
    0,
    0,
    0,
    0,
    0,
    0,
    0,
    0,
    0,
    0,
    0,
    0,
    0,
    0,
    0,
    0,
    0,
    0,
    0,
    0,
    330,
    0,
    0,
    0,
    0,
    0,
    0,
    0,
    0,
    0,
    0,
    0,
    0,
    0,
    0,
    0,
    0,
    0,
    0,
    0,
    0,
    0,
    0,
    0,
    0,
    0,
    0,
    0,
    0,
    0,
    0,
    0,
    0,
    0,
    0,
    0,
    0,
    0,
    0,
    0,
    0,
    0,
    0,
    0,
    0,
    0,
    0,
    0,
    0,
    0,
    0,
    0,
    0,
    0,
    0,
    0,
    0,
    0,
    0,
    0,
    0,
    0,
    0,
    0,
    0,
    0,
    0,
    0,
    0,
    0,
    0,
    0,
    0,
    0,
    0,
    0,
    0,
    0,
    0,
    0,
    0,
    0,
    0,
    0,
    0,
    0,
    0,
    0,
    0,
    330,
    0,
    0,
    0,
    0,
    0,
    0,
    0,
    0,
    0,
    0,
    0,
    0,
    0,
    0,
    0,
    0,
    0,
    0,
    0,
    0,
    0,
    0,
    0,
    0,
    0,
    0,
    0,
    0,
    0,
    0,
    0,
    0,
    0,
    0,
    0,
    0,
    0,
    0,
    0,
    0,
    330,
    0,
    0,
    0,
    0,
    0,
    0,
    0,
    0,
    0,
    0,
    0,
    0,
    0,
    0,
    0,
    0,
    0,
    0,
    0,
    0,
    0,
    0,
    0,
    0,
    0,
    0,
    0,
    0,
    0,
    0,
    0,
    0,
    0,
    0,
    0,
    0,
    0,
    0,
    0,
    0,
    0,
    0,
    0,
    0,
    0,
    0,
    0,
    0,
    0,
    0,
    0,
    0,
    0,
    0,
    0,
    0,
    0,
    0,
    0,
    0,
    0,
    0,
    0,
    0,
    0,
    0,
    0,
    0,
    0,
    0,
    0,
    0,
    0,
    0,
    0,
    0,
    0,
    0,
    0,
    0,
    0,
    0,
    0,
    0,
    0,
    0,
    0,
    0,
    0,
    0,
    0,
    0,
    0,
    0,
    0,
    0,
    0,
    0,
    0,
    0,
    0
   ]
  },
  {
   "id": 4,
   "type": "tilelayer",
   "name": "canopy",
   "width": 96,
   "height": 72,
   "x": 0,
   "y": 0,
   "opacity": 1,
   "visible": true,
   "data": [
    0,
    0,
    0,
    0,
    0,
    0,
    0,
    0,
    0,
    0,
    0,
    0,
    0,
    0,
    0,
    0,
    0,
    0,
    0,
    0,
    0,
    0,
    0,
    0,
    0,
    0,
    0,
    0,
    0,
    0,
    0,
    0,
    0,
    0,
    0,
    0,
    0,
    0,
    0,
    0,
    0,
    0,
    0,
    0,
    0,
    0,
    0,
    0,
    0,
    0,
    0,
    0,
    0,
    0,
    0,
    0,
    0,
    0,
    0,
    0,
    0,
    0,
    0,
    0,
    0,
    0,
    0,
    0,
    0,
    0,
    0,
    0,
    0,
    0,
    0,
    0,
    0,
    0,
    0,
    0,
    0,
    0,
    0,
    0,
    0,
    0,
    0,
    0,
    0,
    0,
    0,
    0,
    0,
    0,
    0,
    0,
    0,
    0,
    0,
    0,
    0,
    0,
    0,
    0,
    0,
    0,
    0,
    0,
    0,
    0,
    0,
    0,
    0,
    0,
    0,
    0,
    0,
    0,
    0,
    0,
    0,
    0,
    0,
    0,
    0,
    0,
    0,
    0,
    0,
    0,
    0,
    0,
    0,
    0,
    0,
    0,
    0,
    0,
    0,
    0,
    0,
    0,
    0,
    0,
    0,
    0,
    0,
    0,
    0,
    0,
    0,
    0,
    0,
    0,
    0,
    0,
    0,
    0,
    0,
    0,
    0,
    0,
    0,
    0,
    0,
    0,
    0,
    0,
    0,
    0,
    0,
    0,
    0,
    0,
    0,
    0,
    0,
    0,
    0,
    0,
    0,
    0,
    0,
    0,
    0,
    0,
    0,
    0,
    0,
    0,
    0,
    0,
    0,
    0,
    0,
    0,
    0,
    0,
    0,
    0,
    0,
    444,
    445,
    446,
    0,
    0,
    0,
    0,
    0,
    0,
    0,
    0,
    0,
    0,
    0,
    0,
    0,
    0,
    0,
    444,
    445,
    446,
    0,
    0,
    0,
    0,
    0,
    0,
    0,
    0,
    0,
    0,
    0,
    0,
    0,
    0,
    0,
    0,
    0,
    0,
    0,
    0,
    0,
    0,
    0,
    0,
    0,
    0,
    0,
    0,
    0,
    0,
    0,
    0,
    0,
    0,
    0,
    0,
    0,
    0,
    0,
    0,
    0,
    0,
    0,
    0,
    0,
    0,
    0,
    0,
    0,
    0,
    0,
    0,
    0,
    0,
    0,
    0,
    0,
    0,
    0,
    0,
    0,
    0,
    0,
    0,
    0,
    0,
    0,
    0,
    0,
    0,
    0,
    0,
    0,
    0,
    0,
    447,
    448,
    449,
    0,
    0,
    0,
    0,
    0,
    0,
    0,
    0,
    0,
    0,
    0,
    0,
    0,
    0,
    0,
    447,
    448,
    449,
    0,
    0,
    0,
    0,
    0,
    0,
    0,
    0,
    0,
    0,
    0,
    0,
    0,
    0,
    0,
    0,
    0,
    0,
    0,
    0,
    0,
    0,
    0,
    0,
    0,
    0,
    0,
    0,
    0,
    0,
    0,
    0,
    0,
    0,
    0,
    0,
    0,
    0,
    0,
    407,
    408,
    0,
    0,
    0,
    0,
    0,
    0,
    0,
    0,
    0,
    0,
    0,
    0,
    0,
    0,
    0,
    0,
    0,
    0,
    0,
    0,
    0,
    0,
    0,
    0,
    0,
    0,
    0,
    0,
    0,
    0,
    0,
    0,
    0,
    0,
    0,
    0,
    0,
    0,
    0,
    0,
    0,
    0,
    0,
    0,
    0,
    0,
    0,
    0,
    0,
    0,
    0,
    0,
    0,
    0,
    0,
    0,
    0,
    0,
    0,
    0,
    0,
    0,
    0,
    0,
    0,
    0,
    0,
    0,
    0,
    0,
    0,
    0,
    0,
    0,
    0,
    0,
    0,
    0,
    0,
    0,
    0,
    0,
    0,
    0,
    0,
    0,
    0,
    0,
    0,
    0,
    0,
    0,
    0,
    0,
    0,
    0,
    0,
    0,
    0,
    0,
    0,
    0,
    0,
    0,
    0,
    0,
    0,
    0,
    0,
    0,
    0,
    0,
    0,
    0,
    0,
    0,
    0,
    0,
    0,
    0,
    0,
    0,
    0,
    0,
    0,
    0,
    0,
    0,
    0,
    0,
    0,
    0,
    0,
    0,
    0,
    0,
    0,
    0,
    0,
    0,
    0,
    0,
    0,
    0,
    0,
    0,
    0,
    0,
    0,
    0,
    0,
    0,
    0,
    0,
    0,
    0,
    0,
    0,
    0,
    0,
    0,
    0,
    0,
    0,
    0,
    0,
    0,
    0,
    0,
    0,
    0,
    0,
    0,
    0,
    0,
    0,
    0,
    0,
    0,
    0,
    0,
    0,
    0,
    0,
    0,
    0,
    0,
    0,
    0,
    0,
    0,
    0,
    0,
    0,
    0,
    0,
    0,
    0,
    0,
    0,
    0,
    0,
    0,
    0,
    0,
    0,
    0,
    0,
    0,
    0,
    0,
    0,
    0,
    0,
    0,
    0,
    0,
    0,
    0,
    0,
    0,
    0,
    0,
    0,
    0,
    0,
    0,
    0,
    0,
    0,
    0,
    0,
    0,
    0,
    0,
    0,
    0,
    0,
    0,
    0,
    0,
    0,
    0,
    0,
    0,
    0,
    0,
    0,
    0,
    0,
    0,
    0,
    0,
    0,
    0,
    0,
    0,
    0,
    0,
    0,
    0,
    0,
    0,
    0,
    0,
    0,
    0,
    0,
    0,
    0,
    0,
    0,
    0,
    0,
    0,
    0,
    0,
    0,
    0,
    0,
    0,
    0,
    0,
    0,
    0,
    0,
    0,
    0,
    0,
    0,
    0,
    0,
    0,
    0,
    0,
    0,
    0,
    0,
    0,
    0,
    0,
    0,
    0,
    0,
    0,
    0,
    0,
    0,
    0,
    0,
    0,
    0,
    0,
    0,
    0,
    0,
    0,
    0,
    0,
    0,
    0,
    0,
    0,
    0,
    0,
    0,
    0,
    0,
    0,
    0,
    0,
    0,
    0,
    0,
    0,
    0,
    0,
    0,
    0,
    0,
    0,
    0,
    0,
    0,
    0,
    0,
    0,
    0,
    0,
    0,
    0,
    0,
    0,
    0,
    0,
    0,
    0,
    0,
    0,
    0,
    0,
    0,
    0,
    0,
    0,
    0,
    0,
    0,
    0,
    0,
    0,
    0,
    0,
    0,
    0,
    0,
    0,
    0,
    0,
    0,
    0,
    0,
    0,
    0,
    0,
    0,
    0,
    0,
    0,
    0,
    0,
    0,
    0,
    0,
    0,
    0,
    0,
    0,
    0,
    0,
    0,
    0,
    0,
    0,
    0,
    0,
    0,
    0,
    0,
    0,
    0,
    0,
    0,
    0,
    0,
    0,
    0,
    0,
    0,
    0,
    0,
    0,
    0,
    0,
    0,
    0,
    0,
    0,
    0,
    0,
    0,
    0,
    0,
    0,
    0,
    0,
    0,
    0,
    0,
    0,
    0,
    0,
    0,
    0,
    0,
    0,
    0,
    0,
    0,
    0,
    0,
    0,
    0,
    0,
    0,
    0,
    0,
    0,
    0,
    0,
    0,
    0,
    0,
    0,
    0,
    0,
    0,
    0,
    0,
    0,
    0,
    0,
    0,
    0,
    0,
    0,
    0,
    0,
    0,
    0,
    0,
    0,
    0,
    0,
    0,
    0,
    0,
    0,
    0,
    0,
    0,
    0,
    0,
    0,
    0,
    0,
    0,
    0,
    0,
    0,
    0,
    0,
    0,
    0,
    0,
    0,
    0,
    0,
    0,
    0,
    0,
    0,
    0,
    0,
    0,
    0,
    0,
    0,
    0,
    0,
    0,
    0,
    0,
    0,
    0,
    0,
    0,
    0,
    0,
    0,
    0,
    0,
    0,
    0,
    0,
    0,
    0,
    0,
    0,
    0,
    0,
    0,
    0,
    0,
    0,
    0,
    0,
    0,
    0,
    0,
    0,
    0,
    0,
    0,
    0,
    0,
    0,
    0,
    0,
    0,
    0,
    0,
    0,
    0,
    0,
    0,
    0,
    0,
    0,
    0,
    0,
    0,
    0,
    0,
    0,
    0,
    0,
    0,
    0,
    0,
    0,
    0,
    0,
    0,
    0,
    0,
    0,
    0,
    0,
    0,
    0,
    0,
    0,
    0,
    0,
    0,
    0,
    0,
    0,
    0,
    0,
    0,
    0,
    0,
    0,
    0,
    0,
    0,
    0,
    0,
    0,
    0,
    0,
    0,
    0,
    0,
    0,
    0,
    0,
    0,
    0,
    0,
    0,
    0,
    0,
    0,
    0,
    0,
    0,
    0,
    0,
    0,
    0,
    0,
    0,
    0,
    0,
    0,
    0,
    0,
    0,
    0,
    0,
    0,
    0,
    0,
    0,
    0,
    0,
    0,
    0,
    0,
    0,
    0,
    0,
    0,
    0,
    0,
    0,
    0,
    0,
    0,
    0,
    0,
    0,
    0,
    0,
    0,
    0,
    0,
    0,
    0,
    0,
    0,
    0,
    0,
    0,
    0,
    0,
    0,
    0,
    0,
    0,
    0,
    0,
    0,
    0,
    0,
    0,
    0,
    0,
    0,
    0,
    0,
    0,
    0,
    0,
    0,
    0,
    0,
    0,
    0,
    0,
    0,
    0,
    0,
    0,
    0,
    0,
    0,
    0,
    0,
    0,
    0,
    0,
    0,
    0,
    0,
    0,
    0,
    0,
    0,
    0,
    0,
    0,
    0,
    0,
    0,
    0,
    0,
    0,
    0,
    0,
    0,
    0,
    0,
    0,
    0,
    0,
    0,
    0,
    0,
    0,
    0,
    0,
    0,
    0,
    0,
    0,
    0,
    0,
    0,
    0,
    0,
    0,
    0,
    0,
    0,
    0,
    0,
    0,
    0,
    0,
    0,
    0,
    0,
    0,
    0,
    0,
    0,
    0,
    0,
    0,
    0,
    0,
    0,
    0,
    0,
    0,
    0,
    0,
    0,
    0,
    0,
    0,
    0,
    0,
    0,
    0,
    0,
    0,
    0,
    0,
    0,
    0,
    0,
    0,
    0,
    0,
    0,
    0,
    0,
    0,
    0,
    0,
    0,
    0,
    0,
    0,
    0,
    0,
    0,
    0,
    0,
    0,
    0,
    0,
    0,
    0,
    0,
    0,
    0,
    0,
    0,
    0,
    0,
    0,
    0,
    0,
    0,
    0,
    0,
    0,
    0,
    0,
    0,
    0,
    0,
    0,
    0,
    0,
    0,
    0,
    0,
    0,
    0,
    0,
    0,
    0,
    0,
    0,
    0,
    0,
    0,
    0,
    0,
    0,
    0,
    0,
    0,
    0,
    0,
    0,
    0,
    0,
    0,
    0,
    0,
    0,
    0,
    0,
    0,
    0,
    0,
    0,
    0,
    0,
    0,
    0,
    0,
    0,
    0,
    0,
    0,
    0,
    0,
    0,
    0,
    0,
    0,
    0,
    0,
    0,
    0,
    0,
    0,
    0,
    0,
    0,
    0,
    0,
    0,
    0,
    0,
    0,
    0,
    0,
    0,
    0,
    0,
    0,
    0,
    0,
    0,
    0,
    0,
    0,
    0,
    0,
    0,
    0,
    0,
    0,
    0,
    0,
    0,
    0,
    0,
    0,
    0,
    0,
    0,
    0,
    0,
    0,
    0,
    0,
    0,
    0,
    0,
    0,
    0,
    0,
    0,
    0,
    0,
    0,
    0,
    0,
    0,
    0,
    0,
    0,
    0,
    0,
    0,
    0,
    0,
    0,
    0,
    0,
    0,
    0,
    0,
    0,
    0,
    0,
    0,
    0,
    0,
    0,
    0,
    0,
    0,
    0,
    0,
    0,
    0,
    0,
    0,
    0,
    0,
    0,
    0,
    0,
    0,
    0,
    0,
    0,
    0,
    0,
    0,
    0,
    0,
    0,
    0,
    0,
    0,
    0,
    0,
    0,
    0,
    0,
    0,
    0,
    0,
    0,
    0,
    0,
    0,
    0,
    0,
    0,
    0,
    0,
    0,
    0,
    0,
    0,
    0,
    0,
    0,
    0,
    0,
    0,
    0,
    0,
    0,
    0,
    0,
    0,
    0,
    0,
    0,
    0,
    0,
    0,
    0,
    0,
    0,
    0,
    0,
    0,
    0,
    0,
    0,
    0,
    0,
    0,
    0,
    0,
    0,
    0,
    0,
    0,
    0,
    0,
    0,
    0,
    0,
    0,
    0,
    0,
    0,
    0,
    0,
    0,
    0,
    0,
    0,
    0,
    0,
    0,
    0,
    0,
    0,
    0,
    0,
    0,
    0,
    0,
    0,
    0,
    0,
    0,
    0,
    0,
    0,
    0,
    0,
    0,
    0,
    0,
    0,
    0,
    0,
    0,
    0,
    0,
    0,
    0,
    0,
    0,
    0,
    0,
    0,
    0,
    0,
    0,
    0,
    0,
    0,
    0,
    0,
    0,
    0,
    0,
    0,
    0,
    0,
    0,
    0,
    0,
    0,
    0,
    0,
    0,
    0,
    0,
    0,
    0,
    0,
    0,
    0,
    0,
    0,
    0,
    0,
    0,
    0,
    0,
    0,
    0,
    0,
    0,
    0,
    0,
    0,
    0,
    0,
    0,
    0,
    0,
    0,
    0,
    0,
    0,
    0,
    0,
    0,
    0,
    0,
    0,
    0,
    0,
    0,
    0,
    0,
    0,
    0,
    0,
    0,
    0,
    0,
    0,
    0,
    0,
    0,
    0,
    0,
    0,
    0,
    0,
    0,
    0,
    0,
    0,
    0,
    0,
    0,
    0,
    0,
    0,
    0,
    0,
    0,
    0,
    0,
    0,
    0,
    0,
    0,
    0,
    0,
    0,
    0,
    0,
    0,
    0,
    0,
    0,
    0,
    0,
    0,
    0,
    0,
    0,
    0,
    0,
    0,
    0,
    0,
    0,
    0,
    0,
    0,
    0,
    0,
    0,
    0,
    0,
    0,
    0,
    0,
    0,
    0,
    0,
    0,
    0,
    0,
    0,
    0,
    0,
    0,
    0,
    0,
    0,
    0,
    0,
    0,
    0,
    0,
    0,
    0,
    0,
    0,
    0,
    0,
    0,
    0,
    0,
    0,
    0,
    0,
    0,
    0,
    0,
    0,
    0,
    0,
    0,
    0,
    0,
    0,
    0,
    0,
    0,
    0,
    0,
    0,
    0,
    0,
    0,
    0,
    0,
    0,
    0,
    0,
    0,
    0,
    0,
    0,
    0,
    0,
    0,
    0,
    0,
    0,
    0,
    0,
    0,
    0,
    0,
    0,
    0,
    0,
    0,
    0,
    0,
    0,
    0,
    0,
    0,
    0,
    0,
    0,
    0,
    0,
    0,
    0,
    0,
    0,
    0,
    0,
    0,
    0,
    0,
    0,
    0,
    0,
    0,
    0,
    0,
    0,
    0,
    0,
    0,
    399,
    400,
    0,
    0,
    0,
    0,
    0,
    0,
    0,
    0,
    0,
    0,
    0,
    0,
    0,
    0,
    0,
    0,
    0,
    0,
    0,
    0,
    0,
    0,
    0,
    0,
    0,
    0,
    0,
    0,
    0,
    0,
    0,
    0,
    0,
    0,
    0,
    0,
    0,
    0,
    0,
    0,
    0,
    0,
    0,
    0,
    0,
    0,
    0,
    0,
    0,
    0,
    0,
    0,
    0,
    0,
    0,
    0,
    0,
    0,
    0,
    0,
    0,
    0,
    0,
    0,
    0,
    0,
    0,
    0,
    0,
    0,
    0,
    0,
    0,
    0,
    0,
    0,
    0,
    0,
    0,
    0,
    0,
    0,
    0,
    0,
    0,
    0,
    0,
    0,
    0,
    0,
    0,
    0,
    0,
    0,
    0,
    0,
    0,
    0,
    0,
    0,
    0,
    0,
    0,
    0,
    0,
    0,
    0,
    0,
    0,
    0,
    0,
    0,
    0,
    0,
    0,
    0,
    0,
    0,
    0,
    0,
    0,
    0,
    0,
    0,
    0,
    0,
    0,
    0,
    0,
    0,
    0,
    0,
    0,
    0,
    0,
    0,
    0,
    0,
    0,
    0,
    0,
    0,
    0,
    0,
    0,
    0,
    0,
    0,
    0,
    0,
    0,
    0,
    0,
    0,
    0,
    0,
    0,
    0,
    0,
    0,
    0,
    0,
    0,
    0,
    0,
    0,
    0,
    0,
    0,
    0,
    0,
    0,
    0,
    0,
    0,
    0,
    0,
    0,
    0,
    0,
    0,
    0,
    399,
    400,
    0,
    0,
    0,
    0,
    0,
    0,
    0,
    0,
    0,
    0,
    0,
    0,
    0,
    0,
    0,
    0,
    0,
    0,
    0,
    0,
    0,
    0,
    0,
    0,
    0,
    0,
    0,
    0,
    0,
    0,
    0,
    0,
    0,
    0,
    0,
    0,
    0,
    0,
    0,
    0,
    0,
    0,
    0,
    0,
    0,
    0,
    0,
    0,
    0,
    0,
    0,
    0,
    0,
    0,
    0,
    0,
    0,
    0,
    0,
    0,
    0,
    0,
    0,
    0,
    0,
    0,
    0,
    0,
    0,
    0,
    0,
    0,
    0,
    0,
    0,
    0,
    0,
    0,
    0,
    0,
    0,
    0,
    0,
    0,
    0,
    0,
    0,
    0,
    0,
    0,
    0,
    0,
    0,
    0,
    0,
    0,
    0,
    0,
    0,
    0,
    0,
    0,
    0,
    0,
    0,
    0,
    0,
    0,
    0,
    0,
    0,
    0,
    0,
    0,
    0,
    0,
    0,
    0,
    0,
    0,
    0,
    0,
    0,
    0,
    0,
    0,
    0,
    0,
    0,
    0,
    0,
    0,
    0,
    0,
    0,
    0,
    0,
    0,
    0,
    0,
    0,
    0,
    0,
    0,
    0,
    0,
    0,
    0,
    0,
    0,
    0,
    0,
    0,
    0,
    0,
    0,
    0,
    0,
    0,
    0,
    0,
    0,
    0,
    0,
    0,
    0,
    0,
    0,
    0,
    0,
    0,
    0,
    0,
    0,
    0,
    0,
    0,
    0,
    0,
    0,
    0,
    0,
    0,
    0,
    0,
    0,
    0,
    0,
    0,
    0,
    0,
    0,
    0,
    0,
    0,
    0,
    0,
    0,
    0,
    0,
    0,
    0,
    0,
    0,
    0,
    0,
    0,
    0,
    0,
    0,
    0,
    0,
    0,
    0,
    0,
    0,
    0,
    0,
    0,
    0,
    0,
    0,
    0,
    0,
    0,
    0,
    0,
    0,
    0,
    0,
    0,
    0,
    0,
    0,
    0,
    0,
    0,
    0,
    0,
    0,
    0,
    0,
    0,
    0,
    0,
    0,
    0,
    0,
    0,
    0,
    0,
    0,
    0,
    0,
    0,
    0,
    0,
    0,
    0,
    0,
    0,
    0,
    0,
    0,
    0,
    0,
    0,
    0,
    0,
    0,
    0,
    0,
    0,
    0,
    0,
    0,
    0,
    0,
    0,
    0,
    0,
    0,
    0,
    0,
    0,
    0,
    0,
    0,
    0,
    0,
    0,
    0,
    0,
    0,
    0,
    0,
    0,
    0,
    0,
    0,
    0,
    0,
    0,
    0,
    0,
    0,
    0,
    0,
    0,
    0,
    0,
    0,
    0,
    0,
    0,
    0,
    0,
    0,
    0,
    0,
    0,
    0,
    0,
    0,
    0,
    0,
    0,
    0,
    0,
    0,
    0,
    0,
    0,
    0,
    0,
    0,
    0,
    0,
    0,
    0,
    0,
    0,
    0,
    0,
    0,
    0,
    0,
    0,
    0,
    0,
    0,
    0,
    0,
    0,
    0,
    0,
    0,
    0,
    0,
    0,
    0,
    0,
    0,
    0,
    0,
    0,
    0,
    0,
    0,
    0,
    0,
    0,
    0,
    0,
    0,
    0,
    0,
    0,
    0,
    0,
    0,
    0,
    0,
    0,
    0,
    0,
    0,
    0,
    0,
    0,
    0,
    0,
    0,
    0,
    0,
    0,
    0,
    0,
    0,
    0,
    0,
    0,
    0,
    0,
    0,
    0,
    0,
    0,
    0,
    0,
    0,
    0,
    0,
    0,
    0,
    0,
    0,
    0,
    0,
    0,
    0,
    0,
    0,
    0,
    0,
    0,
    0,
    0,
    0,
    0,
    0,
    0,
    0,
    0,
    0,
    0,
    0,
    0,
    0,
    0,
    0,
    0,
    0,
    0,
    0,
    0,
    0,
    0,
    0,
    0,
    0,
    0,
    0,
    0,
    0,
    0,
    0,
    0,
    0,
    0,
    0,
    0,
    0,
    0,
    0,
    0,
    0,
    0,
    0,
    0,
    0,
    0,
    0,
    0,
    0,
    0,
    0,
    0,
    0,
    0,
    0,
    0,
    0,
    0,
    0,
    0,
    0,
    0,
    0,
    0,
    0,
    0,
    0,
    0,
    0,
    0,
    0,
    0,
    0,
    0,
    0,
    0,
    0,
    0,
    0,
    0,
    0,
    0,
    0,
    0,
    0,
    0,
    0,
    0,
    0,
    0,
    0,
    0,
    0,
    0,
    0,
    0,
    0,
    0,
    0,
    0,
    0,
    0,
    0,
    0,
    0,
    0,
    0,
    0,
    0,
    0,
    0,
    0,
    0,
    0,
    0,
    0,
    0,
    0,
    0,
    0,
    0,
    0,
    0,
    0,
    0,
    0,
    0,
    0,
    0,
    0,
    0,
    0,
    0,
    0,
    0,
    0,
    0,
    0,
    0,
    0,
    0,
    0,
    0,
    0,
    0,
    0,
    0,
    0,
    0,
    0,
    0,
    0,
    0,
    0,
    0,
    0,
    0,
    0,
    0,
    0,
    0,
    0,
    0,
    0,
    0,
    0,
    0,
    0,
    0,
    0,
    0,
    0,
    0,
    0,
    0,
    0,
    0,
    0,
    0,
    0,
    0,
    0,
    0,
    0,
    0,
    0,
    0,
    0,
    0,
    0,
    0,
    0,
    0,
    0,
    0,
    0,
    0,
    0,
    0,
    0,
    0,
    0,
    0,
    0,
    0,
    0,
    0,
    0,
    0,
    0,
    0,
    0,
    0,
    0,
    0,
    0,
    0,
    0,
    0,
    0,
    0,
    0,
    0,
    0,
    0,
    0,
    0,
    0,
    0,
    0,
    0,
    0,
    0,
    0,
    0,
    0,
    0,
    0,
    0,
    0,
    0,
    0,
    0,
    0,
    0,
    0,
    0,
    0,
    0,
    0,
    0,
    0,
    0,
    0,
    0,
    0,
    0,
    0,
    0,
    0,
    0,
    0,
    0,
    0,
    0,
    0,
    0,
    0,
    0,
    0,
    0,
    0,
    0,
    0,
    0,
    0,
    0,
    0,
    0,
    0,
    0,
    0,
    0,
    0,
    0,
    0,
    0,
    0,
    0,
    0,
    0,
    0,
    0,
    0,
    0,
    0,
    0,
    0,
    0,
    0,
    0,
    0,
    0,
    0,
    0,
    0,
    0,
    0,
    0,
    0,
    0,
    0,
    0,
    0,
    0,
    0,
    0,
    0,
    0,
    0,
    0,
    0,
    0,
    0,
    0,
    0,
    0,
    0,
    0,
    0,
    0,
    0,
    0,
    0,
    0,
    0,
    0,
    0,
    0,
    0,
    0,
    0,
    0,
    0,
    0,
    0,
    0,
    0,
    0,
    0,
    0,
    0,
    0,
    0,
    0,
    0,
    0,
    0,
    0,
    0,
    0,
    0,
    0,
    0,
    0,
    0,
    0,
    0,
    0,
    0,
    0,
    0,
    0,
    0,
    0,
    0,
    0,
    0,
    0,
    0,
    0,
    0,
    0,
    0,
    0,
    0,
    0,
    0,
    0,
    0,
    0,
    0,
    0,
    0,
    0,
    0,
    0,
    0,
    0,
    0,
    0,
    0,
    0,
    0,
    0,
    0,
    0,
    0,
    0,
    0,
    0,
    0,
    0,
    0,
    0,
    0,
    0,
    0,
    0,
    0,
    0,
    0,
    0,
    0,
    0,
    0,
    0,
    0,
    0,
    0,
    0,
    0,
    0,
    0,
    0,
    0,
    0,
    0,
    0,
    0,
    0,
    0,
    0,
    0,
    0,
    0,
    0,
    0,
    0,
    0,
    0,
    0,
    0,
    0,
    0,
    0,
    0,
    0,
    0,
    0,
    0,
    0,
    0,
    0,
    0,
    0,
    0,
    0,
    0,
    0,
    0,
    0,
    0,
    0,
    0,
    0,
    0,
    0,
    0,
    0,
    0,
    0,
    0,
    0,
    0,
    0,
    0,
    0,
    0,
    0,
    0,
    0,
    0,
    0,
    0,
    0,
    0,
    0,
    0,
    0,
    0,
    0,
    0,
    0,
    0,
    0,
    0,
    0,
    0,
    0,
    0,
    0,
    0,
    0,
    0,
    0,
    0,
    0,
    0,
    0,
    0,
    0,
    0,
    0,
    0,
    0,
    0,
    0,
    0,
    0,
    0,
    0,
    0,
    0,
    0,
    0,
    0,
    0,
    0,
    0,
    0,
    0,
    0,
    0,
    0,
    0,
    0,
    0,
    0,
    0,
    0,
    0,
    0,
    0,
    0,
    0,
    0,
    0,
    0,
    0,
    0,
    0,
    0,
    0,
    0,
    0,
    0,
    0,
    0,
    0,
    0,
    0,
    0,
    0,
    0,
    0,
    0,
    0,
    0,
    0,
    0,
    0,
    0,
    0,
    0,
    0,
    0,
    0,
    0,
    0,
    0,
    0,
    435,
    436,
    437,
    0,
    0,
    0,
    0,
    0,
    0,
    0,
    0,
    0,
    0,
    0,
    0,
    0,
    0,
    0,
    0,
    0,
    0,
    0,
    435,
    436,
    437,
    0,
    0,
    0,
    0,
    0,
    0,
    0,
    0,
    0,
    0,
    0,
    0,
    0,
    0,
    0,
    0,
    0,
    0,
    0,
    0,
    0,
    0,
    0,
    435,
    436,
    437,
    0,
    0,
    0,
    0,
    0,
    0,
    0,
    0,
    0,
    0,
    0,
    0,
    0,
    0,
    0,
    0,
    0,
    0,
    0,
    0,
    0,
    435,
    436,
    437,
    0,
    0,
    0,
    0,
    0,
    0,
    0,
    0,
    0,
    0,
    0,
    0,
    0,
    0,
    0,
    0,
    0,
    0,
    0,
    0,
    0,
    438,
    439,
    440,
    0,
    0,
    0,
    0,
    0,
    0,
    0,
    0,
    0,
    0,
    0,
    0,
    0,
    0,
    0,
    0,
    0,
    0,
    0,
    438,
    439,
    440,
    0,
    0,
    0,
    0,
    0,
    0,
    0,
    0,
    0,
    0,
    0,
    0,
    0,
    0,
    0,
    0,
    0,
    0,
    0,
    0,
    0,
    0,
    0,
    438,
    439,
    440,
    0,
    0,
    0,
    0,
    0,
    0,
    0,
    0,
    0,
    0,
    0,
    0,
    0,
    0,
    0,
    0,
    0,
    0,
    0,
    0,
    0,
    438,
    439,
    440,
    0,
    0,
    0,
    0,
    0,
    0,
    0,
    0,
    0,
    0,
    0,
    0,
    0,
    0,
    0,
    0,
    0,
    0,
    0,
    0,
    0,
    0,
    0,
    0,
    0,
    0,
    0,
    0,
    0,
    0,
    0,
    0,
    0,
    0,
    0,
    0,
    0,
    0,
    0,
    0,
    0,
    0,
    0,
    0,
    0,
    0,
    0,
    0,
    0,
    0,
    0,
    0,
    0,
    0,
    0,
    0,
    0,
    0,
    0,
    0,
    0,
    0,
    0,
    0,
    0,
    0,
    0,
    0,
    0,
    0,
    0,
    0,
    0,
    0,
    0,
    0,
    0,
    0,
    0,
    0,
    0,
    0,
    0,
    0,
    0,
    0,
    0,
    0,
    0,
    0,
    0,
    0,
    0,
    0,
    0,
    0,
    0,
    0,
    0,
    0,
    0,
    0,
    0,
    0,
    0,
    0,
    0,
    0,
    0,
    0,
    0,
    0,
    0,
    0,
    0,
    0,
    0,
    0,
    0,
    0,
    0,
    0,
    0,
    0,
    0,
    0,
    0,
    0,
    0,
    0,
    0,
    0,
    0,
    0,
    0,
    0,
    0,
    0,
    0,
    0,
    0,
    0,
    0,
    0,
    0,
    0,
    0,
    0,
    0,
    0,
    0,
    0,
    0,
    0,
    415,
    416,
    0,
    0,
    0,
    0,
    0,
    0,
    0,
    0,
    0,
    0,
    0,
    0,
    0,
    0,
    0,
    0,
    0,
    0,
    0,
    0,
    0,
    0,
    0,
    0,
    0,
    0,
    0,
    0,
    0,
    0,
    0,
    0,
    0,
    0,
    0,
    0,
    0,
    0,
    0,
    0,
    0,
    0,
    0,
    0,
    0,
    0,
    0,
    0,
    0,
    0,
    0,
    0,
    0,
    0,
    0,
    0,
    0,
    0,
    0,
    0,
    0,
    0,
    0,
    0,
    0,
    0,
    0,
    0,
    0,
    0,
    0,
    0,
    0,
    0,
    0,
    0,
    0,
    0,
    0,
    0,
    0,
    0,
    0,
    0,
    0,
    0,
    0,
    0,
    0,
    0,
    0,
    0,
    0,
    0,
    0,
    0,
    0,
    0,
    0,
    0,
    0,
    0,
    0,
    0,
    0,
    0,
    0,
    0,
    0,
    0,
    0,
    0,
    0,
    0,
    0,
    0,
    0,
    0,
    0,
    0,
    0,
    0,
    0,
    0,
    0,
    0,
    0,
    0,
    0,
    0,
    0,
    0,
    0,
    0,
    0,
    0,
    0,
    0,
    0,
    0,
    0,
    0,
    0,
    0,
    0,
    0,
    0,
    0,
    0,
    0,
    0,
    0,
    0,
    0,
    0,
    0,
    0,
    0,
    0,
    0,
    0,
    0,
    0,
    0,
    0,
    0,
    0,
    0,
    0,
    0,
    0,
    0,
    0,
    0,
    0,
    0,
    0,
    0,
    0,
    0,
    0,
    0,
    0,
    0,
    0,
    0,
    0,
    0,
    0,
    0,
    0,
    0,
    0,
    0,
    0,
    0,
    0,
    0,
    0,
    0,
    0,
    0,
    0,
    0,
    0,
    0,
    0,
    0,
    0,
    0,
    0,
    0,
    0,
    0,
    0,
    0,
    0,
    0,
    0,
    0,
    0,
    0,
    0,
    0,
    0,
    0,
    0,
    0,
    0,
    0,
    0,
    0,
    0,
    0,
    0,
    0,
    0,
    0,
    0,
    0,
    0,
    0,
    0,
    0,
    0,
    0,
    0,
    0,
    0,
    0,
    0,
    0,
    0,
    0,
    0,
    0,
    0,
    0,
    0,
    0,
    0,
    0,
    0,
    0,
    0,
    0,
    0,
    0,
    0,
    0,
    0,
    0,
    0,
    0,
    0,
    0,
    0,
    0,
    0,
    0,
    0,
    0,
    0,
    0,
    0,
    0,
    0,
    0,
    0,
    0,
    0,
    0,
    0,
    0,
    0,
    0,
    0,
    0,
    0,
    0,
    0,
    0,
    0,
    0,
    0,
    0,
    0,
    0,
    0,
    0,
    0,
    0,
    0,
    0,
    0,
    0,
    0,
    0,
    0,
    0,
    0,
    0,
    0,
    0,
    0,
    0,
    0,
    0,
    0,
    0,
    0,
    0,
    0,
    0,
    0,
    0,
    0,
    0,
    0,
    0,
    0,
    0,
    0,
    0,
    0,
    0,
    0,
    0,
    0,
    0,
    0,
    0,
    0,
    0,
    0,
    0,
    0,
    0,
    0,
    0,
    0,
    0,
    0,
    0,
    0,
    0,
    0,
    0,
    0,
    0,
    0,
    0,
    0,
    0,
    0,
    0,
    0,
    0,
    0,
    0,
    0,
    0,
    0,
    0,
    0,
    0,
    0,
    0,
    0,
    0,
    0,
    0,
    0,
    0,
    0,
    0,
    0,
    0,
    0,
    0,
    0,
    0,
    0,
    0,
    0,
    0,
    0,
    0,
    0,
    0,
    0,
    0,
    0,
    0,
    0,
    0,
    0,
    0,
    0,
    0,
    0,
    0,
    0,
    0,
    0,
    0,
    0,
    0,
    0,
    0,
    0,
    0,
    0,
    0,
    0,
    0,
    0,
    0,
    0,
    0,
    0,
    0,
    0,
    0,
    0,
    0,
    0,
    0,
    0,
    0,
    0,
    0,
    0,
    0,
    0,
    0,
    0,
    0,
    0,
    0,
    0,
    0,
    0,
    0,
    0,
    0,
    0,
    0,
    0,
    0,
    0,
    0,
    462,
    463,
    464,
    0,
    0,
    0,
    0,
    0,
    0,
    0,
    0,
    0,
    0,
    0,
    0,
    0,
    0,
    0,
    0,
    0,
    0,
    0,
    0,
    462,
    463,
    464,
    0,
    0,
    0,
    0,
    0,
    0,
    0,
    0,
    0,
    0,
    0,
    0,
    0,
    0,
    0,
    0,
    0,
    0,
    0,
    0,
    0,
    0,
    0,
    0,
    0,
    0,
    0,
    0,
    0,
    0,
    0,
    0,
    0,
    0,
    0,
    0,
    0,
    0,
    0,
    0,
    0,
    0,
    0,
    0,
    0,
    0,
    0,
    0,
    0,
    0,
    0,
    0,
    0,
    0,
    0,
    0,
    0,
    0,
    0,
    0,
    0,
    0,
    0,
    0,
    0,
    0,
    0,
    0,
    0,
    0,
    465,
    466,
    467,
    0,
    0,
    0,
    0,
    0,
    0,
    0,
    0,
    0,
    0,
    0,
    0,
    0,
    0,
    0,
    0,
    0,
    0,
    0,
    0,
    465,
    466,
    467,
    0,
    0,
    0,
    0,
    0,
    0,
    0,
    0,
    0,
    0,
    0,
    0,
    0,
    0,
    0,
    0,
    0,
    0,
    0,
    0,
    0,
    0,
    0,
    0,
    0,
    0,
    0,
    0,
    0,
    0,
    0,
    0,
    0,
    0,
    0,
    0,
    0,
    0,
    0,
    0,
    0,
    0,
    0,
    0,
    0,
    0,
    0,
    0,
    0,
    0,
    0,
    0,
    0,
    0,
    0,
    0,
    0,
    0,
    0,
    0,
    0,
    0,
    0,
    0,
    0,
    0,
    0,
    0,
    0,
    0,
    0,
    0,
    0,
    0,
    0,
    0,
    0,
    0,
    0,
    0,
    0,
    0,
    0,
    0,
    0,
    0,
    0,
    0,
    0,
    0,
    0,
    0,
    0,
    0,
    0,
    0,
    0,
    0,
    0,
    0,
    0,
    0,
    0,
    0,
    0,
    0,
    0,
    0,
    0,
    0,
    0,
    0,
    0,
    0,
    0,
    0,
    0,
    0,
    0,
    0,
    0,
    0,
    0,
    0,
    0,
    0,
    0,
    0,
    0,
    0,
    0,
    0,
    0,
    0,
    0,
    0,
    0,
    0,
    0,
    0,
    0,
    0,
    0,
    0,
    0,
    0,
    0,
    0,
    0,
    0,
    0,
    0,
    0,
    0,
    0,
    0,
    0,
    0,
    0,
    0,
    0,
    0,
    0,
    0,
    0,
    0,
    0,
    0,
    0,
    0,
    0,
    0,
    0,
    0,
    0,
    0,
    0,
    0,
    0,
    0,
    0,
    0,
    0,
    0,
    0,
    0,
    0,
    0,
    0,
    0,
    0,
    0,
    0,
    0,
    0,
    0,
    0,
    0,
    0,
    0,
    0,
    0,
    0,
    0,
    0,
    0,
    0,
    0,
    0,
    0,
    0,
    0,
    0,
    0,
    0,
    0,
    0,
    0,
    0,
    0,
    0,
    0,
    0,
    0,
    0,
    0,
    0,
    0,
    0,
    453,
    454,
    455,
    0,
    0,
    0,
    0,
    0,
    0,
    0,
    0,
    0,
    0,
    0,
    0,
    0,
    0,
    0,
    0,
    0,
    0,
    0,
    0,
    0,
    0,
    0,
    0,
    0,
    0,
    0,
    0,
    0,
    0,
    0,
    0,
    0,
    0,
    0,
    0,
    0,
    0,
    0,
    0,
    0,
    0,
    0,
    0,
    0,
    0,
    0,
    0,
    0,
    0,
    0,
    0,
    0,
    0,
    0,
    0,
    0,
    0,
    0,
    0,
    0,
    0,
    0,
    0,
    0,
    0,
    0,
    0,
    0,
    0,
    0,
    0,
    0,
    0,
    0,
    0,
    0,
    0,
    0,
    0,
    0,
    0,
    0,
    0,
    0,
    0,
    0,
    0,
    0,
    0,
    0,
    0,
    0,
    456,
    457,
    458,
    0,
    0,
    0,
    0,
    0,
    0,
    0,
    0,
    0,
    0,
    0,
    0,
    0,
    0,
    0,
    0,
    0,
    0,
    0,
    0,
    0,
    0,
    0,
    0,
    0,
    0,
    0,
    0,
    0,
    0,
    0,
    0,
    0,
    0,
    0,
    0,
    0,
    0,
    0,
    0,
    0,
    0,
    0,
    0,
    0,
    0,
    0,
    0,
    0,
    0,
    0,
    0,
    0,
    0,
    0,
    0,
    0,
    0,
    0,
    0,
    0,
    0,
    0,
    0,
    0,
    0,
    0,
    0,
    0,
    0,
    0,
    0,
    0,
    0,
    0,
    0,
    0,
    0,
    0,
    0,
    0,
    0,
    0,
    0,
    0,
    0,
    0,
    0,
    0,
    0,
    0,
    0,
    0,
    0,
    0,
    0,
    0,
    0,
    0,
    0,
    0,
    0,
    0,
    0,
    0,
    0,
    0,
    0,
    0,
    0,
    0,
    0,
    0,
    0,
    0,
    0,
    0,
    0,
    0,
    0,
    0,
    0,
    0,
    0,
    0,
    0,
    0,
    0,
    0,
    0,
    0,
    0,
    0,
    0,
    0,
    0,
    0,
    0,
    0,
    0,
    0,
    0,
    0,
    0,
    0,
    0,
    0,
    0,
    0,
    0,
    0,
    0,
    0,
    0,
    0,
    0,
    0,
    0,
    0,
    0,
    0,
    0,
    0,
    0,
    0,
    0,
    0,
    0,
    0,
    0,
    0,
    0,
    0,
    0,
    0,
    0,
    0,
    0,
    0,
    0,
    0,
    0,
    0,
    0,
    0,
    0,
    0,
    0,
    0,
    0,
    0,
    0,
    0,
    0,
    0,
    0,
    0,
    0,
    0,
    0,
    0,
    0,
    0,
    0,
    0,
    0,
    0,
    0,
    0,
    0,
    391,
    392,
    0,
    0,
    0,
    0,
    0,
    0,
    0,
    0,
    0,
    0,
    0,
    0,
    0,
    0,
    0,
    0,
    0,
    0,
    0,
    0,
    0,
    0,
    0,
    0,
    0,
    0,
    0,
    0,
    0,
    0,
    0,
    0,
    0,
    0,
    0,
    0,
    0,
    0,
    0,
    0,
    0,
    0,
    0,
    0,
    0,
    0,
    0,
    0,
    0,
    0,
    0,
    0,
    0,
    0,
    0,
    0,
    0,
    0,
    0,
    0,
    0,
    0,
    0,
    0,
    0,
    0,
    0,
    0,
    0,
    0,
    0,
    0,
    0,
    0,
    0,
    0,
    0,
    0,
    0,
    0,
    0,
    0,
    0,
    0,
    0,
    0,
    0,
    0,
    0,
    0,
    0,
    0,
    403,
    404,
    0,
    0,
    0,
    0,
    0,
    0,
    0,
    0,
    0,
    0,
    0,
    0,
    0,
    0,
    0,
    0,
    0,
    0,
    0,
    0,
    0,
    0,
    0,
    0,
    0,
    0,
    0,
    0,
    0,
    0,
    0,
    0,
    0,
    0,
    0,
    0,
    0,
    0,
    0,
    0,
    0,
    0,
    0,
    0,
    0,
    0,
    0,
    0,
    0,
    0,
    0,
    0,
    0,
    0,
    0,
    0,
    0,
    0,
    0,
    0,
    0,
    0,
    0,
    0,
    0,
    0,
    0,
    0,
    0,
    0,
    0,
    0,
    0,
    0,
    0,
    0,
    0,
    0,
    0,
    0,
    0,
    0,
    0,
    0,
    0,
    0,
    0,
    0,
    0,
    391,
    392,
    0,
    0,
    0,
    0,
    0,
    0,
    0,
    0,
    0,
    0,
    0,
    0,
    0,
    0,
    0,
    0,
    0,
    0,
    0,
    0,
    0,
    0,
    0,
    0,
    0,
    0,
    0,
    0,
    0,
    0,
    0,
    0,
    0,
    0,
    0,
    0,
    0,
    0,
    0,
    0,
    0,
    0,
    0,
    0,
    0,
    0,
    0,
    0,
    0,
    0,
    0,
    0,
    0,
    0,
    0,
    0,
    0,
    0,
    0,
    0,
    0,
    0,
    0,
    0,
    0,
    0,
    0,
    0,
    0,
    0,
    0,
    0,
    0,
    0,
    0,
    0,
    0,
    0,
    0,
    0,
    0,
    0,
    0,
    0,
    0,
    0,
    0,
    0,
    0,
    0,
    0,
    0,
    0,
    0,
    0,
    0,
    0,
    0,
    0,
    0,
    0,
    0,
    0,
    0,
    0,
    0,
    0,
    0,
    0,
    0,
    0,
    0,
    0,
    0,
    0,
    0,
    0,
    0,
    0,
    0,
    0,
    0,
    0,
    0,
    0,
    0,
    0,
    0,
    0,
    0,
    0,
    0,
    0,
    0,
    0,
    0,
    0,
    0,
    0,
    0,
    0,
    0,
    0,
    0,
    0,
    0,
    0,
    0,
    0,
    0,
    0,
    0,
    0,
    0,
    0,
    0,
    0,
    0,
    0,
    0,
    0,
    0,
    0,
    0,
    0,
    0,
    0,
    0,
    0,
    0,
    0,
    0,
    0,
    0,
    0,
    0,
    0,
    0,
    0,
    0,
    0,
    0,
    0,
    0,
    0,
    0,
    0,
    0,
    0,
    0,
    0,
    0,
    0,
    0,
    0,
    0,
    0,
    0,
    0,
    0,
    0,
    0,
    0,
    0,
    0,
    0,
    0,
    0,
    0,
    0,
    0,
    0,
    0,
    0,
    0,
    0,
    0,
    0,
    0,
    0,
    0,
    0,
    0,
    0,
    0,
    0,
    0,
    0,
    0,
    0,
    0,
    0,
    0,
    0,
    0,
    0,
    0,
    0,
    0,
    0,
    0,
    0,
    0,
    0,
    0,
    0,
    0,
    0,
    0,
    0,
    0,
    0,
    0,
    0,
    0,
    0,
    0,
    0,
    0,
    0,
    0,
    0,
    0,
    0,
    0,
    0,
    0,
    0,
    0,
    0,
    0,
    0,
    0,
    0,
    0,
    0,
    0,
    0,
    0,
    0,
    0,
    0,
    0,
    0,
    0,
    0,
    0,
    0,
    0,
    0,
    0,
    0,
    0,
    0,
    0,
    0,
    0,
    0,
    0,
    0,
    0,
    0,
    0,
    0,
    0,
    0,
    0,
    0,
    0,
    0,
    0,
    0,
    0,
    0,
    0,
    0,
    0,
    0,
    0,
    0,
    0,
    0,
    0,
    0,
    0,
    0,
    0,
    0,
    0,
    0,
    0,
    0,
    0,
    0,
    0,
    0,
    0,
    0,
    0,
    0,
    0,
    0,
    0,
    0,
    0,
    0,
    0,
    0,
    0,
    0,
    0,
    0,
    0,
    0,
    0,
    0,
    0,
    0,
    0,
    0,
    0,
    0,
    0,
    0,
    0,
    0,
    0,
    0,
    0,
    0,
    0,
    0,
    0,
    0,
    0,
    0,
    0,
    0,
    0,
    0,
    0,
    0,
    0,
    0,
    0,
    0,
    0,
    0,
    0,
    0,
    0,
    0,
    0,
    0,
    0,
    0,
    0,
    0,
    0,
    0,
    0,
    0,
    0,
    0,
    0,
    0,
    0,
    0,
    0,
    0,
    0,
    0,
    0,
    0,
    0,
    0,
    0,
    0,
    0,
    0,
    0,
    0,
    0,
    0,
    0,
    0,
    0,
    0,
    0,
    0,
    0,
    0,
    0,
    0,
    0,
    0,
    0,
    0,
    0,
    0,
    0,
    0,
    0,
    0,
    0,
    0,
    0,
    0,
    0,
    0,
    0,
    0,
    0,
    0,
    0,
    0,
    0,
    0,
    0,
    0,
    0,
    0,
    0,
    0,
    0,
    0,
    0,
    0,
    0,
    0,
    0,
    0,
    0,
    0,
    0,
    0,
    0,
    0,
    0,
    0,
    0,
    0,
    0,
    0,
    0,
    0,
    0,
    0,
    0,
    0,
    0,
    0,
    0,
    0,
    0,
    0,
    0,
    0,
    0,
    0,
    0,
    0,
    0,
    0,
    0,
    0,
    0,
    0,
    0,
    0,
    0,
    0,
    0,
    0,
    0,
    0,
    0,
    0,
    0,
    0,
    0,
    0,
    0,
    0,
    0,
    0,
    0,
    0,
    0,
    0,
    0,
    0,
    0,
    0,
    0,
    0,
    0,
    0,
    0,
    0,
    0,
    0,
    0,
    0,
    0,
    0,
    0,
    0,
    0,
    0,
    0,
    0,
    0,
    0,
    0,
    0,
    0,
    0,
    0,
    0,
    0,
    0,
    0,
    0,
    0,
    0,
    0,
    0,
    0,
    0,
    0,
    0,
    0,
    0,
    0,
    0,
    0,
    0,
    0,
    0,
    0,
    0,
    0,
    0,
    0,
    0,
    0,
    0,
    0,
    0,
    0,
    0,
    0,
    0,
    0,
    0,
    0,
    0,
    0,
    0,
    0,
    0,
    0,
    0,
    0,
    0,
    0,
    0,
    0,
    0,
    0,
    0,
    0,
    0,
    0,
    0,
    0,
    0,
    0,
    0,
    0,
    0,
    0,
    0,
    0,
    0,
    0,
    0,
    0,
    0,
    0,
    0,
    0,
    0,
    0,
    0,
    0,
    0,
    0,
    0,
    0,
    0,
    0,
    0,
    0,
    0,
    0,
    0,
    0,
    0,
    0,
    0,
    0,
    0,
    0,
    0,
    0,
    0,
    0,
    0,
    0,
    0,
    0,
    0,
    0,
    0,
    0,
    0,
    0,
    0,
    0,
    0,
    0,
    0,
    0,
    0,
    0,
    0,
    0,
    0,
    0,
    0,
    0,
    0,
    0,
    0,
    0,
    0,
    0,
    0,
    0,
    0,
    0,
    0,
    0,
    0,
    0,
    0,
    0,
    0,
    0,
    0,
    0,
    0,
    0,
    0,
    0,
    0,
    0,
    0,
    0,
    0,
    0,
    0,
    0,
    0,
    0,
    0,
    0,
    0,
    0,
    0,
    0,
    0,
    0,
    0,
    0,
    0,
    0,
    0,
    0,
    0,
    0,
    0,
    0,
    0,
    0,
    0,
    0,
    0,
    0,
    0,
    0,
    0,
    0,
    0,
    0,
    0,
    0,
    0,
    0,
    0,
    0,
    0,
    0,
    0,
    0,
    0,
    0,
    0,
    0,
    0,
    0,
    0,
    0,
    0,
    0,
    0,
    0,
    0,
    0,
    0,
    0,
    0,
    0,
    0,
    0,
    0,
    0,
    0,
    0,
    0,
    0,
    0,
    0,
    0,
    0,
    0,
    0,
    0,
    0,
    0,
    0,
    0,
    0,
    0,
    0,
    0,
    0,
    0,
    0,
    0,
    0,
    0,
    0,
    0,
    0,
    0,
    0,
    0,
    0,
    0,
    0,
    0,
    0,
    0,
    0,
    0,
    0,
    0,
    0,
    0,
    0,
    0,
    0,
    0,
    0,
    0,
    0,
    0,
    0,
    0,
    0,
    0,
    0,
    0,
    0,
    0,
    0,
    0,
    0,
    0,
    0,
    0,
    0,
    0,
    0,
    0,
    0,
    0,
    0,
    0,
    0,
    0,
    0,
    0,
    0,
    0,
    0,
    0,
    0,
    0,
    0,
    0,
    0,
    0,
    0,
    0,
    0,
    0,
    0,
    0,
    0,
    0,
    0,
    0,
    0,
    0,
    0,
    0,
    0,
    0,
    0,
    0,
    0,
    0,
    0,
    0,
    0,
    0,
    0,
    0,
    0,
    0,
    0,
    0,
    0,
    0,
    0,
    0,
    0,
    0,
    0,
    0,
    0,
    0,
    0,
    0,
    0,
    0,
    0,
    0,
    0,
    0,
    0,
    0,
    0,
    0,
    0,
    0,
    0,
    0,
    0,
    0,
    0,
    0,
    0,
    0,
    0,
    0,
    0,
    0,
    0,
    0,
    0,
    0,
    0,
    0,
    0,
    0,
    0,
    0,
    0,
    0,
    0,
    0,
    0,
    0,
    0,
    0,
    0,
    0,
    0,
    0,
    0,
    0,
    0,
    0,
    0,
    0,
    0,
    0,
    0,
    0,
    0,
    0,
    0,
    0,
    0,
    0,
    0,
    0,
    0,
    0,
    0,
    0,
    0,
    0,
    0,
    0,
    0,
    0,
    0,
    0,
    0,
    0,
    0,
    0,
    0,
    0,
    0,
    0,
    0,
    0,
    0,
    0,
    0,
    0,
    0,
    0,
    0,
    0,
    0,
    0,
    0,
    0,
    0,
    0,
    0,
    0,
    0,
    0,
    0,
    0,
    0,
    0,
    0,
    0,
    0,
    0,
    0,
    0,
    0,
    0,
    0,
    0,
    0,
    0,
    0,
    0,
    0,
    0,
    0,
    0,
    0,
    0,
    0,
    0,
    0,
    0,
    0,
    0,
    0,
    0,
    0,
    0,
    0,
    0,
    0,
    0,
    0,
    0,
    0,
    0,
    0,
    0,
    0,
    0,
    0,
    0,
    0,
    0,
    0,
    0,
    0,
    0,
    0,
    0,
    0,
    0,
    0,
    0,
    0,
    0,
    0,
    0,
    0,
    0,
    0,
    0,
    0,
    0,
    0,
    0,
    0,
    0,
    0,
    0,
    0,
    0,
    0,
    0,
    0,
    0,
    0,
    0,
    0,
    0,
    0,
    0,
    0,
    0,
    0,
    0,
    0,
    0,
    0,
    0,
    0,
    0,
    0,
    0,
    0,
    0,
    0,
    0,
    0,
    0,
    0,
    0,
    0,
    0,
    0,
    0,
    0,
    0,
    0,
    0,
    0,
    0,
    0,
    0,
    0,
    0,
    0,
    0,
    0,
    0,
    0,
    0,
    0,
    0,
    0,
    0,
    0,
    0,
    0,
    0,
    0,
    0,
    0,
    0,
    0,
    0,
    0,
    0,
    0,
    0,
    0,
    0,
    0,
    0,
    0,
    0,
    0,
    0,
    0,
    0,
    0,
    0,
    0,
    0,
    0,
    0,
    0,
    0,
    0,
    0,
    0,
    0,
    0,
    0,
    0,
    0,
    0,
    0,
    0,
    0,
    0,
    0,
    0,
    0,
    0,
    0,
    0,
    0,
    0,
    0,
    0,
    0,
    0,
    0,
    0,
    0,
    0,
    0,
    0,
    0,
    0,
    0,
    0,
    0,
    0,
    0,
    0,
    0,
    0,
    0,
    0,
    0,
    0,
    0,
    0,
    0,
    0,
    0,
    0,
    0,
    0,
    0,
    0,
    0,
    0,
    0,
    0,
    0,
    0,
    0,
    0,
    0,
    0,
    0,
    0,
    0,
    0,
    0,
    0,
    0,
    0,
    0,
    0,
    0,
    0,
    0,
    0,
    0,
    0,
    0,
    0,
    0,
    0,
    0,
    0,
    0,
    0,
    0,
    0,
    0,
    0,
    0,
    0,
    0,
    0,
    0,
    0,
    0,
    0,
    0,
    0,
    0,
    0,
    0,
    0,
    0,
    0,
    0,
    0,
    0,
    0,
    0,
    0,
    0,
    0,
    0,
    0,
    0,
    0,
    0,
    0,
    0,
    0,
    0,
    0,
    0,
    0,
    0,
    0,
    0,
    0,
    0,
    0,
    0,
    0,
    0,
    0,
    0,
    0,
    0,
    0,
    0,
    0,
    0,
    0,
    0,
    0,
    0,
    0,
    0,
    0,
    0,
    0,
    0,
    0,
    0,
    0,
    0,
    0,
    0,
    0,
    0,
    0,
    0,
    0,
    0,
    0,
    0,
    0,
    0,
    0,
    0,
    0,
    391,
    392,
    0,
    0,
    0,
    0,
    0,
    0,
    0,
    0,
    0,
    0,
    0,
    0,
    0,
    0,
    0,
    0,
    0,
    0,
    0,
    0,
    0,
    0,
    0,
    0,
    0,
    0,
    0,
    0,
    0,
    0,
    0,
    0,
    0,
    0,
    0,
    0,
    0,
    0,
    0,
    0,
    0,
    0,
    0,
    0,
    0,
    0,
    0,
    0,
    0,
    0,
    0,
    0,
    0,
    0,
    0,
    0,
    0,
    0,
    0,
    0,
    0,
    0,
    0,
    0,
    0,
    0,
    0,
    0,
    0,
    0,
    0,
    0,
    0,
    0,
    0,
    0,
    0,
    0,
    0,
    0,
    0,
    0,
    0,
    0,
    0,
    0,
    0,
    0,
    0,
    0,
    0,
    0,
    0,
    0,
    0,
    0,
    0,
    0,
    0,
    0,
    0,
    0,
    0,
    0,
    0,
    0,
    0,
    0,
    0,
    0,
    0,
    0,
    0,
    0,
    0,
    0,
    0,
    0,
    0,
    0,
    0,
    0,
    0,
    0,
    0,
    0,
    0,
    0,
    0,
    0,
    0,
    0,
    0,
    0,
    0,
    0,
    0,
    0,
    0,
    0,
    0,
    0,
    0,
    0,
    0,
    0,
    0,
    0,
    0,
    0,
    0,
    0,
    0,
    0,
    0,
    0,
    0,
    0,
    0,
    0,
    0,
    0,
    0,
    0,
    0,
    0,
    0,
    0,
    0,
    0,
    0,
    0,
    0,
    0,
    0,
    0,
    0,
    0,
    0,
    0,
    0,
    0,
    0,
    0,
    0,
    0,
    0,
    0,
    0,
    0,
    0,
    0,
    0,
    0,
    0,
    0,
    0,
    0,
    0,
    0,
    0,
    0,
    0,
    0,
    0,
    0,
    0,
    0,
    0,
    0,
    0,
    0,
    0,
    0,
    0,
    0,
    0,
    0,
    0,
    0,
    0,
    0,
    0,
    0,
    0,
    0,
    0,
    0,
    0,
    0,
    0,
    0,
    0,
    0,
    0,
    0,
    0,
    0,
    0,
    0,
    0,
    0,
    0,
    0,
    0,
    0,
    0,
    0,
    0,
    0,
    0,
    0,
    0,
    0,
    0,
    0,
    0,
    0,
    0,
    0,
    0,
    0,
    0,
    0,
    0,
    0,
    0,
    0,
    0,
    0,
    0,
    0,
    0,
    0,
    0,
    0,
    0,
    0,
    0,
    0,
    0,
    0,
    0,
    0,
    0,
    0,
    0,
    0,
    0,
    0,
    0,
    0,
    0,
    0,
    0,
    0,
    0,
    0,
    0,
    0,
    0,
    0,
    0,
    0,
    0,
    0,
    0,
    0,
    0,
    0,
    0,
    0,
    0,
    0,
    0,
    0,
    0,
    0,
    0,
    0,
    0,
    0,
    0,
    0,
    0,
    0,
    0,
    0,
    0,
    0,
    0,
    0,
    0,
    0,
    0,
    0,
    0,
    0,
    0,
    0,
    0,
    0,
    0,
    0,
    0,
    0,
    0,
    0,
    0,
    0,
    0,
    0,
    0,
    0,
    0,
    0,
    0,
    0,
    0,
    0,
    0,
    0,
    0,
    0,
    0,
    0,
    0,
    0,
    0,
    0,
    0,
    0,
    0,
    0,
    0,
    0,
    0,
    0,
    0,
    0,
    0,
    0,
    0,
    0,
    0,
    0,
    0,
    0,
    0,
    0,
    0,
    0,
    0,
    0,
    0,
    0,
    0,
    0,
    0,
    0,
    0,
    0,
    0,
    0,
    0,
    0,
    0,
    0,
    0,
    0,
    0,
    0,
    0,
    0,
    0,
    0,
    0,
    0,
    0,
    0,
    0,
    0,
    0,
    0,
    0,
    0,
    0,
    0,
    0,
    0,
    0,
    0,
    0,
    0,
    0,
    0,
    0,
    0,
    0,
    0,
    0,
    0,
    0,
    0,
    0,
    0,
    0,
    0,
    0,
    0,
    0,
    0,
    0,
    0,
    0,
    0,
    0,
    435,
    436,
    437,
    0,
    0,
    0,
    0,
    0,
    0,
    0,
    0,
    0,
    0,
    0,
    0,
    0,
    395,
    396,
    0,
    0,
    403,
    404,
    0,
    0,
    435,
    436,
    437,
    0,
    0,
    0,
    0,
    435,
    436,
    437,
    0,
    0,
    0,
    0,
    0,
    0,
    0,
    0,
    0,
    0,
    0,
    0,
    0,
    0,
    0,
    0,
    0,
    0,
    0,
    0,
    0,
    0,
    0,
    0,
    0,
    0,
    0,
    0,
    0,
    0,
    0,
    0,
    0,
    0,
    0,
    0,
    0,
    0,
    435,
    436,
    437,
    0,
    0,
    0,
    0,
    0,
    0,
    0,
    0,
    0,
    0,
    0,
    0,
    0,
    0,
    0,
    0,
    0,
    0,
    0,
    0,
    0,
    438,
    439,
    440,
    0,
    0,
    0,
    0,
    0,
    0,
    0,
    0,
    0,
    0,
    0,
    0,
    0,
    0,
    0,
    0,
    0,
    0,
    0,
    0,
    0,
    438,
    439,
    440,
    0,
    0,
    0,
    0,
    438,
    439,
    440,
    0,
    0,
    0,
    0,
    0,
    0,
    0,
    0,
    0,
    0,
    0,
    0,
    0,
    0,
    0,
    0,
    0,
    0,
    0,
    0,
    0,
    0,
    0,
    0,
    0,
    0,
    0,
    0,
    0,
    0,
    0,
    0,
    0,
    0,
    0,
    0,
    0,
    0,
    438,
    439,
    440,
    0,
    0,
    0,
    0,
    0,
    0,
    0,
    0,
    0,
    0,
    0,
    0,
    0,
    0,
    0,
    0,
    0,
    0,
    0,
    0,
    0,
    0,
    0,
    0,
    0,
    0,
    0,
    0,
    0,
    0,
    0,
    0,
    0,
    0,
    0,
    0,
    0,
    0,
    0,
    0,
    0,
    0,
    0,
    0,
    0,
    0,
    0,
    0,
    0,
    0,
    0,
    0,
    0,
    0,
    0,
    0,
    0,
    0,
    0,
    0,
    0,
    0,
    0,
    0,
    0,
    0,
    0,
    0,
    0,
    0,
    0,
    0,
    0,
    0,
    0,
    0,
    0,
    0,
    0,
    0,
    0,
    0,
    0,
    0,
    0,
    0,
    0,
    0,
    0,
    0,
    0,
    0,
    0,
    0,
    0,
    0,
    0,
    0,
    0,
    0,
    0,
    0,
    0,
    0,
    0,
    0,
    0,
    0,
    0,
    0,
    0,
    0,
    0,
    0,
    0,
    0,
    0,
    0,
    0,
    0,
    0,
    0,
    0,
    0,
    0,
    0,
    0,
    0,
    0,
    0,
    0,
    0,
    0,
    0,
    0,
    0,
    0,
    0,
    0,
    0,
    0,
    0,
    0,
    0,
    0,
    0,
    0,
    0,
    0,
    0,
    0,
    0,
    0,
    0,
    0,
    0,
    0,
    0,
    0,
    0,
    0,
    0,
    0,
    0,
    0,
    0,
    0,
    0,
    0,
    0,
    0,
    0,
    0,
    0,
    0,
    0,
    0,
    0,
    0,
    0,
    0,
    0,
    0,
    0,
    0,
    0,
    0,
    0,
    0,
    0,
    0,
    0,
    0,
    0,
    0,
    0,
    0,
    0,
    0,
    0,
    0,
    0,
    0,
    0,
    0,
    0,
    0,
    0,
    0,
    0,
    0,
    0,
    0,
    0,
    0,
    0,
    0,
    0,
    0,
    0,
    0,
    0,
    0,
    0,
    0,
    0,
    0,
    0,
    0,
    0,
    0,
    0,
    0,
    0,
    0,
    0,
    0,
    0,
    0,
    0,
    0,
    0,
    0,
    0,
    0,
    0,
    0,
    0,
    0,
    0,
    0,
    0,
    0,
    0,
    0,
    0,
    0,
    0,
    0,
    0,
    0,
    0,
    0,
    0,
    0,
    0,
    0,
    0,
    0,
    0,
    0,
    0,
    0,
    0,
    0,
    0,
    0,
    0,
    0,
    0,
    0,
    0,
    0,
    0,
    0,
    0,
    0,
    0,
    0,
    0,
    0,
    0,
    0,
    0,
    0,
    0,
    0,
    0,
    0,
    0,
    0,
    0,
    0,
    0,
    0,
    0,
    0,
    0,
    0,
    0,
    0,
    0,
    0,
    0,
    0,
    0,
    0,
    0,
    0,
    0,
    0,
    0,
    0,
    0,
    0,
    0,
    0,
    0,
    0,
    0,
    0,
    0,
    0,
    0,
    0,
    0,
    0,
    0,
    0,
    0,
    0,
    0,
    0,
    0,
    0,
    0,
    0,
    0,
    0,
    0,
    0,
    0,
    0,
    0,
    0,
    0,
    0,
    0,
    0,
    0,
    0,
    0,
    0,
    0,
    0,
    0,
    0,
    0,
    0,
    0,
    0,
    0,
    0,
    0,
    0,
    0,
    0,
    0,
    0,
    0,
    0,
    0,
    0,
    0,
    0
   ]
  },
  {
   "id": 5,
   "type": "objectgroup",
   "name": "objects",
   "x": 0,
   "y": 0,
   "opacity": 1,
   "visible": true,
   "draworder": "topdown",
   "objects": [
    {
     "id": 1,
     "class": "area",
     "name": "gruta-umida",
     "x": 0,
     "y": 0,
     "width": 768,
     "height": 1152,
     "rotation": 0,
     "visible": true,
     "properties": [
      {
       "name": "id",
       "type": "string",
       "value": "gruta-umida"
      },
      {
       "name": "name",
       "type": "string",
       "value": "Gruta Úmida"
      }
     ]
    },
    {
     "id": 2,
     "class": "spawnPoint",
     "name": "spawnPoint",
     "x": 64,
     "y": 96,
     "width": 32,
     "height": 32,
     "rotation": 0,
     "visible": true,
     "properties": []
    },
    {
     "id": 3,
     "class": "pokecenter",
     "name": "pokecenter",
     "x": 672,
     "y": 1056,
     "width": 32,
     "height": 32,
     "rotation": 0,
     "visible": true,
     "properties": []
    },
    {
     "id": 4,
     "class": "spawn",
     "name": "spawn",
     "x": 16,
     "y": 48,
     "width": 256,
     "height": 256,
     "rotation": 0,
     "visible": true,
     "properties": [
      {
       "name": "species",
       "type": "string",
       "value": "arbok"
      },
      {
       "name": "minLevel",
       "type": "int",
       "value": 36
      },
      {
       "name": "maxLevel",
       "type": "int",
       "value": 42
      },
      {
       "name": "count",
       "type": "int",
       "value": 6
      },
      {
       "name": "respawnSeconds",
       "type": "int",
       "value": 20
      }
     ]
    },
    {
     "id": 5,
     "class": "spawn",
     "name": "spawn",
     "x": 240,
     "y": 400,
     "width": 256,
     "height": 256,
     "rotation": 0,
     "visible": true,
     "properties": [
      {
       "name": "species",
       "type": "string",
       "value": "magmar"
      },
      {
       "name": "minLevel",
       "type": "int",
       "value": 38
      },
      {
       "name": "maxLevel",
       "type": "int",
       "value": 44
      },
      {
       "name": "count",
       "type": "int",
       "value": 4
      },
      {
       "name": "respawnSeconds",
       "type": "int",
       "value": 20
      }
     ]
    },
    {
     "id": 6,
     "class": "area",
     "name": "tunel-rocha",
     "x": 768,
     "y": 0,
     "width": 768,
     "height": 1152,
     "rotation": 0,
     "visible": true,
     "properties": [
      {
       "name": "id",
       "type": "string",
       "value": "tunel-rocha"
      },
      {
       "name": "name",
       "type": "string",
       "value": "Túnel Rocha"
      }
     ]
    },
    {
     "id": 7,
     "class": "spawnPoint",
     "name": "spawnPoint",
     "x": 832,
     "y": 96,
     "width": 32,
     "height": 32,
     "rotation": 0,
     "visible": true,
     "properties": []
    },
    {
     "id": 8,
     "class": "pokecenter",
     "name": "pokecenter",
     "x": 1376,
     "y": 1056,
     "width": 32,
     "height": 32,
     "rotation": 0,
     "visible": true,
     "properties": []
    },
    {
     "id": 9,
     "class": "spawn",
     "name": "spawn",
     "x": 784,
     "y": 48,
     "width": 256,
     "height": 256,
     "rotation": 0,
     "visible": true,
     "properties": [
      {
       "name": "species",
       "type": "string",
       "value": "kabutops"
      },
      {
       "name": "minLevel",
       "type": "int",
       "value": 40
      },
      {
       "name": "maxLevel",
       "type": "int",
       "value": 46
      },
      {
       "name": "count",
       "type": "int",
       "value": 3
      },
      {
       "name": "respawnSeconds",
       "type": "int",
       "value": 20
      }
     ]
    },
    {
     "id": 10,
     "class": "spawn",
     "name": "spawn",
     "x": 1008,
     "y": 400,
     "width": 256,
     "height": 256,
     "rotation": 0,
     "visible": true,
     "properties": [
      {
       "name": "species",
       "type": "string",
       "value": "beedrill"
      },
      {
       "name": "minLevel",
       "type": "int",
       "value": 41
      },
      {
       "name": "maxLevel",
       "type": "int",
       "value": 48
      },
      {
       "name": "count",
       "type": "int",
       "value": 6
      },
      {
       "name": "respawnSeconds",
       "type": "int",
       "value": 20
      }
     ]
    },
    {
     "id": 11,
     "class": "area",
     "name": "campo-safari",
     "x": 1536,
     "y": 0,
     "width": 768,
     "height": 1152,
     "rotation": 0,
     "visible": true,
     "properties": [
      {
       "name": "id",
       "type": "string",
       "value": "campo-safari"
      },
      {
       "name": "name",
       "type": "string",
       "value": "Campo Safári"
      }
     ]
    },
    {
     "id": 12,
     "class": "spawnPoint",
     "name": "spawnPoint",
     "x": 1856,
     "y": 96,
     "width": 32,
     "height": 32,
     "rotation": 0,
     "visible": true,
     "properties": []
    },
    {
     "id": 13,
     "class": "pokecenter",
     "name": "pokecenter",
     "x": 2208,
     "y": 1056,
     "width": 32,
     "height": 32,
     "rotation": 0,
     "visible": true,
     "properties": []
    },
    {
     "id": 14,
     "class": "spawn",
     "name": "spawn",
     "x": 1712,
     "y": 48,
     "width": 256,
     "height": 256,
     "rotation": 0,
     "visible": true,
     "properties": [
      {
       "name": "species",
       "type": "string",
       "value": "exeggutor"
      },
      {
       "name": "minLevel",
       "type": "int",
       "value": 44
      },
      {
       "name": "maxLevel",
       "type": "int",
       "value": 50
      },
      {
       "name": "count",
       "type": "int",
       "value": 5
      },
      {
       "name": "respawnSeconds",
       "type": "int",
       "value": 20
      }
     ]
    },
    {
     "id": 15,
     "class": "spawn",
     "name": "spawn",
     "x": 1776,
     "y": 400,
     "width": 256,
     "height": 256,
     "rotation": 0,
     "visible": true,
     "properties": [
      {
       "name": "species",
       "type": "string",
       "value": "wigglytuff"
      },
      {
       "name": "minLevel",
       "type": "int",
       "value": 45
      },
      {
       "name": "maxLevel",
       "type": "int",
       "value": 52
      },
      {
       "name": "count",
       "type": "int",
       "value": 5
      },
      {
       "name": "respawnSeconds",
       "type": "int",
       "value": 20
      }
     ]
    },
    {
     "id": 16,
     "class": "area",
     "name": "usina-velha",
     "x": 2304,
     "y": 0,
     "width": 768,
     "height": 1152,
     "rotation": 0,
     "visible": true,
     "properties": [
      {
       "name": "id",
       "type": "string",
       "value": "usina-velha"
      },
      {
       "name": "name",
       "type": "string",
       "value": "Usina Velha"
      }
     ]
    },
    {
     "id": 17,
     "class": "spawnPoint",
     "name": "spawnPoint",
     "x": 2752,
     "y": 96,
     "width": 32,
     "height": 32,
     "rotation": 0,
     "visible": true,
     "properties": []
    },
    {
     "id": 18,
     "class": "pokecenter",
     "name": "pokecenter",
     "x": 2976,
     "y": 1056,
     "width": 32,
     "height": 32,
     "rotation": 0,
     "visible": true,
     "properties": []
    },
    {
     "id": 19,
     "class": "spawn",
     "name": "spawn",
     "x": 2608,
     "y": 48,
     "width": 256,
     "height": 256,
     "rotation": 0,
     "visible": true,
     "properties": [
      {
       "name": "species",
       "type": "string",
       "value": "raichu"
      },
      {
       "name": "minLevel",
       "type": "int",
       "value": 48
      },
      {
       "name": "maxLevel",
       "type": "int",
       "value": 54
      },
      {
       "name": "count",
       "type": "int",
       "value": 2
      },
      {
       "name": "respawnSeconds",
       "type": "int",
       "value": 20
      }
     ]
    },
    {
     "id": 20,
     "class": "spawn",
     "name": "spawn",
     "x": 2544,
     "y": 400,
     "width": 256,
     "height": 256,
     "rotation": 0,
     "visible": true,
     "properties": [
      {
       "name": "species",
       "type": "string",
       "value": "magmar"
      },
      {
       "name": "minLevel",
       "type": "int",
       "value": 49
      },
      {
       "name": "maxLevel",
       "type": "int",
       "value": 56
      },
      {
       "name": "count",
       "type": "int",
       "value": 7
      },
      {
       "name": "respawnSeconds",
       "type": "int",
       "value": 20
      }
     ]
    },
    {
     "id": 21,
     "class": "area",
     "name": "ilhas-espuma",
     "x": 0,
     "y": 1152,
     "width": 768,
     "height": 1152,
     "rotation": 0,
     "visible": true,
     "properties": [
      {
       "name": "id",
       "type": "string",
       "value": "ilhas-espuma"
      },
      {
       "name": "name",
       "type": "string",
       "value": "Ilhas Espuma"
      }
     ]
    },
    {
     "id": 22,
     "class": "spawnPoint",
     "name": "spawnPoint",
     "x": 32,
     "y": 1312,
     "width": 32,
     "height": 32,
     "rotation": 0,
     "visible": true,
     "properties": []
    },
    {
     "id": 23,
     "class": "pokecenter",
     "name": "pokecenter",
     "x": 672,
     "y": 2208,
     "width": 32,
     "height": 32,
     "rotation": 0,
     "visible": true,
     "properties": []
    },
    {
     "id": 24,
     "class": "spawn",
     "name": "spawn",
     "x": 432,
     "y": 1232,
     "width": 256,
     "height": 256,
     "rotation": 0,
     "visible": true,
     "properties": [
      {
       "name": "species",
       "type": "string",
       "value": "kabutops"
      },
      {
       "name": "minLevel",
       "type": "int",
       "value": 52
      },
      {
       "name": "maxLevel",
       "type": "int",
       "value": 58
      },
      {
       "name": "count",
       "type": "int",
       "value": 2
      },
      {
       "name": "respawnSeconds",
       "type": "int",
       "value": 20
      }
     ]
    },
    {
     "id": 25,
     "class": "spawn",
     "name": "spawn",
     "x": 240,
     "y": 1552,
     "width": 256,
     "height": 256,
     "rotation": 0,
     "visible": true,
     "properties": [
      {
       "name": "species",
       "type": "string",
       "value": "wigglytuff"
      },
      {
       "name": "minLevel",
       "type": "int",
       "value": 53
      },
      {
       "name": "maxLevel",
       "type": "int",
       "value": 60
      },
      {
       "name": "count",
       "type": "int",
       "value": 7
      },
      {
       "name": "respawnSeconds",
       "type": "int",
       "value": 20
      }
     ]
    },
    {
     "id": 26,
     "class": "area",
     "name": "mata-fechada",
     "x": 768,
     "y": 1152,
     "width": 768,
     "height": 1152,
     "rotation": 0,
     "visible": true,
     "properties": [
      {
       "name": "id",
       "type": "string",
       "value": "mata-fechada"
      },
      {
       "name": "name",
       "type": "string",
       "value": "Mata Fechada"
      }
     ]
    },
    {
     "id": 27,
     "class": "spawnPoint",
     "name": "spawnPoint",
     "x": 1152,
     "y": 1344,
     "width": 32,
     "height": 32,
     "rotation": 0,
     "visible": true,
     "properties": []
    },
    {
     "id": 28,
     "class": "pokecenter",
     "name": "pokecenter",
     "x": 1440,
     "y": 2208,
     "width": 32,
     "height": 32,
     "rotation": 0,
     "visible": true,
     "properties": []
    },
    {
     "id": 29,
     "class": "spawn",
     "name": "spawn",
     "x": 1008,
     "y": 1232,
     "width": 256,
     "height": 256,
     "rotation": 0,
     "visible": true,
     "properties": [
      {
       "name": "species",
       "type": "string",
       "value": "exeggutor"
      },
      {
       "name": "minLevel",
       "type": "int",
       "value": 56
      },
      {
       "name": "maxLevel",
       "type": "int",
       "value": 62
      },
      {
       "name": "count",
       "type": "int",
       "value": 5
      },
      {
       "name": "respawnSeconds",
       "type": "int",
       "value": 20
      }
     ]
    },
    {
     "id": 30,
     "class": "spawn",
     "name": "spawn",
     "x": 1008,
     "y": 1552,
     "width": 256,
     "height": 256,
     "rotation": 0,
     "visible": true,
     "properties": [
      {
       "name": "species",
       "type": "string",
       "value": "pidgeot"
      },
      {
       "name": "minLevel",
       "type": "int",
       "value": 58
      },
      {
       "name": "maxLevel",
       "type": "int",
       "value": 64
      },
      {
       "name": "count",
       "type": "int",
       "value": 4
      },
      {
       "name": "respawnSeconds",
       "type": "int",
       "value": 20
      }
     ]
    },
    {
     "id": 31,
     "class": "area",
     "name": "trilha-da-vitoria",
     "x": 1536,
     "y": 1152,
     "width": 768,
     "height": 1152,
     "rotation": 0,
     "visible": true,
     "properties": [
      {
       "name": "id",
       "type": "string",
       "value": "trilha-da-vitoria"
      },
      {
       "name": "name",
       "type": "string",
       "value": "Trilha da Vitória"
      }
     ]
    },
    {
     "id": 32,
     "class": "spawnPoint",
     "name": "spawnPoint",
     "x": 1600,
     "y": 1248,
     "width": 32,
     "height": 32,
     "rotation": 0,
     "visible": true,
     "properties": []
    },
    {
     "id": 33,
     "class": "pokecenter",
     "name": "pokecenter",
     "x": 1664,
     "y": 2208,
     "width": 32,
     "height": 32,
     "rotation": 0,
     "visible": true,
     "properties": []
    },
    {
     "id": 34,
     "class": "spawn",
     "name": "spawn",
     "x": 1552,
     "y": 1200,
     "width": 256,
     "height": 256,
     "rotation": 0,
     "visible": true,
     "properties": [
      {
       "name": "species",
       "type": "string",
       "value": "pidgeot"
      },
      {
       "name": "minLevel",
       "type": "int",
       "value": 60
      },
      {
       "name": "maxLevel",
       "type": "int",
       "value": 66
      },
      {
       "name": "count",
       "type": "int",
       "value": 5
      },
      {
       "name": "respawnSeconds",
       "type": "int",
       "value": 20
      }
     ]
    },
    {
     "id": 35,
     "class": "spawn",
     "name": "spawn",
     "x": 1552,
     "y": 1936,
     "width": 256,
     "height": 256,
     "rotation": 0,
     "visible": true,
     "properties": [
      {
       "name": "species",
       "type": "string",
       "value": "wigglytuff"
      },
      {
       "name": "minLevel",
       "type": "int",
       "value": 61
      },
      {
       "name": "maxLevel",
       "type": "int",
       "value": 68
      },
      {
       "name": "count",
       "type": "int",
       "value": 4
      },
      {
       "name": "respawnSeconds",
       "type": "int",
       "value": 20
      }
     ]
    },
    {
     "id": 36,
     "class": "area",
     "name": "cume-indigo",
     "x": 2304,
     "y": 1152,
     "width": 768,
     "height": 1152,
     "rotation": 0,
     "visible": true,
     "properties": [
      {
       "name": "id",
       "type": "string",
       "value": "cume-indigo"
      },
      {
       "name": "name",
       "type": "string",
       "value": "Cume Índigo"
      }
     ]
    },
    {
     "id": 37,
     "class": "spawnPoint",
     "name": "spawnPoint",
     "x": 2848,
     "y": 1248,
     "width": 32,
     "height": 32,
     "rotation": 0,
     "visible": true,
     "properties": []
    },
    {
     "id": 38,
     "class": "pokecenter",
     "name": "pokecenter",
     "x": 2976,
     "y": 2208,
     "width": 32,
     "height": 32,
     "rotation": 0,
     "visible": true,
     "properties": []
    },
    {
     "id": 39,
     "class": "spawn",
     "name": "spawn",
     "x": 2800,
     "y": 1200,
     "width": 256,
     "height": 256,
     "rotation": 0,
     "visible": true,
     "properties": [
      {
       "name": "species",
       "type": "string",
       "value": "nidoking"
      },
      {
       "name": "minLevel",
       "type": "int",
       "value": 64
      },
      {
       "name": "maxLevel",
       "type": "int",
       "value": 70
      },
      {
       "name": "count",
       "type": "int",
       "value": 6
      },
      {
       "name": "respawnSeconds",
       "type": "int",
       "value": 20
      }
     ]
    },
    {
     "id": 40,
     "class": "spawn",
     "name": "spawn",
     "x": 2352,
     "y": 1744,
     "width": 256,
     "height": 256,
     "rotation": 0,
     "visible": true,
     "properties": [
      {
       "name": "species",
       "type": "string",
       "value": "raichu"
      },
      {
       "name": "minLevel",
       "type": "int",
       "value": 66
      },
      {
       "name": "maxLevel",
       "type": "int",
       "value": 72
      },
      {
       "name": "count",
       "type": "int",
       "value": 2
      },
      {
       "name": "respawnSeconds",
       "type": "int",
       "value": 20
      }
     ]
    },
    {
     "id": 41,
     "class": "spawn",
     "name": "spawn",
     "x": 2768,
     "y": 1904,
     "width": 256,
     "height": 256,
     "rotation": 0,
     "visible": true,
     "properties": [
      {
       "name": "species",
       "type": "string",
       "value": "snorlax"
      },
      {
       "name": "minLevel",
       "type": "int",
       "value": 68
      },
      {
       "name": "maxLevel",
       "type": "int",
       "value": 72
      },
      {
       "name": "count",
       "type": "int",
       "value": 1
      },
      {
       "name": "respawnSeconds",
       "type": "int",
       "value": 20
      }
     ]
    }
   ]
  }
 ]
}